<?xml version="1.0" encoding="UTF-8"?>
<map version="1.10" tiledversion="1.12.2" orientation="orthogonal" renderorder="left-up" width="128" height="128" tilewidth="16" tileheight="16" infinite="0" nextlayerid="13" nextobjectid="299">
 <tileset firstgid="1" source="tileset.tsx"/>
 <layer id="1" name="Ground" width="128" height="128" locked="1">
  <properties>
   <property name="ground" type="bool" value="true"/>
   <property name="tile" type="bool" value="true"/>
  </properties>
  <data encoding="csv">
40,40,40,40,40,40,40,40,40,40,40,40,40,40,40,40,40,40,40,40,40,40,40,40,40,40,40,40,40,40,40,40,40,40,40,40,40,40,40,40,40,40,40,40,40,40,40,40,40,40,40,40,40,40,40,40,40,40,40,40,40,40,40,40,40,40,40,40,40,40,40,40,40,40,40,40,40,40,40,40,40,40,40,40,40,40,40,40,40,40,40,40,40,40,40,40,40,40,40,40,40,40,40,40,40,40,40,40,40,40,40,40,40,40,40,40,40,40,40,40,40,40,40,40,40,40,40,40,
40,40,40,40,40,40,40,40,40,40,40,40,40,40,40,40,40,40,40,40,40,40,40,40,40,40,40,40,40,40,40,40,40,40,40,40,40,40,40,40,40,40,40,40,40,40,40,40,40,40,40,40,40,40,40,40,40,40,40,40,40,40,40,40,40,40,40,40,40,40,40,40,40,40,40,40,40,40,40,40,40,40,40,40,40,40,40,40,40,40,40,40,40,40,40,40,40,40,40,40,40,40,40,40,40,40,40,40,40,40,40,40,40,40,40,40,40,40,40,40,40,40,40,40,40,40,40,40,
40,40,40,40,40,40,40,40,40,40,40,40,40,40,40,40,40,40,40,40,40,40,40,40,40,40,40,40,40,40,40,40,40,40,40,40,40,40,40,40,40,40,40,40,40,40,40,40,40,40,40,40,40,40,40,40,40,40,40,40,40,40,40,40,40,40,40,40,40,40,40,40,40,40,40,40,40,40,40,40,40,40,40,40,40,40,40,40,40,40,40,40,40,40,40,40,40,40,40,40,40,40,40,40,40,40,40,40,40,40,40,40,40,40,40,40,40,40,40,40,40,40,40,40,40,40,40,40,
40,40,40,40,40,40,40,40,40,40,40,40,40,40,40,40,40,40,40,40,40,40,40,40,40,40,40,40,40,40,40,40,40,40,40,40,40,40,40,40,40,40,40,40,40,40,40,40,40,40,40,40,40,40,40,40,40,40,40,40,40,40,40,40,40,40,40,40,40,40,40,40,40,40,40,40,40,40,40,40,40,40,40,40,40,40,40,40,40,40,40,40,40,40,40,40,40,40,40,40,40,40,40,40,40,40,40,40,40,40,40,40,40,40,40,40,40,40,40,40,40,40,40,40,40,40,40,40,
40,40,40,40,40,40,40,40,40,40,40,40,40,40,40,40,40,40,40,40,40,40,40,40,40,40,40,40,40,40,40,40,40,40,40,40,40,40,40,40,40,40,40,40,40,40,40,40,40,40,40,40,40,40,40,40,40,40,40,40,40,40,40,40,40,40,40,40,40,40,40,40,40,40,40,40,40,40,40,40,40,40,40,40,40,40,40,40,40,40,40,40,40,40,40,40,40,40,40,40,40,40,40,40,40,40,40,40,40,40,40,40,40,40,40,40,40,40,40,40,40,40,40,40,40,40,40,40,
40,40,40,40,40,40,40,40,40,40,40,40,40,40,40,40,40,40,40,40,40,40,40,40,40,40,40,40,40,40,40,40,40,40,40,40,40,40,40,40,40,40,40,40,40,40,40,40,40,40,40,40,40,40,40,40,40,40,40,40,40,40,40,40,40,40,40,40,40,40,40,40,40,40,40,40,40,40,40,40,40,40,40,40,40,40,40,40,40,40,40,40,40,40,40,40,40,40,40,40,40,40,40,40,40,40,40,40,40,40,40,40,40,40,40,40,40,40,40,40,40,40,40,40,40,40,40,40,
40,40,40,40,40,40,40,40,40,40,40,40,40,40,40,40,40,40,40,40,40,40,40,40,40,40,40,40,40,40,40,40,40,40,40,40,40,40,40,40,40,40,40,40,40,40,40,40,40,40,40,40,40,40,40,40,40,40,40,40,40,40,40,40,40,40,40,40,40,40,40,40,40,40,40,40,40,40,40,40,40,40,40,40,40,40,40,40,40,40,40,40,40,40,40,40,40,40,40,40,40,40,40,40,40,40,40,40,40,40,40,40,40,40,40,40,40,40,40,40,40,40,40,40,40,40,40,40,
40,40,40,40,40,40,40,40,40,40,40,40,40,40,40,40,40,40,40,40,40,40,40,40,40,40,40,40,40,40,40,40,40,40,40,40,40,40,40,40,40,40,40,40,40,40,40,40,40,40,40,40,40,40,40,40,40,40,40,40,40,40,40,40,40,40,40,40,40,40,40,40,40,40,40,40,40,40,40,40,40,40,40,40,40,40,40,40,40,40,40,40,40,40,40,40,40,40,40,40,40,40,40,40,40,40,40,40,40,40,40,40,40,40,40,40,40,40,40,40,40,40,40,40,40,40,40,40,
40,40,40,40,40,40,40,40,40,40,40,40,40,40,40,40,40,40,40,40,40,40,40,40,40,40,40,40,40,40,40,40,40,40,40,40,40,40,40,40,40,40,40,40,40,40,40,40,40,40,40,40,40,40,40,40,40,40,40,40,40,40,40,40,40,40,40,40,40,40,40,40,40,40,40,40,40,40,40,40,40,40,40,40,40,40,40,40,40,40,40,40,40,40,40,40,40,40,40,40,40,40,40,40,40,40,40,40,40,40,40,40,40,40,40,40,40,40,40,40,40,40,40,40,40,40,40,40,
40,40,40,40,40,40,40,40,40,40,40,40,40,40,40,40,40,40,40,40,40,40,40,40,40,40,40,40,40,40,40,40,40,40,40,40,40,40,40,40,40,40,40,40,40,40,40,40,40,40,40,40,40,40,40,40,40,40,40,40,40,40,40,40,40,40,40,40,40,40,40,40,40,40,40,40,40,40,40,40,40,40,40,40,40,40,40,40,40,40,40,40,40,40,40,40,40,40,40,40,40,40,40,40,40,40,40,40,40,40,40,40,40,40,40,40,40,40,40,40,40,40,40,40,40,40,40,40,
40,40,40,40,40,40,40,40,40,40,40,40,40,40,40,40,40,40,40,40,40,40,40,40,40,40,40,40,40,40,40,40,40,40,40,40,40,40,40,40,40,40,40,40,40,40,40,40,40,40,40,40,40,40,40,40,40,40,40,40,40,40,40,40,40,40,40,40,40,40,40,40,40,40,40,40,40,40,40,40,40,40,40,40,40,40,40,40,40,40,40,40,40,40,40,40,40,40,40,40,40,40,40,40,40,40,40,40,40,40,40,40,40,40,40,40,40,40,40,40,40,40,40,40,40,40,40,40,
40,40,40,40,40,40,40,40,40,40,40,40,40,40,40,40,40,40,40,40,40,40,40,40,40,40,40,40,40,40,40,40,40,40,40,40,40,40,40,40,40,40,40,40,40,40,40,40,40,40,40,40,40,40,40,40,40,40,40,40,40,40,40,40,40,40,40,40,40,40,40,40,40,40,40,40,40,40,40,40,40,40,40,40,40,40,40,40,40,40,40,40,40,40,40,40,40,40,40,40,40,40,40,40,40,40,40,40,40,40,40,40,40,40,40,40,40,40,40,40,40,40,40,40,40,40,40,40,
40,40,40,40,40,40,40,40,40,40,40,40,40,40,40,40,40,40,40,40,40,40,40,40,40,40,40,40,40,40,40,40,40,40,40,40,40,40,40,40,40,40,40,40,40,40,40,40,40,40,40,40,40,40,40,40,40,40,40,40,40,40,40,40,40,40,40,40,40,40,40,40,40,40,40,40,40,40,40,40,40,40,40,40,40,40,40,40,40,40,40,40,40,40,40,40,40,40,40,40,40,40,40,40,40,40,40,40,40,40,40,40,40,40,40,40,40,40,40,40,40,40,40,40,40,40,40,40,
40,40,40,40,40,40,40,40,40,40,40,40,40,40,40,40,40,40,40,40,40,40,40,40,40,40,40,40,40,40,40,40,40,40,40,40,40,40,40,40,40,40,40,40,40,40,40,40,40,40,40,40,40,40,40,40,40,40,40,40,40,40,40,40,40,40,40,40,40,40,40,40,40,40,40,40,40,40,40,40,40,40,40,40,40,40,40,40,40,40,40,40,40,40,40,40,40,40,40,40,40,40,40,40,40,40,40,40,40,40,40,40,40,40,40,40,40,40,40,40,40,40,40,40,40,40,40,40,
40,40,40,40,40,40,40,40,40,40,40,40,40,40,40,40,40,40,40,40,40,40,40,40,40,40,40,40,40,40,40,40,40,40,40,40,40,40,40,40,40,40,40,40,40,40,40,40,40,40,40,40,40,40,40,40,40,40,40,40,40,40,40,40,40,40,40,40,40,40,40,40,40,40,40,40,40,40,40,40,40,40,40,40,40,40,40,40,40,40,40,40,40,40,40,40,40,40,40,40,40,40,40,40,40,40,40,40,40,40,40,40,40,40,40,40,40,40,40,40,40,40,40,40,40,40,40,40,
40,40,40,40,40,40,40,40,40,40,40,40,40,40,40,40,40,40,40,40,40,40,40,40,40,40,40,40,40,40,40,40,40,40,40,40,40,40,40,40,40,40,40,40,40,40,40,40,40,40,40,40,40,40,40,40,40,40,40,40,40,40,40,40,40,40,40,40,40,40,40,40,40,40,40,40,40,40,40,40,40,40,40,40,40,40,40,40,40,40,40,40,40,40,40,40,40,40,40,40,40,40,40,40,40,40,40,40,40,40,40,40,40,40,40,40,40,40,40,40,40,40,40,40,40,40,40,40,
40,40,40,40,40,40,40,40,40,40,40,40,40,40,40,40,40,40,40,40,40,40,40,40,40,40,40,40,40,40,40,40,40,40,40,40,40,40,40,40,40,40,40,40,40,40,40,40,40,40,40,40,40,40,40,40,40,40,40,40,40,40,40,40,40,40,40,40,40,40,40,40,40,40,40,40,40,40,40,40,40,40,40,40,40,40,40,40,40,40,40,40,40,40,40,40,40,40,40,40,40,40,40,40,40,40,40,40,40,40,40,40,40,40,40,40,40,40,40,40,40,40,40,40,40,40,40,40,
40,40,40,40,40,40,40,40,40,40,40,40,40,40,40,40,40,40,40,40,40,40,40,40,40,40,40,40,40,40,40,40,40,40,40,40,40,40,40,40,40,40,40,40,40,40,40,40,40,40,40,40,40,40,40,40,40,40,40,40,40,40,40,40,40,40,40,40,40,40,40,40,40,40,40,40,40,40,40,40,40,40,40,40,40,40,40,40,40,40,40,40,40,40,40,40,40,40,40,40,40,40,40,40,40,40,40,40,40,40,40,40,40,40,40,40,40,40,40,40,40,40,40,40,40,40,40,40,
40,40,40,40,40,40,40,40,40,40,40,40,40,40,40,40,40,40,40,40,40,40,40,40,40,40,40,40,40,40,40,40,40,40,40,40,40,40,40,40,40,40,40,40,40,40,40,40,40,40,40,40,40,40,40,40,40,40,40,40,40,40,40,40,40,40,40,40,40,40,40,40,40,40,40,40,40,40,40,40,40,40,40,40,40,40,40,40,40,40,40,40,40,40,40,40,40,40,40,40,40,40,40,40,40,40,40,40,40,40,40,40,40,40,40,40,40,40,40,40,40,40,40,40,40,40,40,40,
40,40,40,40,40,40,40,40,40,40,40,40,40,40,40,40,40,40,40,40,40,40,40,40,40,40,40,40,40,40,40,40,40,40,40,40,40,40,40,40,40,40,40,40,40,40,40,40,40,40,40,40,40,40,40,40,40,40,40,40,40,40,40,40,40,40,40,40,40,40,40,40,40,40,40,40,40,40,40,40,40,40,40,40,40,40,40,40,40,40,40,40,40,40,40,40,40,40,40,40,40,40,40,40,40,40,40,40,40,40,40,40,40,40,40,40,40,40,40,40,40,40,40,40,40,40,40,40,
40,40,40,40,40,40,40,40,40,40,40,40,40,40,40,40,40,40,40,40,40,40,40,40,40,40,40,40,40,40,40,40,40,40,40,40,40,40,40,40,40,40,40,40,40,40,40,40,40,40,40,40,40,40,40,40,40,40,40,40,40,40,40,40,40,40,40,40,40,40,40,40,40,40,40,40,40,40,40,40,40,40,40,40,40,40,40,40,40,40,40,40,40,40,40,40,40,40,40,40,40,40,40,40,40,40,40,40,40,40,40,40,40,40,40,40,40,40,40,40,40,40,40,40,40,40,40,40,
40,40,40,40,40,40,40,40,40,40,40,40,40,40,40,40,40,40,40,40,40,40,40,40,40,40,40,40,40,40,40,40,40,40,40,40,40,40,40,40,40,40,40,40,40,40,40,40,40,40,40,40,40,40,40,40,40,40,40,40,40,40,40,40,40,40,40,40,40,40,40,40,40,40,40,40,40,40,40,40,40,40,40,40,40,40,40,40,40,40,40,40,40,40,40,40,40,40,40,40,40,40,40,40,40,40,40,40,40,40,40,40,40,40,40,40,40,40,40,40,40,40,40,40,40,40,40,40,
40,40,40,40,40,40,40,40,40,40,40,40,40,40,40,40,40,40,40,40,40,40,40,40,40,40,40,40,40,40,40,40,40,40,40,40,40,40,40,40,40,40,40,40,40,40,40,40,40,40,40,40,40,40,40,40,40,40,40,40,40,40,40,40,40,40,40,40,40,40,40,40,40,40,40,40,40,40,40,40,40,40,40,40,40,40,40,40,40,40,40,40,40,40,40,40,40,40,40,40,40,40,40,40,40,40,40,40,40,40,40,40,40,40,40,40,40,40,40,40,40,40,40,40,40,40,40,40,
40,40,40,40,40,40,40,40,40,40,40,40,40,40,40,40,40,40,40,40,40,40,40,40,40,40,40,40,40,40,40,40,40,40,40,40,40,40,40,40,40,40,40,40,40,40,53,54,54,54,54,54,54,54,54,54,54,54,54,54,54,54,54,54,54,54,54,54,54,54,54,54,54,54,54,54,54,54,54,54,54,55,40,40,40,40,40,40,40,40,40,40,40,40,40,40,40,40,40,40,40,40,40,40,40,40,40,40,40,40,40,40,40,40,40,40,40,40,40,40,40,40,40,40,40,40,40,40,
40,40,40,40,40,40,40,40,40,40,40,40,40,40,40,40,40,40,40,40,40,40,40,40,40,40,40,40,40,40,40,40,40,40,40,40,40,40,40,40,40,40,40,40,40,40,66,74,67,41,74,67,42,71,67,41,71,41,67,43,71,71,91,71,42,42,41,41,91,71,67,71,67,67,41,74,91,74,91,74,74,68,40,40,40,40,40,40,40,40,40,40,40,40,40,40,40,40,40,40,40,40,40,40,40,40,40,40,40,40,40,40,40,40,40,40,40,40,40,40,40,40,40,40,40,40,40,40,
40,40,40,40,40,40,40,40,40,40,40,40,40,40,40,40,40,40,40,40,40,40,40,40,40,40,40,40,40,40,40,40,40,40,40,40,53,54,54,54,54,54,54,54,54,54,47,41,67,43,42,74,91,74,71,91,43,91,91,42,41,41,71,42,41,43,91,74,91,74,74,41,91,41,42,42,41,74,43,71,91,46,54,54,54,54,54,54,54,54,54,55,40,40,40,40,40,40,40,40,40,40,40,40,40,40,40,40,40,40,40,40,40,40,40,40,40,40,40,40,40,40,40,40,40,40,40,40,
40,40,40,40,40,40,40,40,40,40,40,40,40,40,40,40,40,40,40,40,40,40,40,40,40,40,40,40,40,40,40,40,40,40,40,40,66,42,74,42,42,74,42,67,41,42,42,43,42,71,41,41,41,42,42,67,43,41,67,42,74,74,74,71,67,91,74,71,43,42,43,71,43,67,67,91,67,42,91,71,41,74,41,67,42,41,41,41,42,91,43,68,40,40,40,40,40,40,40,40,40,40,40,40,40,40,40,40,40,40,40,40,40,40,40,40,40,40,40,40,40,40,40,40,40,40,40,40,
40,40,40,40,40,40,40,40,40,40,40,40,40,40,40,40,40,40,40,40,40,40,40,40,40,40,40,40,40,40,40,40,40,53,54,54,47,41,74,91,71,41,42,41,67,42,71,67,71,67,41,41,67,41,67,67,41,42,42,42,42,42,91,41,91,42,67,74,74,67,41,74,74,91,42,67,67,43,91,41,67,42,74,43,41,42,91,42,42,71,71,46,54,54,55,40,40,40,40,40,40,40,40,40,40,40,40,40,40,40,40,40,40,40,40,40,40,40,40,40,40,40,40,40,40,40,40,40,
40,40,40,40,40,40,40,40,40,40,40,40,40,40,40,40,40,40,40,40,40,40,40,40,40,40,40,40,40,40,40,40,40,66,42,91,42,43,67,41,41,67,71,71,91,42,91,41,41,74,91,41,43,74,42,91,43,71,91,43,74,67,41,41,43,91,42,74,71,71,67,91,67,71,42,71,42,91,91,43,41,41,67,67,43,71,41,43,42,91,71,71,67,42,68,40,40,40,40,40,40,40,40,40,40,40,40,40,40,40,40,40,40,40,40,40,40,40,40,40,40,40,40,40,40,40,40,40,
40,40,40,40,40,40,40,40,40,40,40,40,40,40,40,40,40,40,40,40,40,40,40,40,40,40,40,40,40,40,40,53,54,47,74,41,42,42,42,71,41,67,43,74,41,71,71,42,67,91,41,42,91,41,67,74,67,67,91,91,71,91,74,42,71,91,43,74,43,74,71,42,41,91,43,91,41,67,71,91,71,42,42,74,42,91,41,74,67,91,74,42,74,41,46,54,55,40,40,40,40,40,40,40,40,40,40,40,40,40,40,40,40,40,40,40,40,40,40,40,40,40,40,40,40,40,40,40,
40,40,40,40,40,40,40,40,40,40,40,40,40,40,40,40,40,40,40,40,40,40,40,40,40,40,40,40,40,40,40,66,71,91,42,71,74,71,41,41,42,41,43,91,41,42,41,43,41,42,43,42,43,74,41,41,71,71,71,74,67,91,43,71,74,74,43,91,71,71,67,74,42,43,71,91,71,67,74,74,74,42,91,67,43,74,43,67,42,74,42,42,41,74,74,67,68,40,40,40,40,40,40,40,40,40,40,40,40,40,40,40,40,40,40,40,40,40,40,40,40,40,40,40,40,40,40,40,
40,40,40,40,40,40,40,40,40,40,40,40,40,40,40,40,40,40,40,40,40,40,40,40,40,40,40,40,40,53,54,47,67,67,67,91,71,91,41,67,74,71,71,43,74,71,43,74,67,42,91,67,71,71,41,67,43,74,42,74,43,41,43,71,91,41,43,74,42,43,43,43,91,43,71,91,42,41,74,74,74,74,41,67,67,43,42,91,91,74,91,41,91,41,67,42,46,54,55,40,40,40,40,40,40,40,40,40,40,40,40,40,40,40,40,40,40,40,40,40,40,40,40,40,40,40,40,40,
40,40,40,40,40,40,40,40,40,40,40,40,40,40,40,40,40,40,40,40,40,40,40,40,40,40,40,40,40,66,74,71,42,71,41,74,41,43,71,91,43,43,67,43,43,43,67,43,74,71,74,71,74,42,42,42,42,74,74,67,91,91,42,71,42,41,67,43,67,74,71,91,71,42,74,74,71,67,41,74,74,74,41,42,71,71,74,43,43,67,67,74,41,74,71,71,71,42,68,40,40,40,40,40,40,40,40,40,40,40,40,40,40,40,40,40,40,40,40,40,40,40,40,40,40,40,40,40,
40,40,40,40,40,40,40,40,40,40,40,40,40,40,40,40,40,40,40,40,40,40,40,40,40,40,40,53,54,47,91,67,74,1,2,2,2,2,2,2,2,2,2,2,2,2,2,2,2,2,2,2,2,2,2,2,2,2,2,2,2,2,2,2,2,2,2,2,2,2,2,2,2,2,3,43,91,71,42,91,67,41,91,43,71,91,91,71,43,74,67,42,71,43,74,74,41,43,46,54,55,40,40,40,40,40,40,40,40,40,40,40,40,40,40,40,40,40,40,40,40,40,40,40,40,40,40,40,
40,40,40,40,40,40,40,40,40,40,40,40,40,40,40,40,40,40,40,40,40,40,40,40,40,40,40,66,43,42,74,91,71,14,52,52,19,39,52,39,15,19,52,52,39,22,52,39,15,15,19,22,15,19,52,39,22,19,39,39,19,22,15,15,22,19,22,19,19,39,52,15,15,15,16,71,71,43,67,67,42,91,74,74,42,91,67,91,67,42,43,67,71,91,67,91,74,41,91,74,68,40,40,40,40,40,40,40,40,40,40,40,40,40,40,40,40,40,40,40,40,40,40,40,40,40,40,40,
40,40,40,40,40,40,40,40,40,40,40,40,40,40,40,40,40,40,40,40,40,40,40,40,40,40,40,66,67,43,91,91,67,14,22,48,28,28,28,28,28,28,28,28,28,28,28,28,28,28,28,49,52,48,28,28,28,28,28,28,28,28,28,28,28,28,28,28,28,28,28,28,49,39,16,41,71,43,43,71,43,91,71,71,91,74,43,71,74,41,91,41,91,67,67,43,42,91,41,67,68,40,40,40,40,40,40,40,40,40,40,40,40,40,40,40,40,40,40,40,40,40,40,40,40,40,40,40,
40,40,40,40,40,40,40,40,40,40,40,40,40,40,40,40,40,40,40,40,40,40,40,40,40,53,54,47,91,67,43,41,71,14,52,16,42,91,42,71,42,67,43,91,74,91,41,91,43,42,42,14,39,16,43,42,91,42,67,42,41,43,71,67,41,67,43,74,74,42,42,41,14,39,16,67,74,42,43,74,74,42,42,74,74,67,43,67,41,42,71,41,43,41,74,74,74,91,71,42,46,54,55,40,40,40,40,40,40,40,40,40,40,40,40,40,40,40,40,40,40,40,40,40,40,40,40,40,
40,40,40,40,40,40,40,40,40,40,40,40,40,40,40,40,40,40,40,40,40,40,40,40,40,66,43,74,41,43,43,74,42,14,15,16,91,43,43,42,41,91,67,74,43,91,67,41,43,42,91,14,39,16,42,71,41,43,41,41,42,42,43,91,41,42,41,43,43,74,67,41,14,39,16,91,91,91,74,43,71,67,42,42,74,42,41,67,67,71,91,74,43,43,74,74,74,91,74,41,91,42,68,40,40,40,40,40,40,40,40,40,40,40,40,40,40,40,40,40,40,40,40,40,40,40,40,40,
40,40,40,40,40,40,40,40,40,40,40,40,40,40,40,40,40,40,40,40,40,40,40,40,40,66,41,41,42,91,43,71,42,14,22,16,71,74,41,43,67,41,74,67,41,43,74,91,91,91,67,27,28,29,41,91,91,71,43,71,91,71,43,42,41,67,71,42,67,74,67,91,27,28,29,67,91,74,67,42,43,67,41,42,91,71,71,91,42,43,43,43,42,67,42,42,74,71,42,91,74,74,68,40,40,40,40,40,40,40,40,40,40,40,40,40,40,40,40,40,40,40,40,40,40,40,40,40,
40,40,40,40,40,40,40,40,40,40,40,40,40,40,40,40,40,40,40,40,40,40,40,40,40,66,67,43,42,42,41,41,67,14,22,16,41,91,42,105,106,106,106,106,106,106,106,106,106,106,106,106,106,106,106,106,106,106,106,106,106,106,106,106,106,106,106,106,106,106,106,106,106,106,106,106,106,106,106,106,106,106,106,106,106,106,106,106,107,41,42,43,67,71,42,71,74,42,41,71,74,71,68,40,40,40,40,40,40,40,40,40,40,40,40,40,40,40,40,40,40,40,40,40,40,40,40,40,
40,40,40,40,40,40,40,40,40,40,40,40,40,40,40,40,40,40,40,40,40,40,40,40,40,66,41,71,74,42,42,42,74,14,22,16,91,71,67,118,126,119,119,143,119,126,123,123,126,126,123,126,126,143,123,119,143,126,126,126,143,126,126,126,119,123,143,119,119,143,126,119,126,119,119,123,126,123,126,119,119,143,126,126,123,143,126,123,120,42,67,42,41,41,42,91,41,42,67,91,67,91,68,40,40,40,40,40,40,40,40,40,40,40,40,40,40,40,40,40,40,40,40,40,40,40,40,40,
40,40,40,40,40,40,40,40,40,40,40,40,40,40,40,40,40,40,40,40,40,40,40,40,40,66,71,71,43,67,41,91,67,14,22,16,42,74,42,118,126,96,132,132,132,132,132,132,132,132,132,132,132,132,132,132,132,132,132,132,132,132,132,132,132,132,132,132,132,132,132,132,132,132,132,132,132,132,132,132,132,132,132,132,132,132,97,126,120,42,42,74,71,43,42,41,42,91,67,67,71,91,68,40,40,40,40,40,40,40,40,40,40,40,40,40,40,40,40,40,40,40,40,40,40,40,40,40,
40,40,40,40,40,40,40,40,40,40,40,40,40,40,40,40,40,40,40,40,40,40,40,40,40,66,74,42,74,42,71,91,67,14,52,16,74,43,71,118,143,120,41,41,74,41,74,74,43,71,42,71,41,74,42,74,71,41,74,71,71,41,74,41,42,43,91,71,71,67,71,43,71,71,42,42,41,43,71,74,67,43,74,41,43,42,118,119,120,74,67,42,74,67,67,42,43,42,67,42,91,41,68,40,40,40,40,40,40,40,40,40,40,40,40,40,40,40,40,40,40,40,40,40,40,40,40,40,
40,40,40,40,40,40,40,40,40,40,40,40,40,40,40,40,40,40,40,40,40,40,40,40,40,66,67,91,74,67,71,74,42,14,19,16,41,42,91,118,123,120,91,105,106,106,106,106,106,106,106,106,106,106,106,106,106,106,106,106,106,106,106,106,106,106,106,106,106,106,106,106,106,106,106,106,106,106,106,106,106,106,106,106,107,91,118,119,120,43,91,42,71,67,67,67,74,71,67,71,71,71,68,40,40,40,40,40,40,40,40,40,40,40,40,40,40,40,40,40,40,40,40,40,40,40,40,40,
40,40,40,40,40,40,40,40,40,40,40,40,40,40,40,40,40,40,40,40,40,40,40,40,40,66,71,67,41,91,42,91,91,14,15,16,91,74,41,118,119,120,43,118,123,143,123,143,119,119,119,123,143,126,123,143,143,123,119,143,126,143,143,143,143,143,126,126,123,119,143,119,123,143,119,126,123,143,123,126,123,143,143,126,120,43,118,123,120,42,67,42,43,41,71,67,43,67,91,42,41,91,68,40,40,40,40,40,40,40,40,40,40,40,40,40,40,40,40,40,40,40,40,40,40,40,40,40,
40,40,40,40,40,40,40,40,40,40,40,40,40,40,40,40,40,40,40,40,40,40,40,40,40,66,74,74,91,71,74,42,71,14,15,16,91,41,42,118,119,120,74,131,132,132,132,132,132,132,132,132,132,132,132,132,132,132,132,132,132,132,132,132,132,132,132,132,132,132,132,132,132,132,132,132,132,132,132,132,132,132,97,126,120,67,118,143,120,67,67,91,91,43,41,43,91,41,42,71,74,42,68,40,40,40,40,40,40,40,40,40,40,40,40,40,40,40,40,40,40,40,40,40,40,40,40,40,
40,40,40,40,40,40,40,40,40,40,40,40,40,40,40,40,40,40,40,40,40,40,40,53,54,47,42,41,91,91,67,91,74,14,22,16,71,41,41,118,126,120,41,71,43,74,91,74,74,41,67,43,71,41,43,43,71,43,67,41,42,67,43,91,43,67,43,42,67,42,71,41,91,41,41,91,42,74,43,74,74,43,118,123,120,43,118,123,120,91,71,71,71,43,67,71,74,91,41,74,67,74,46,54,55,40,40,40,40,40,40,40,40,40,40,40,40,40,40,40,40,40,40,40,40,40,40,40,
40,40,40,40,40,40,40,40,40,40,40,40,40,40,40,40,40,40,40,40,40,40,40,66,43,71,71,42,43,67,74,41,71,14,39,16,42,74,41,118,123,98,106,106,106,106,106,106,106,106,106,106,106,106,106,106,106,106,106,106,106,106,106,106,106,106,106,106,106,106,106,106,106,106,106,106,106,106,106,106,107,41,118,126,120,91,118,143,120,41,91,41,43,74,71,74,74,43,41,74,71,71,41,67,68,40,40,40,40,40,40,40,40,40,40,40,40,40,40,40,40,40,40,40,40,40,40,40,
40,40,40,40,40,40,40,40,40,40,40,40,40,40,40,40,40,40,40,40,40,40,40,66,43,67,43,71,67,74,41,42,43,14,19,16,67,67,41,118,143,123,126,143,119,123,126,126,143,126,126,143,126,119,123,119,126,126,119,119,123,123,123,126,143,123,119,126,123,143,143,126,119,123,123,119,119,119,119,143,120,67,118,143,120,71,118,119,120,71,42,43,43,74,91,74,74,42,43,42,71,74,42,43,68,40,40,40,40,40,40,40,40,40,40,40,40,40,40,40,40,40,40,40,40,40,40,40,
40,40,40,40,40,40,40,40,40,40,40,40,40,40,40,40,40,40,40,40,40,40,40,66,43,91,91,74,41,43,71,43,91,14,39,16,67,74,74,131,132,132,132,132,132,132,132,132,132,132,132,132,132,132,132,132,132,132,132,132,132,132,132,132,132,132,132,132,132,132,132,132,132,132,132,132,132,132,97,143,120,41,118,126,120,71,118,126,120,71,67,71,71,67,71,41,91,42,74,43,74,41,41,74,68,40,40,40,40,40,40,40,40,40,40,40,40,40,40,40,40,40,40,40,40,40,40,40,
40,40,40,40,40,40,40,40,40,40,40,40,40,40,40,40,40,40,40,40,40,40,40,66,43,67,42,67,71,43,43,43,74,14,22,16,42,91,43,67,91,43,41,74,41,43,91,42,42,42,91,1,2,3,42,91,67,71,67,42,43,67,41,42,74,91,42,43,71,42,42,41,1,2,3,67,74,91,118,119,120,41,118,123,120,71,118,119,120,43,91,41,42,71,91,71,67,67,71,71,71,67,91,43,68,40,40,40,40,40,40,40,40,40,40,40,40,40,40,40,40,40,40,40,40,40,40,40,
40,40,40,40,40,40,40,40,40,40,40,40,40,40,40,40,40,40,40,40,40,40,40,66,71,67,74,67,74,71,91,71,91,14,22,16,43,42,74,67,42,43,91,43,41,91,74,74,43,41,67,14,39,16,43,67,74,71,71,67,41,71,71,71,43,74,43,43,74,67,67,42,14,52,16,71,71,71,118,119,120,67,118,123,120,71,118,123,120,42,43,41,91,91,67,67,42,67,91,91,42,67,74,41,68,40,40,40,40,40,40,40,40,40,40,40,40,40,40,40,40,40,40,40,40,40,40,40,
40,40,40,40,40,40,40,40,40,40,40,40,40,40,40,40,40,40,40,40,40,40,40,66,43,71,43,41,43,43,43,41,42,14,15,16,74,41,74,74,91,43,71,43,74,91,67,42,43,74,41,14,39,16,43,91,67,71,74,41,41,42,91,67,67,67,42,42,91,41,74,67,14,52,16,74,71,43,118,123,120,74,118,143,120,41,118,143,120,74,91,67,43,42,67,43,42,41,43,42,43,71,41,42,68,40,40,40,40,40,40,40,40,40,40,40,40,40,40,40,40,40,40,40,40,40,40,40,
40,40,40,40,40,40,40,40,40,40,40,40,40,40,40,40,40,40,40,40,40,40,40,66,67,41,74,67,74,71,42,71,74,14,19,50,2,2,2,2,2,2,2,2,2,2,2,2,2,2,2,51,15,50,2,2,2,2,2,2,2,2,2,2,2,2,2,2,2,2,2,2,51,22,16,42,42,74,118,126,120,91,118,119,120,67,118,126,120,42,43,42,74,42,42,41,43,74,74,42,42,71,74,67,68,40,40,40,40,40,40,40,40,40,40,40,40,40,40,40,40,40,40,40,40,40,40,40,
40,40,40,40,40,40,40,40,40,40,40,40,40,40,40,40,40,40,40,40,40,40,40,66,74,41,74,41,71,71,67,74,42,14,52,52,15,39,22,15,52,15,15,22,19,22,22,52,19,19,22,15,15,39,52,39,22,52,19,52,39,19,52,52,22,22,19,39,52,39,39,19,19,19,16,67,41,41,118,126,120,91,118,123,120,42,118,123,120,71,67,91,67,42,91,74,71,91,74,74,74,74,42,74,68,40,40,40,40,40,40,40,40,40,40,40,40,40,40,40,40,40,40,40,40,40,40,40,
40,40,40,40,40,40,40,40,40,40,40,40,40,40,40,40,40,40,40,40,40,40,40,66,71,43,41,42,42,41,74,74,91,27,28,28,28,28,28,28,28,28,28,28,28,28,28,28,28,28,28,28,28,28,28,28,28,28,28,28,28,28,28,28,28,28,28,28,28,28,28,28,28,28,29,67,67,91,118,123,120,67,118,126,120,43,118,126,120,41,67,91,67,71,41,91,91,71,41,41,67,43,43,42,68,40,40,40,40,40,40,40,40,40,40,40,40,40,40,40,40,40,40,40,40,40,40,40,
40,40,40,40,40,40,40,40,40,40,40,40,40,40,40,40,40,40,40,40,40,40,40,66,71,67,91,43,74,74,74,91,71,43,43,43,74,42,41,91,74,67,41,71,67,41,67,41,74,41,91,74,91,41,91,91,67,67,71,67,67,91,67,71,71,71,41,91,91,71,67,67,74,74,74,91,67,67,118,143,120,42,118,119,120,43,118,126,120,67,42,71,41,74,74,67,91,71,91,91,41,41,42,42,68,40,40,40,40,40,40,40,40,40,40,40,40,40,40,40,40,40,40,40,40,40,40,40,
40,40,40,40,40,40,40,40,40,40,40,40,40,40,40,40,40,40,40,40,40,40,40,66,71,43,71,71,43,43,67,43,43,71,67,71,91,74,43,71,42,74,91,41,91,74,91,42,91,43,71,74,91,43,71,67,67,74,42,43,71,67,42,74,42,43,41,41,74,67,67,67,71,71,41,67,71,42,118,143,120,43,118,126,120,67,118,126,120,71,71,41,41,91,43,71,91,41,41,71,43,41,71,71,68,40,40,40,40,40,40,40,40,40,40,40,40,40,40,40,40,40,40,40,40,40,40,40,
40,40,40,40,40,40,40,40,40,40,40,40,40,40,40,40,40,40,40,40,40,40,40,66,74,41,42,42,43,74,74,43,91,67,71,74,67,91,42,91,74,67,42,67,74,71,41,41,71,74,41,67,91,43,41,43,91,91,71,71,43,91,43,67,43,43,67,67,67,91,67,71,71,43,91,67,42,71,118,126,120,43,118,126,120,42,118,126,120,91,42,91,74,91,42,71,41,67,43,91,43,67,71,67,68,40,40,40,40,40,40,40,40,40,40,40,40,40,40,40,40,40,40,40,40,40,40,40,
40,40,40,40,40,40,40,40,40,40,40,40,40,40,40,40,40,40,40,40,40,40,40,66,67,91,41,74,91,43,42,41,74,43,71,41,67,67,67,105,106,106,106,106,106,106,106,106,106,106,106,106,106,106,106,106,106,106,106,106,106,106,106,106,106,106,106,106,106,106,106,106,106,106,106,106,106,106,99,126,120,42,118,123,120,42,118,143,120,71,42,42,42,41,42,71,43,71,43,41,41,74,43,71,68,40,40,40,40,40,40,40,40,40,40,40,40,40,40,40,40,40,40,40,40,40,40,40,
40,40,40,40,40,40,40,40,40,40,40,40,40,40,40,40,40,40,40,40,40,40,40,66,71,41,42,67,67,91,74,71,41,91,43,74,67,43,43,118,143,143,119,126,126,126,126,126,123,123,126,143,126,143,126,126,123,119,143,123,126,119,119,126,126,143,123,126,123,126,119,123,143,123,143,126,126,119,119,123,120,74,118,123,120,42,118,123,120,74,71,74,42,43,74,91,41,67,67,91,41,74,74,67,68,40,40,40,40,40,40,40,40,40,40,40,40,40,40,40,40,40,40,40,40,40,40,40,
40,40,40,40,40,40,40,40,40,40,40,40,40,40,40,40,40,40,40,40,40,40,40,66,42,41,43,71,91,41,67,67,43,43,74,67,91,67,42,118,143,96,132,132,132,132,132,132,132,132,132,132,132,132,132,132,132,132,132,132,132,132,132,132,132,132,132,132,132,132,132,132,132,132,132,132,132,132,132,132,133,91,118,143,120,74,118,126,120,74,41,71,42,71,71,67,91,42,42,74,74,43,43,71,68,40,40,40,40,40,40,40,40,40,40,40,40,40,40,40,40,40,40,40,40,40,40,40,
40,40,40,40,40,40,40,40,40,40,40,40,40,40,40,40,40,40,40,40,40,40,40,66,71,43,41,42,91,43,42,67,74,42,43,67,42,41,74,118,119,120,41,91,71,91,91,74,42,91,91,42,67,42,71,91,71,41,91,74,67,91,41,67,41,91,41,42,42,74,71,41,91,91,41,74,91,67,67,42,91,41,118,119,120,42,118,143,120,67,41,74,41,74,91,67,74,67,74,67,41,43,74,43,68,40,40,40,40,40,40,40,40,40,40,40,40,40,40,40,40,40,40,40,40,40,40,40,
40,40,40,40,40,40,40,40,40,40,40,40,40,40,40,40,40,40,40,40,40,40,40,66,42,43,41,67,71,74,74,67,91,41,74,74,91,74,41,118,126,120,41,105,106,106,106,106,106,106,106,106,106,106,106,106,106,106,106,106,106,106,106,106,106,106,106,106,106,106,106,106,106,106,106,106,106,106,106,106,106,106,99,119,120,91,118,123,120,91,71,91,41,91,67,42,67,91,43,74,41,41,74,43,68,40,40,40,40,40,40,40,40,40,40,40,40,40,40,40,40,40,40,40,40,40,40,40,
40,40,40,40,40,40,40,40,40,40,40,40,40,40,40,40,40,40,40,40,40,40,40,66,91,43,67,41,71,42,41,71,43,41,67,43,41,42,71,118,119,120,42,118,143,96,132,132,132,132,132,132,132,132,132,132,132,132,132,132,132,132,132,132,132,132,132,132,132,132,132,132,132,132,132,132,132,132,132,132,132,132,132,132,133,71,118,126,120,42,71,74,91,74,41,74,67,41,71,91,67,41,71,43,68,40,40,40,40,40,40,40,40,40,40,40,40,40,40,40,40,40,40,40,40,40,40,40,
40,40,40,40,40,40,40,40,40,40,40,40,40,40,40,40,40,40,40,40,40,40,40,66,41,91,91,71,42,41,74,41,91,43,67,43,43,74,41,118,119,120,74,118,123,120,43,43,43,71,74,74,41,91,41,43,91,41,43,74,67,67,43,74,43,91,71,41,41,71,67,42,91,74,42,43,42,42,91,41,91,43,41,42,43,67,118,126,120,41,74,42,91,74,41,41,71,67,91,67,67,42,42,42,68,40,40,40,40,40,40,40,40,40,40,40,40,40,40,40,40,40,40,40,40,40,40,40,
40,40,40,40,40,40,40,40,40,40,40,40,40,40,40,40,40,40,40,40,40,40,40,66,43,41,43,91,41,43,41,41,71,41,67,41,71,42,74,118,123,120,67,118,143,120,74,105,106,106,106,106,106,106,106,106,106,106,106,106,106,106,106,106,106,106,106,106,106,106,106,106,106,106,106,106,106,106,106,106,106,106,106,106,106,106,99,126,120,42,74,71,67,74,43,74,71,42,43,43,43,41,42,41,68,40,40,40,40,40,40,40,40,40,40,40,40,40,40,40,40,40,40,40,40,40,40,40,
40,40,40,40,40,40,40,40,40,40,40,40,40,40,40,40,40,40,40,40,40,40,40,66,71,71,43,74,42,71,91,74,74,71,41,91,67,43,43,118,123,120,74,118,143,120,91,118,119,123,119,123,119,119,126,119,119,123,123,143,143,119,126,123,126,143,123,123,119,123,123,119,126,123,143,143,119,126,119,126,143,119,123,126,143,126,143,143,120,74,67,74,43,74,42,71,43,91,91,74,43,71,74,43,68,40,40,40,40,40,40,40,40,40,40,40,40,40,40,40,40,40,40,40,40,40,40,40,
40,40,40,40,40,40,40,40,40,40,40,40,40,40,40,40,40,40,40,40,40,40,40,66,67,67,91,41,71,91,43,41,74,42,41,67,71,91,67,118,126,120,41,118,143,120,71,118,123,96,132,132,132,132,132,132,132,132,132,132,132,132,132,132,132,132,132,132,132,132,132,132,132,132,132,132,132,132,132,132,132,132,132,132,132,132,132,132,133,74,71,74,42,71,91,42,67,74,43,43,43,74,91,41,68,40,40,40,40,40,40,40,40,40,40,40,40,40,40,40,40,40,40,40,40,40,40,40,
40,40,40,40,40,40,40,40,40,40,40,40,40,40,40,40,40,40,40,40,40,40,40,66,67,74,42,42,71,43,42,67,43,41,42,67,42,91,42,118,119,120,71,118,123,120,67,118,123,120,67,41,41,43,41,43,67,67,42,42,41,67,91,42,43,74,67,41,41,71,42,43,71,43,43,67,41,67,41,71,71,74,74,74,67,43,91,91,91,71,91,67,42,41,71,42,42,42,71,91,91,74,91,42,68,40,40,40,40,40,40,40,40,40,40,40,40,40,40,40,40,40,40,40,40,40,40,40,
40,40,40,40,40,40,40,40,40,40,40,40,40,40,40,40,40,40,40,40,40,40,40,66,41,71,42,41,41,41,67,41,42,43,91,91,42,74,74,118,123,120,71,118,143,120,42,118,126,120,74,91,41,42,67,42,71,42,42,74,42,91,42,91,91,91,43,43,74,41,43,43,71,67,74,74,71,71,71,71,42,71,67,41,42,43,71,42,42,67,42,43,41,91,42,71,41,41,67,74,71,43,91,71,68,40,40,40,40,40,40,40,40,40,40,40,40,40,40,40,40,40,40,40,40,40,40,40,
40,40,40,40,40,40,40,40,40,40,40,40,40,40,40,40,40,40,40,40,40,40,40,66,74,41,41,91,41,74,41,42,71,74,42,41,91,91,41,118,123,120,71,118,123,120,43,118,126,120,91,41,42,41,67,43,74,41,71,41,41,41,41,91,42,42,74,71,42,91,67,42,71,41,91,67,43,74,43,67,67,91,42,42,91,43,41,74,67,67,67,91,43,71,91,41,74,42,74,43,91,71,74,67,68,40,40,40,40,40,40,40,40,40,40,40,40,40,40,40,40,40,40,40,40,40,40,40,
40,40,40,40,40,40,40,40,40,40,40,40,40,40,40,40,40,40,40,40,40,40,40,66,71,43,67,74,74,41,74,91,41,67,74,41,91,71,43,118,123,120,71,118,119,120,91,118,119,120,67,91,74,1,2,2,2,2,2,2,2,2,2,2,2,2,2,2,2,2,2,2,2,2,2,2,2,2,2,2,2,2,2,2,2,2,2,2,2,2,2,2,2,2,3,74,91,67,71,67,71,43,71,91,68,40,40,40,40,40,40,40,40,40,40,40,40,40,40,40,40,40,40,40,40,40,40,40,
40,40,40,40,40,40,40,40,40,40,40,40,40,40,40,40,40,40,40,40,40,40,40,66,67,42,67,42,41,43,71,43,71,42,74,67,41,74,43,118,126,120,42,118,126,120,41,118,119,120,71,42,41,14,22,19,22,19,52,39,19,39,15,39,52,19,15,15,22,15,15,19,39,19,15,39,39,39,52,15,39,52,52,19,39,19,22,22,22,19,19,39,19,22,16,71,74,41,74,74,91,71,43,43,68,40,40,40,40,40,40,40,40,40,40,40,40,40,40,40,40,40,40,40,40,40,40,40,
40,40,40,40,40,40,40,40,40,40,40,40,40,40,40,40,40,40,40,40,40,40,40,66,41,91,67,43,41,67,43,43,42,67,43,43,91,71,91,118,143,120,41,118,143,120,41,118,119,120,91,42,74,14,15,48,28,28,28,28,49,19,48,28,28,28,28,28,28,28,28,28,28,28,28,28,28,28,28,28,28,28,28,28,28,28,28,28,28,28,28,28,49,39,16,74,71,42,74,43,91,91,74,74,68,40,40,40,40,40,40,40,40,40,40,40,40,40,40,40,40,40,40,40,40,40,40,40,
40,40,40,40,40,40,40,40,40,40,40,40,40,40,40,40,40,40,40,40,40,40,40,66,91,42,71,91,71,41,71,42,67,41,42,42,67,91,91,118,126,120,67,118,126,120,91,118,126,120,71,74,71,14,39,16,42,74,91,74,27,28,29,71,67,41,67,43,67,71,74,41,42,42,43,74,43,42,74,91,41,74,41,41,74,74,42,71,42,67,42,42,14,22,16,41,41,43,91,91,41,41,74,41,68,40,40,40,40,40,40,40,40,40,40,40,40,40,40,40,40,40,40,40,40,40,40,40,
40,40,40,40,40,40,40,40,40,40,40,40,40,40,40,40,40,40,40,40,40,40,40,66,43,74,41,71,42,42,91,74,67,74,74,43,91,67,71,118,123,120,42,118,126,120,74,118,119,120,74,42,43,14,52,16,41,42,91,42,91,91,71,41,91,74,41,42,74,67,41,67,67,67,74,43,42,71,42,43,71,41,43,71,71,42,43,67,91,67,43,42,14,19,16,91,43,71,42,91,41,67,71,43,68,40,40,40,40,40,40,40,40,40,40,40,40,40,40,40,40,40,40,40,40,40,40,40,
40,40,40,40,40,40,40,40,40,40,40,40,40,40,40,40,40,40,40,40,40,40,40,66,43,74,74,41,74,74,42,41,42,43,71,74,42,67,74,118,126,120,71,118,143,120,41,118,123,120,43,43,42,14,52,16,43,91,43,91,42,43,71,42,41,71,67,67,42,67,67,41,42,71,42,42,41,74,91,74,43,41,91,71,41,43,91,71,91,41,41,91,14,19,16,67,71,74,67,74,74,74,43,43,68,40,40,40,40,40,40,40,40,40,40,40,40,40,40,40,40,40,40,40,40,40,40,40,
40,40,40,40,40,40,40,40,40,40,40,40,40,40,40,40,40,40,40,40,40,40,40,66,42,71,41,71,67,42,91,43,41,43,71,67,71,71,74,118,123,120,91,118,126,120,91,118,119,120,71,91,91,14,52,16,42,42,67,74,1,2,3,74,71,67,74,71,43,91,67,42,43,43,42,41,41,74,42,43,74,91,43,41,67,42,67,43,41,74,74,74,14,19,16,91,41,67,42,74,91,42,67,67,68,40,40,40,40,40,40,40,40,40,40,40,40,40,40,40,40,40,40,40,40,40,40,40,
40,40,40,40,40,40,40,40,40,40,40,40,40,40,40,40,40,40,40,40,40,40,40,66,74,67,67,43,42,43,71,71,41,67,91,91,67,74,43,118,126,120,41,118,123,120,74,118,123,120,71,71,42,14,15,16,43,71,91,67,14,19,16,41,71,43,105,106,106,106,106,106,106,106,106,106,106,106,106,106,106,106,106,106,106,106,106,107,71,91,91,91,14,22,16,91,41,41,43,74,43,71,41,43,68,40,40,40,40,40,40,40,40,40,40,40,40,40,40,40,40,40,40,40,40,40,40,40,
40,40,40,40,40,40,40,40,40,40,40,40,40,40,40,40,40,40,40,40,40,40,40,66,42,42,74,91,41,42,91,91,71,74,67,71,43,41,42,118,143,120,67,118,143,120,43,118,119,120,91,43,43,14,22,16,43,74,41,41,14,19,16,43,71,42,118,143,123,119,123,123,123,143,143,126,143,126,143,123,143,123,126,119,126,126,126,120,71,71,71,67,14,52,16,71,43,91,74,91,91,42,67,71,68,40,40,40,40,40,40,40,40,40,40,40,40,40,40,40,40,40,40,40,40,40,40,40,
40,40,40,40,40,40,40,40,40,40,40,40,40,40,40,40,40,40,40,40,40,40,40,79,80,45,74,67,91,67,91,67,41,91,91,41,67,71,43,118,119,120,43,118,123,120,43,118,126,120,74,71,43,14,39,16,74,67,71,71,14,15,16,71,67,91,118,119,126,119,126,119,119,126,143,123,143,126,143,119,119,143,119,126,126,126,143,120,42,67,91,71,14,52,16,71,43,43,74,74,41,71,44,80,81,40,40,40,40,40,40,40,40,40,40,40,40,40,40,40,40,40,40,40,40,40,40,40,
40,40,40,40,40,40,40,40,40,40,40,40,40,40,40,40,40,40,40,40,40,40,40,40,40,66,67,41,43,71,43,43,71,91,42,41,41,74,42,118,126,120,41,118,126,120,74,118,143,120,43,43,41,14,39,16,67,74,74,41,14,15,16,74,67,74,118,143,119,119,119,123,143,126,143,123,143,126,123,143,126,119,126,123,119,123,143,120,67,42,67,43,14,15,16,91,41,42,41,74,91,74,68,40,40,40,40,40,40,40,40,40,40,40,40,40,40,40,40,40,40,40,40,40,40,40,40,40,
40,40,40,40,40,40,40,40,40,40,40,40,40,40,40,40,40,40,40,40,40,40,40,40,40,66,41,41,41,43,91,67,71,67,74,91,74,71,41,118,126,120,42,118,126,120,43,118,123,120,74,91,74,14,22,16,41,43,42,74,14,15,16,71,67,42,118,126,119,119,123,123,143,123,143,119,126,123,123,123,126,123,143,143,126,126,119,120,41,74,71,42,14,15,16,67,74,42,42,71,71,41,68,40,40,40,40,40,40,40,40,40,40,40,40,40,40,40,40,40,40,40,40,40,40,40,40,40,
40,40,40,40,40,40,40,40,40,40,40,40,40,40,40,40,40,40,40,40,40,40,40,40,40,66,42,43,91,74,43,74,71,71,42,91,74,43,42,118,123,120,71,131,132,133,41,118,123,120,91,74,42,14,15,16,91,74,71,91,14,39,16,43,67,41,118,126,123,119,123,143,126,119,123,143,126,143,119,123,123,143,126,126,143,143,143,120,43,42,42,91,14,39,16,71,67,41,91,91,43,74,68,40,40,40,40,40,40,40,40,40,40,40,40,40,40,40,40,40,40,40,40,40,40,40,40,40,
40,40,40,40,40,40,40,40,40,40,40,40,40,40,40,40,40,40,40,40,40,40,40,40,40,66,71,71,91,41,71,43,67,67,71,74,91,71,91,118,126,120,42,43,67,74,67,118,119,120,41,43,43,14,39,16,43,42,91,71,14,22,16,67,43,71,118,126,126,126,143,119,123,119,119,119,119,123,119,123,123,119,123,119,123,126,126,120,41,74,42,41,14,22,16,43,74,41,67,71,41,41,68,40,40,40,40,40,40,40,40,40,40,40,40,40,40,40,40,40,40,40,40,40,40,40,40,40,
40,40,40,40,40,40,40,40,40,40,40,40,40,40,40,40,40,40,40,40,40,40,40,40,40,66,43,42,74,41,67,43,41,91,71,91,71,91,71,118,143,98,106,106,106,106,106,99,143,120,67,41,91,14,19,16,42,42,71,42,14,15,16,67,91,42,118,143,126,126,119,123,126,119,143,126,126,119,123,143,143,119,143,126,123,126,143,120,74,74,74,43,14,52,16,74,42,42,42,41,41,91,68,40,40,40,40,40,40,40,40,40,40,40,40,40,40,40,40,40,40,40,40,40,40,40,40,40,
40,40,40,40,40,40,40,40,40,40,40,40,40,40,40,40,40,40,40,40,40,40,40,40,40,66,74,43,74,42,67,91,41,43,67,43,42,42,67,118,119,119,123,123,123,126,119,119,143,120,43,42,67,14,39,16,43,41,67,42,14,22,16,43,43,91,131,132,132,132,132,132,132,132,132,132,132,132,132,132,132,132,132,132,132,132,132,133,43,42,42,71,14,39,16,91,43,67,43,74,67,41,68,40,40,40,40,40,40,40,40,40,40,40,40,40,40,40,40,40,40,40,40,40,40,40,40,40,
40,40,40,40,40,40,40,40,40,40,40,40,40,40,40,40,40,40,40,40,40,40,40,40,40,66,91,67,67,74,41,42,42,71,71,67,67,67,74,131,132,132,132,132,132,132,132,132,132,133,71,41,41,27,28,29,71,74,43,43,14,15,16,74,43,41,74,42,71,67,42,74,41,91,41,74,67,41,41,74,71,41,42,67,42,42,91,74,42,41,91,71,14,39,16,67,67,41,43,74,91,74,68,40,40,40,40,40,40,40,40,40,40,40,40,40,40,40,40,40,40,40,40,40,40,40,40,40,
40,40,40,40,40,40,40,40,40,40,40,40,40,40,40,40,40,40,40,40,40,40,40,40,40,66,71,43,91,91,71,43,42,42,43,91,42,43,71,43,91,67,74,67,43,74,41,67,43,71,67,41,67,43,91,42,91,71,43,42,14,15,16,74,74,43,74,67,42,74,43,74,91,67,42,71,42,43,43,67,71,91,41,71,43,71,71,74,74,71,42,43,14,19,16,42,41,74,74,91,74,71,68,40,40,40,40,40,40,40,40,40,40,40,40,40,40,40,40,40,40,40,40,40,40,40,40,40,
40,40,40,40,40,40,40,40,40,40,40,40,40,40,40,40,40,40,40,40,40,40,40,40,40,66,41,41,74,41,71,43,74,71,91,43,67,41,74,74,42,41,91,43,42,91,42,41,43,91,74,41,42,71,91,42,71,91,42,41,14,15,16,74,91,91,74,42,42,74,91,43,42,71,91,67,67,43,42,91,91,71,41,91,41,41,43,91,41,71,41,91,14,22,16,74,41,71,91,42,67,71,68,40,40,40,40,40,40,40,40,40,40,40,40,40,40,40,40,40,40,40,40,40,40,40,40,40,
40,40,40,40,40,40,40,40,40,40,40,40,40,40,40,40,40,40,40,40,40,40,40,40,40,79,80,45,71,74,71,42,41,91,67,71,43,67,43,67,67,41,91,43,67,74,71,91,71,91,74,42,41,1,2,3,42,43,71,74,14,19,16,41,91,43,91,67,71,41,43,74,67,71,67,42,42,43,41,91,42,41,74,71,71,74,91,91,67,71,42,74,14,19,16,71,42,42,71,74,44,80,81,40,40,40,40,40,40,40,40,40,40,40,40,40,40,40,40,40,40,40,40,40,40,40,40,40,
40,40,40,40,40,40,40,40,40,40,40,40,40,40,40,40,40,40,40,40,40,40,40,40,40,40,40,66,67,74,74,71,42,42,91,67,42,71,43,71,43,71,91,91,91,71,41,71,43,91,71,71,41,14,39,50,2,2,2,2,51,19,50,2,2,2,2,2,2,2,2,2,2,2,2,2,2,2,2,2,2,2,2,2,2,2,2,2,2,2,2,2,51,39,16,42,74,43,67,74,68,40,40,40,40,40,40,40,40,40,40,40,40,40,40,40,40,40,40,40,40,40,40,40,40,40,40,40,
40,40,40,40,40,40,40,40,40,40,40,40,40,40,40,40,40,40,40,40,40,40,40,40,40,40,40,66,42,42,91,41,42,71,42,43,67,74,67,67,74,42,74,91,41,67,74,74,67,42,91,91,91,14,22,15,52,19,52,22,52,52,19,19,39,39,39,15,52,15,52,22,15,19,19,22,19,15,22,39,22,39,39,22,52,39,39,22,22,19,22,15,19,22,16,74,71,71,91,42,68,40,40,40,40,40,40,40,40,40,40,40,40,40,40,40,40,40,40,40,40,40,40,40,40,40,40,40,
40,40,40,40,40,40,40,40,40,40,40,40,40,40,40,40,40,40,40,40,40,40,40,40,40,40,40,79,80,45,71,42,67,71,74,91,41,67,71,67,91,41,41,67,67,43,41,74,41,43,74,71,41,27,28,28,28,28,28,28,28,28,28,28,28,28,28,28,28,28,28,28,28,28,28,28,28,28,28,28,28,28,28,28,28,28,28,28,28,28,28,28,28,28,29,67,71,67,44,80,81,40,40,40,40,40,40,40,40,40,40,40,40,40,40,40,40,40,40,40,40,40,40,40,40,40,40,40,
40,40,40,40,40,40,40,40,40,40,40,40,40,40,40,40,40,40,40,40,40,40,40,40,40,40,40,40,40,66,43,42,42,71,42,91,91,71,42,43,43,43,71,41,43,43,67,74,91,91,43,43,41,67,42,43,67,42,71,43,43,71,42,42,42,91,91,43,43,41,42,71,91,91,67,42,67,74,91,71,67,74,42,67,43,41,71,74,43,43,41,42,91,42,74,41,43,43,68,40,40,40,40,40,40,40,40,40,40,40,40,40,40,40,40,40,40,40,40,40,40,40,40,40,40,40,40,40,
40,40,40,40,40,40,40,40,40,40,40,40,40,40,40,40,40,40,40,40,40,40,40,40,40,40,40,40,40,79,80,45,91,67,67,91,74,91,67,74,91,71,71,71,91,74,67,71,67,42,71,74,43,91,74,43,74,41,67,74,74,67,71,41,67,41,42,42,42,43,67,71,41,42,74,43,43,91,67,41,41,43,71,91,42,41,91,71,74,41,42,74,42,71,91,71,44,80,81,40,40,40,40,40,40,40,40,40,40,40,40,40,40,40,40,40,40,40,40,40,40,40,40,40,40,40,40,40,
40,40,40,40,40,40,40,40,40,40,40,40,40,40,40,40,40,40,40,40,40,40,40,40,40,40,40,40,40,40,40,66,91,67,43,43,91,91,91,74,71,71,67,91,41,42,43,74,42,43,67,74,43,91,74,41,67,41,74,42,71,91,71,43,43,41,43,67,67,71,41,43,43,71,74,91,42,42,67,67,71,41,74,71,41,41,71,74,71,71,74,43,74,43,43,74,68,40,40,40,40,40,40,40,40,40,40,40,40,40,40,40,40,40,40,40,40,40,40,40,40,40,40,40,40,40,40,40,
40,40,40,40,40,40,40,40,40,40,40,40,40,40,40,40,40,40,40,40,40,40,40,40,40,40,40,40,40,40,40,79,80,45,41,91,71,67,43,91,67,41,67,74,74,71,43,67,67,41,67,41,42,43,74,41,74,91,71,43,91,74,74,91,74,71,67,91,71,91,91,42,67,43,71,41,43,91,91,41,67,74,71,43,71,42,67,42,74,91,67,41,67,41,44,80,81,40,40,40,40,40,40,40,40,40,40,40,40,40,40,40,40,40,40,40,40,40,40,40,40,40,40,40,40,40,40,40,
40,40,40,40,40,40,40,40,40,40,40,40,40,40,40,40,40,40,40,40,40,40,40,40,40,40,40,40,40,40,40,40,40,66,43,41,42,43,91,91,41,71,74,91,43,67,74,91,42,42,74,71,74,42,91,67,41,71,67,71,67,91,67,43,71,43,67,91,91,43,43,91,91,43,71,74,74,42,74,71,43,42,67,67,91,41,42,91,74,42,42,74,42,41,68,40,40,40,40,40,40,40,40,40,40,40,40,40,40,40,40,40,40,40,40,40,40,40,40,40,40,40,40,40,40,40,40,40,
40,40,40,40,40,40,40,40,40,40,40,40,40,40,40,40,40,40,40,40,40,40,40,40,40,40,40,40,40,40,40,40,40,79,80,80,45,91,42,41,74,43,42,91,91,71,43,41,42,74,67,67,41,41,67,43,74,74,74,91,42,74,91,42,74,41,74,41,42,67,42,42,91,43,43,67,42,74,74,41,41,43,91,71,91,67,43,41,42,43,41,44,80,80,81,40,40,40,40,40,40,40,40,40,40,40,40,40,40,40,40,40,40,40,40,40,40,40,40,40,40,40,40,40,40,40,40,40,
40,40,40,40,40,40,40,40,40,40,40,40,40,40,40,40,40,40,40,40,40,40,40,40,40,40,40,40,40,40,40,40,40,40,40,40,66,67,91,41,43,71,91,71,67,91,74,71,42,42,42,67,41,41,41,42,41,42,74,91,43,91,41,91,71,71,67,91,74,41,41,43,43,43,91,41,91,67,43,71,71,67,42,41,74,43,71,42,67,71,42,68,40,40,40,40,40,40,40,40,40,40,40,40,40,40,40,40,40,40,40,40,40,40,40,40,40,40,40,40,40,40,40,40,40,40,40,40,
40,40,40,40,40,40,40,40,40,40,40,40,40,40,40,40,40,40,40,40,40,40,40,40,40,40,40,40,40,40,40,40,40,40,40,40,79,80,80,80,80,80,80,80,80,80,45,71,91,91,71,91,74,67,41,41,91,42,67,74,67,41,42,71,41,91,43,43,41,91,42,91,41,41,74,43,74,74,41,74,67,44,80,80,80,80,80,80,80,80,80,81,40,40,40,40,40,40,40,40,40,40,40,40,40,40,40,40,40,40,40,40,40,40,40,40,40,40,40,40,40,40,40,40,40,40,40,40,
40,40,40,40,40,40,40,40,40,40,40,40,40,40,40,40,40,40,40,40,40,40,40,40,40,40,40,40,40,40,40,40,40,40,40,40,40,40,40,40,40,40,40,40,40,40,66,71,71,91,42,71,91,91,71,41,91,42,71,67,67,74,41,41,74,42,91,74,91,91,41,42,91,67,67,71,42,71,91,91,42,68,40,40,40,40,40,40,40,40,40,40,40,40,40,40,40,40,40,40,40,40,40,40,40,40,40,40,40,40,40,40,40,40,40,40,40,40,40,40,40,40,40,40,40,40,40,40,
40,40,40,40,40,40,40,40,40,40,40,40,40,40,40,40,40,40,40,40,40,40,40,40,40,40,40,40,40,40,40,40,40,40,40,40,40,40,40,40,40,40,40,40,40,40,79,80,80,80,80,80,80,80,80,80,80,80,80,80,80,80,80,80,80,80,80,80,80,80,80,80,80,80,80,80,80,80,80,80,80,81,40,40,40,40,40,40,40,40,40,40,40,40,40,40,40,40,40,40,40,40,40,40,40,40,40,40,40,40,40,40,40,40,40,40,40,40,40,40,40,40,40,40,40,40,40,40,
40,40,40,40,40,40,40,40,40,40,40,40,40,40,40,40,40,40,40,40,40,40,40,40,40,40,40,40,40,40,40,40,40,40,40,40,40,40,40,40,40,40,40,40,40,40,40,40,40,40,40,40,40,40,40,40,40,40,40,40,40,40,40,40,40,40,40,40,40,40,40,40,40,40,40,40,40,40,40,40,40,40,40,40,40,40,40,40,40,40,40,40,40,40,40,40,40,40,40,40,40,40,40,40,40,40,40,40,40,40,40,40,40,40,40,40,40,40,40,40,40,40,40,40,40,40,40,40,
40,40,40,40,40,40,40,40,40,40,40,40,40,40,40,40,40,40,40,40,40,40,40,40,40,40,40,40,40,40,40,40,40,40,40,40,40,40,40,40,40,40,40,40,40,40,40,40,40,40,40,40,40,40,40,40,40,40,40,40,40,40,40,40,40,40,40,40,40,40,40,40,40,40,40,40,40,40,40,40,40,40,40,40,40,40,40,40,40,40,40,40,40,40,40,40,40,40,40,40,40,40,40,40,40,40,40,40,40,40,40,40,40,40,40,40,40,40,40,40,40,40,40,40,40,40,40,40,
40,40,40,40,40,40,40,40,40,40,40,40,40,40,40,40,40,40,40,40,40,40,40,40,40,40,40,40,40,40,40,40,40,40,40,40,40,40,40,40,40,40,40,40,40,40,40,40,40,40,40,40,40,40,40,40,40,40,40,40,40,40,40,40,40,40,40,40,40,40,40,40,40,40,40,40,40,40,40,40,40,40,40,40,40,40,40,40,40,40,40,40,40,40,40,40,40,40,40,40,40,40,40,40,40,40,40,40,40,40,40,40,40,40,40,40,40,40,40,40,40,40,40,40,40,40,40,40,
40,40,40,40,40,40,40,40,40,40,40,40,40,40,40,40,40,40,40,40,40,40,40,40,40,40,40,40,40,40,40,40,40,40,40,40,40,40,40,40,40,40,40,40,40,40,40,40,40,40,40,40,40,40,40,40,40,40,40,40,40,40,40,40,40,40,40,40,40,40,40,40,40,40,40,40,40,40,40,40,40,40,40,40,40,40,40,40,40,40,40,40,40,40,40,40,40,40,40,40,40,40,40,40,40,40,40,40,40,40,40,40,40,40,40,40,40,40,40,40,40,40,40,40,40,40,40,40,
40,40,40,40,40,40,40,40,40,40,40,40,40,40,40,40,40,40,40,40,40,40,40,40,40,40,40,40,40,40,40,40,40,40,40,40,40,40,40,40,40,40,40,40,40,40,40,40,40,40,40,40,40,40,40,40,40,40,40,40,40,40,40,40,40,40,40,40,40,40,40,40,40,40,40,40,40,40,40,40,40,40,40,40,40,40,40,40,40,40,40,40,40,40,40,40,40,40,40,40,40,40,40,40,40,40,40,40,40,40,40,40,40,40,40,40,40,40,40,40,40,40,40,40,40,40,40,40,
40,40,40,40,40,40,40,40,40,40,40,40,40,40,40,40,40,40,40,40,40,40,40,40,40,40,40,40,40,40,40,40,40,40,40,40,40,40,40,40,40,40,40,40,40,40,40,40,40,40,40,40,40,40,40,40,40,40,40,40,40,40,40,40,40,40,40,40,40,40,40,40,40,40,40,40,40,40,40,40,40,40,40,40,40,40,40,40,40,40,40,40,40,40,40,40,40,40,40,40,40,40,40,40,40,40,40,40,40,40,40,40,40,40,40,40,40,40,40,40,40,40,40,40,40,40,40,40,
40,40,40,40,40,40,40,40,40,40,40,40,40,40,40,40,40,40,40,40,40,40,40,40,40,40,40,40,40,40,40,40,40,40,40,40,40,40,40,40,40,40,40,40,40,40,40,40,40,40,40,40,40,40,40,40,40,40,40,40,40,40,40,40,40,40,40,40,40,40,40,40,40,40,40,40,40,40,40,40,40,40,40,40,40,40,40,40,40,40,40,40,40,40,40,40,40,40,40,40,40,40,40,40,40,40,40,40,40,40,40,40,40,40,40,40,40,40,40,40,40,40,40,40,40,40,40,40,
40,40,40,40,40,40,40,40,40,40,40,40,40,40,40,40,40,40,40,40,40,40,40,40,40,40,40,40,40,40,40,40,40,40,40,40,40,40,40,40,40,40,40,40,40,40,40,40,40,40,40,40,40,40,40,40,40,40,40,40,40,40,40,40,40,40,40,40,40,40,40,40,40,40,40,40,40,40,40,40,40,40,40,40,40,40,40,40,40,40,40,40,40,40,40,40,40,40,40,40,40,40,40,40,40,40,40,40,40,40,40,40,40,40,40,40,40,40,40,40,40,40,40,40,40,40,40,40,
40,40,40,40,40,40,40,40,40,40,40,40,40,40,40,40,40,40,40,40,40,40,40,40,40,40,40,40,40,40,40,40,40,40,40,40,40,40,40,40,40,40,40,40,40,40,40,40,40,40,40,40,40,40,40,40,40,40,40,40,40,40,40,40,40,40,40,40,40,40,40,40,40,40,40,40,40,40,40,40,40,40,40,40,40,40,40,40,40,40,40,40,40,40,40,40,40,40,40,40,40,40,40,40,40,40,40,40,40,40,40,40,40,40,40,40,40,40,40,40,40,40,40,40,40,40,40,40,
40,40,40,40,40,40,40,40,40,40,40,40,40,40,40,40,40,40,40,40,40,40,40,40,40,40,40,40,40,40,40,40,40,40,40,40,40,40,40,40,40,40,40,40,40,40,40,40,40,40,40,40,40,40,40,40,40,40,40,40,40,40,40,40,40,40,40,40,40,40,40,40,40,40,40,40,40,40,40,40,40,40,40,40,40,40,40,40,40,40,40,40,40,40,40,40,40,40,40,40,40,40,40,40,40,40,40,40,40,40,40,40,40,40,40,40,40,40,40,40,40,40,40,40,40,40,40,40,
40,40,40,40,40,40,40,40,40,40,40,40,40,40,40,40,40,40,40,40,40,40,40,40,40,40,40,40,40,40,40,40,40,40,40,40,40,40,40,40,40,40,40,40,40,40,40,40,40,40,40,40,40,40,40,40,40,40,40,40,40,40,40,40,40,40,40,40,40,40,40,40,40,40,40,40,40,40,40,40,40,40,40,40,40,40,40,40,40,40,40,40,40,40,40,40,40,40,40,40,40,40,40,40,40,40,40,40,40,40,40,40,40,40,40,40,40,40,40,40,40,40,40,40,40,40,40,40,
40,40,40,40,40,40,40,40,40,40,40,40,40,40,40,40,40,40,40,40,40,40,40,40,40,40,40,40,40,40,40,40,40,40,40,40,40,40,40,40,40,40,40,40,40,40,40,40,40,40,40,40,40,40,40,40,40,40,40,40,40,40,40,40,40,40,40,40,40,40,40,40,40,40,40,40,40,40,40,40,40,40,40,40,40,40,40,40,40,40,40,40,40,40,40,40,40,40,40,40,40,40,40,40,40,40,40,40,40,40,40,40,40,40,40,40,40,40,40,40,40,40,40,40,40,40,40,40,
40,40,40,40,40,40,40,40,40,40,40,40,40,40,40,40,40,40,40,40,40,40,40,40,40,40,40,40,40,40,40,40,40,40,40,40,40,40,40,40,40,40,40,40,40,40,40,40,40,40,40,40,40,40,40,40,40,40,40,40,40,40,40,40,40,40,40,40,40,40,40,40,40,40,40,40,40,40,40,40,40,40,40,40,40,40,40,40,40,40,40,40,40,40,40,40,40,40,40,40,40,40,40,40,40,40,40,40,40,40,40,40,40,40,40,40,40,40,40,40,40,40,40,40,40,40,40,40,
40,40,40,40,40,40,40,40,40,40,40,40,40,40,40,40,40,40,40,40,40,40,40,40,40,40,40,40,40,40,40,40,40,40,40,40,40,40,40,40,40,40,40,40,40,40,40,40,40,40,40,40,40,40,40,40,40,40,40,40,40,40,40,40,40,40,40,40,40,40,40,40,40,40,40,40,40,40,40,40,40,40,40,40,40,40,40,40,40,40,40,40,40,40,40,40,40,40,40,40,40,40,40,40,40,40,40,40,40,40,40,40,40,40,40,40,40,40,40,40,40,40,40,40,40,40,40,40,
40,40,40,40,40,40,40,40,40,40,40,40,40,40,40,40,40,40,40,40,40,40,40,40,40,40,40,40,40,40,40,40,40,40,40,40,40,40,40,40,40,40,40,40,40,40,40,40,40,40,40,40,40,40,40,40,40,40,40,40,40,40,40,40,40,40,40,40,40,40,40,40,40,40,40,40,40,40,40,40,40,40,40,40,40,40,40,40,40,40,40,40,40,40,40,40,40,40,40,40,40,40,40,40,40,40,40,40,40,40,40,40,40,40,40,40,40,40,40,40,40,40,40,40,40,40,40,40,
40,40,40,40,40,40,40,40,40,40,40,40,40,40,40,40,40,40,40,40,40,40,40,40,40,40,40,40,40,40,40,40,40,40,40,40,40,40,40,40,40,40,40,40,40,40,40,40,40,40,40,40,40,40,40,40,40,40,40,40,40,40,40,40,40,40,40,40,40,40,40,40,40,40,40,40,40,40,40,40,40,40,40,40,40,40,40,40,40,40,40,40,40,40,40,40,40,40,40,40,40,40,40,40,40,40,40,40,40,40,40,40,40,40,40,40,40,40,40,40,40,40,40,40,40,40,40,40,
40,40,40,40,40,40,40,40,40,40,40,40,40,40,40,40,40,40,40,40,40,40,40,40,40,40,40,40,40,40,40,40,40,40,40,40,40,40,40,40,40,40,40,40,40,40,40,40,40,40,40,40,40,40,40,40,40,40,40,40,40,40,40,40,40,40,40,40,40,40,40,40,40,40,40,40,40,40,40,40,40,40,40,40,40,40,40,40,40,40,40,40,40,40,40,40,40,40,40,40,40,40,40,40,40,40,40,40,40,40,40,40,40,40,40,40,40,40,40,40,40,40,40,40,40,40,40,40,
40,40,40,40,40,40,40,40,40,40,40,40,40,40,40,40,40,40,40,40,40,40,40,40,40,40,40,40,40,40,40,40,40,40,40,40,40,40,40,40,40,40,40,40,40,40,40,40,40,40,40,40,40,40,40,40,40,40,40,40,40,40,40,40,40,40,40,40,40,40,40,40,40,40,40,40,40,40,40,40,40,40,40,40,40,40,40,40,40,40,40,40,40,40,40,40,40,40,40,40,40,40,40,40,40,40,40,40,40,40,40,40,40,40,40,40,40,40,40,40,40,40,40,40,40,40,40,40,
40,40,40,40,40,40,40,40,40,40,40,40,40,40,40,40,40,40,40,40,40,40,40,40,40,40,40,40,40,40,40,40,40,40,40,40,40,40,40,40,40,40,40,40,40,40,40,40,40,40,40,40,40,40,40,40,40,40,40,40,40,40,40,40,40,40,40,40,40,40,40,40,40,40,40,40,40,40,40,40,40,40,40,40,40,40,40,40,40,40,40,40,40,40,40,40,40,40,40,40,40,40,40,40,40,40,40,40,40,40,40,40,40,40,40,40,40,40,40,40,40,40,40,40,40,40,40,40,
40,40,40,40,40,40,40,40,40,40,40,40,40,40,40,40,40,40,40,40,40,40,40,40,40,40,40,40,40,40,40,40,40,40,40,40,40,40,40,40,40,40,40,40,40,40,40,40,40,40,40,40,40,40,40,40,40,40,40,40,40,40,40,40,40,40,40,40,40,40,40,40,40,40,40,40,40,40,40,40,40,40,40,40,40,40,40,40,40,40,40,40,40,40,40,40,40,40,40,40,40,40,40,40,40,40,40,40,40,40,40,40,40,40,40,40,40,40,40,40,40,40,40,40,40,40,40,40,
40,40,40,40,40,40,40,40,40,40,40,40,40,40,40,40,40,40,40,40,40,40,40,40,40,40,40,40,40,40,40,40,40,40,40,40,40,40,40,40,40,40,40,40,40,40,40,40,40,40,40,40,40,40,40,40,40,40,40,40,40,40,40,40,40,40,40,40,40,40,40,40,40,40,40,40,40,40,40,40,40,40,40,40,40,40,40,40,40,40,40,40,40,40,40,40,40,40,40,40,40,40,40,40,40,40,40,40,40,40,40,40,40,40,40,40,40,40,40,40,40,40,40,40,40,40,40,40,
40,40,40,40,40,40,40,40,40,40,40,40,40,40,40,40,40,40,40,40,40,40,40,40,40,40,40,40,40,40,40,40,40,40,40,40,40,40,40,40,40,40,40,40,40,40,40,40,40,40,40,40,40,40,40,40,40,40,40,40,40,40,40,40,40,40,40,40,40,40,40,40,40,40,40,40,40,40,40,40,40,40,40,40,40,40,40,40,40,40,40,40,40,40,40,40,40,40,40,40,40,40,40,40,40,40,40,40,40,40,40,40,40,40,40,40,40,40,40,40,40,40,40,40,40,40,40,40,
40,40,40,40,40,40,40,40,40,40,40,40,40,40,40,40,40,40,40,40,40,40,40,40,40,40,40,40,40,40,40,40,40,40,40,40,40,40,40,40,40,40,40,40,40,40,40,40,40,40,40,40,40,40,40,40,40,40,40,40,40,40,40,40,40,40,40,40,40,40,40,40,40,40,40,40,40,40,40,40,40,40,40,40,40,40,40,40,40,40,40,40,40,40,40,40,40,40,40,40,40,40,40,40,40,40,40,40,40,40,40,40,40,40,40,40,40,40,40,40,40,40,40,40,40,40,40,40
</data>
 </layer>
 <objectgroup id="6" name="Space" locked="1">
  <properties>
   <property name="mode" type="int" value="2"/>
   <property name="space" type="bool" value="true"/>
  </properties>
 </objectgroup>
 <objectgroup color="#ffaa7f" id="9" name="Color" locked="1">
  <properties>
   <property name="light" type="bool" value="true"/>
   <property name="mode" type="int" value="4"/>
  </properties>
  <object id="252" template="dir_light.tx" x="944" y="1202">
   <properties>
    <property name="cone" type="float" value="0.07"/>
   </properties>
  </object>
  <object id="253" template="dir_light.tx" x="1168" y="1202"/>
  <object id="295" template="dir_light.tx" x="1232" y="1470">
   <properties>
    <property name="dir" type="float" value="0.25"/>
   </properties>
  </object>
  <object id="254" template="dir_light.tx" x="1296" y="1202"/>
  <object id="294" template="dir_light.tx" x="1360" y="1470">
   <properties>
    <property name="dir" type="float" value="0.25"/>
   </properties>
  </object>
  <object id="255" template="dir_light.tx" x="640" y="898"/>
  <object id="256" template="dir_light.tx" x="768" y="898"/>
  <object id="259" template="dir_light.tx" x="896" y="578"/>
  <object id="260" template="dir_light.tx" x="1120" y="578"/>
  <object id="261" template="dir_light.tx" x="1008" y="578"/>
  <object id="266" template="dir_light.tx" x="1424" y="1202"/>
  <object id="267" template="dir_light.tx" x="1040" y="1202"/>
  <object id="293" template="dir_light.tx" x="1104" y="1470">
   <properties>
    <property name="dir" type="float" value="0.25"/>
   </properties>
  </object>
  <object id="280" template="ground_light.tx" x="704" y="720">
   <properties>
    <property name="color" type="color" value="#c8ff825c"/>
    <property name="dist" type="float" value="7000"/>
   </properties>
  </object>
 </objectgroup>
 <objectgroup color="#ffff00" id="4" name="Light" locked="1">
  <properties>
   <property name="ground_light" type="bool" value="true"/>
   <property name="light" type="bool" value="true"/>
   <property name="mode" type="int" value="1"/>
  </properties>
  <object id="221" template="ground_light.tx" x="704" y="720">
   <properties>
    <property name="color" type="color" value="#c8ff8555"/>
    <property name="dist" type="float" value="7000"/>
   </properties>
  </object>
  <object id="226" template="ground_light.tx" x="1216" y="720"/>
  <object id="281" template="ambiant_light.tx" x="944" y="656"/>
  <object id="288" template="ambiant_light.tx" x="1104" y="1280"/>
  <object id="284" template="ambiant_light.tx" x="944" y="768"/>
  <object id="285" template="ambiant_light.tx" x="1104" y="1392"/>
  <object id="291" template="ambiant_light.tx" x="928" y="1232"/>
  <object id="292" template="ambiant_light.tx" x="928" y="1280"/>
  <object id="282" template="ambiant_light.tx" x="1072" y="656"/>
  <object id="287" template="ambiant_light.tx" x="1232" y="1280"/>
  <object id="290" template="ambiant_light.tx" x="1360" y="1280"/>
  <object id="283" template="ambiant_light.tx" x="1072" y="768"/>
  <object id="286" template="ambiant_light.tx" x="1232" y="1392"/>
  <object id="289" template="ambiant_light.tx" x="1360" y="1392"/>
  <object id="225" template="ground_light.tx" x="1344" y="720"/>
  <object id="229" template="ground_light.tx" x="1344" y="1024"/>
  <object id="239" template="ground_light.tx" x="1344" y="864"/>
  <object id="227" template="ground_light.tx" x="704" y="1024"/>
  <object id="240" template="ground_light.tx" x="704" y="1184"/>
  <object id="232" template="ground_light.tx" x="1216" y="1024"/>
  <object id="231" template="ground_light.tx" x="1088" y="1024"/>
  <object id="230" template="ground_light.tx" x="960" y="1024"/>
  <object id="228" template="ground_light.tx" x="832" y="1024"/>
  <object id="268" template="dir_light.tx" x="944" y="1201">
   <properties>
    <property name="cone" type="float" value="0.07"/>
   </properties>
  </object>
  <object id="269" template="dir_light.tx" x="1040" y="1201"/>
  <object id="298" template="dir_light.tx" x="1104" y="1470">
   <properties>
    <property name="dir" type="float" value="0.25"/>
   </properties>
  </object>
  <object id="270" template="dir_light.tx" x="1168" y="1201"/>
  <object id="297" template="dir_light.tx" x="1232" y="1470">
   <properties>
    <property name="dir" type="float" value="0.25"/>
   </properties>
  </object>
  <object id="271" template="dir_light.tx" x="1296" y="1201"/>
  <object id="296" template="dir_light.tx" x="1360" y="1470">
   <properties>
    <property name="dir" type="float" value="0.25"/>
   </properties>
  </object>
  <object id="272" template="dir_light.tx" x="1424" y="1201"/>
  <object id="275" template="dir_light.tx" x="768" y="898"/>
  <object id="276" template="dir_light.tx" x="640" y="898"/>
  <object id="277" template="dir_light.tx" x="896" y="577"/>
  <object id="278" template="dir_light.tx" x="1008" y="577"/>
  <object id="279" template="dir_light.tx" x="1120" y="577"/>
 </objectgroup>
 <objectgroup id="7" name="Vision" locked="1">
  <properties>
   <property name="mode" type="int" value="3"/>
   <property name="vision" type="bool" value="true"/>
  </properties>
 </objectgroup>
</map>
