<?xml version="1.0" encoding="UTF-8"?>
<map version="1.10" tiledversion="1.12.2" orientation="orthogonal" renderorder="right-down" width="128" height="128" tilewidth="16" tileheight="16" infinite="0" nextlayerid="3" nextobjectid="22">
 <tileset firstgid="1" source="tileset.tsx"/>
 <layer id="1" name="Tile" width="128" height="128">
  <data encoding="csv">
40,40,40,40,40,40,40,40,40,40,40,40,40,40,40,40,40,40,40,40,40,40,40,40,40,40,40,40,40,40,40,40,40,40,40,40,40,40,40,40,40,40,40,40,40,40,40,40,40,40,40,40,40,40,40,40,40,40,40,40,40,40,40,40,40,40,40,40,40,40,40,40,40,40,40,40,40,40,40,40,40,40,40,40,40,40,40,40,40,40,40,40,40,40,40,40,40,40,40,40,40,40,40,40,40,40,40,40,40,40,40,40,40,40,40,40,40,40,40,40,40,40,40,40,40,40,40,40,
40,40,40,40,40,40,40,40,40,40,40,40,40,40,40,40,40,40,40,40,40,40,40,40,40,40,40,40,40,40,40,40,40,40,40,40,40,40,40,40,40,40,40,40,40,40,40,40,40,40,40,40,40,40,40,40,40,40,40,40,40,40,40,40,40,40,40,40,40,40,40,40,40,40,40,40,40,40,40,40,40,40,40,40,40,40,40,40,40,40,40,40,40,40,40,40,40,40,40,40,40,40,40,40,40,40,40,40,40,40,40,40,40,40,40,40,40,40,40,40,40,40,40,40,40,40,40,40,
40,40,40,40,40,40,40,40,40,40,40,40,40,40,40,40,40,40,40,40,40,40,40,40,40,40,40,40,40,40,40,40,40,40,40,40,40,40,40,40,40,40,40,40,40,40,40,40,40,40,40,40,40,40,40,40,40,40,40,40,40,40,40,40,40,40,40,40,40,40,40,40,40,40,40,40,40,40,40,40,40,40,40,40,40,40,40,40,40,40,40,40,40,40,40,40,40,40,40,40,40,40,40,40,40,40,40,40,40,40,40,40,40,40,40,40,40,40,40,40,40,40,40,40,40,40,40,40,
40,40,40,40,40,40,40,40,40,40,40,40,40,40,40,40,40,40,40,40,40,40,40,40,40,40,40,40,40,40,40,40,40,40,40,40,40,40,40,40,40,40,40,40,40,40,40,40,40,40,40,40,40,40,40,40,40,40,40,40,40,40,40,40,40,40,40,40,40,40,40,40,40,40,40,40,40,40,40,40,40,40,40,40,40,40,40,40,40,40,40,40,40,40,40,40,40,40,40,40,40,40,40,40,40,40,40,40,40,40,40,40,40,40,40,40,40,40,40,40,40,40,40,40,40,40,40,40,
40,40,40,40,40,40,40,40,40,40,40,40,40,40,40,40,40,40,40,40,40,40,40,40,40,40,40,40,40,40,40,40,40,40,40,40,40,40,40,40,40,40,40,40,40,40,40,40,40,40,40,40,40,40,40,40,40,40,40,40,40,40,40,40,40,40,40,40,40,40,40,40,40,40,40,40,40,40,40,40,40,40,40,40,40,40,40,40,40,40,40,40,40,40,40,40,40,40,40,40,40,40,40,40,40,40,40,40,40,40,40,40,40,40,40,40,40,40,40,40,40,40,40,40,40,40,40,40,
40,40,40,40,40,40,40,40,40,40,40,40,40,40,40,40,40,40,40,40,40,40,40,40,40,40,40,40,40,40,40,40,40,40,40,40,40,40,40,40,40,40,40,40,40,40,40,40,40,40,40,40,40,40,40,40,40,40,40,40,40,40,40,40,40,40,40,40,40,40,40,40,40,40,40,40,40,40,40,40,40,40,40,40,40,40,40,40,40,40,40,40,40,40,40,40,40,40,40,40,40,40,40,40,40,40,40,40,40,40,40,40,40,40,40,40,40,40,40,40,40,40,40,40,40,40,40,40,
40,40,40,40,40,40,40,40,40,40,40,40,40,40,40,40,40,40,40,40,40,40,40,40,40,40,40,40,40,40,40,40,40,40,40,40,40,40,40,40,40,40,40,40,40,40,40,40,40,40,40,40,40,40,40,40,40,40,40,40,40,40,40,40,40,40,40,40,40,40,40,40,40,40,40,40,40,40,40,40,40,40,40,40,40,40,40,40,40,40,40,40,40,40,40,40,40,40,40,40,40,40,40,40,40,40,40,40,40,40,40,40,40,40,40,40,40,40,40,40,40,40,40,40,40,40,40,40,
40,40,40,40,40,40,40,40,40,40,40,40,40,40,40,40,40,40,40,40,40,40,40,40,40,40,40,40,40,40,40,40,40,40,40,40,40,40,40,40,40,40,40,40,40,40,40,40,40,40,40,40,40,40,40,40,40,40,40,40,40,40,40,40,40,40,40,40,40,40,40,40,40,40,40,40,40,40,40,40,40,40,40,40,40,40,40,40,40,40,40,40,40,40,40,40,40,40,40,40,40,40,40,40,40,40,40,40,40,40,40,40,40,40,40,40,40,40,40,40,40,40,40,40,40,40,40,40,
40,40,40,40,40,40,40,40,40,40,40,40,40,40,40,40,40,40,40,40,40,40,40,40,40,40,40,40,40,40,40,40,40,40,40,40,40,40,40,40,40,40,40,40,40,40,40,40,40,40,40,40,40,40,40,40,40,40,40,40,40,40,40,40,40,40,40,40,40,40,40,40,40,40,40,40,40,40,40,40,40,40,40,40,40,40,40,40,40,40,40,40,40,40,40,40,40,40,40,40,40,40,40,40,40,40,40,40,40,40,40,40,40,40,40,40,40,40,40,40,40,40,40,40,40,40,40,40,
40,40,40,40,40,40,40,40,40,40,40,40,40,40,40,40,40,40,40,40,40,40,40,40,40,40,40,40,40,40,40,40,40,40,40,40,40,40,40,40,40,40,40,40,40,40,40,40,40,40,40,40,40,40,40,40,40,40,40,40,40,40,40,40,40,40,40,40,40,40,40,40,40,40,40,40,40,40,40,40,40,40,40,40,40,40,40,40,40,40,40,40,40,40,40,40,40,40,40,40,40,40,40,40,40,40,40,40,40,40,40,40,40,40,40,40,40,40,40,40,40,40,40,40,40,40,40,40,
40,40,40,40,40,40,40,40,40,40,40,40,40,40,40,40,40,40,40,40,40,40,40,40,40,40,40,40,40,40,40,40,40,40,40,40,40,40,40,40,40,40,40,40,40,40,40,40,40,40,40,40,40,40,40,40,40,40,40,40,40,40,40,40,40,40,40,40,40,40,40,40,40,40,40,40,40,40,40,40,40,40,40,40,40,40,40,40,40,40,40,40,40,40,40,40,40,40,40,40,40,40,40,40,40,40,40,40,40,40,40,40,40,40,40,40,40,40,40,40,40,40,40,40,40,40,40,40,
40,40,40,40,40,40,40,40,40,40,40,40,40,40,40,40,40,40,40,40,40,40,40,40,40,40,40,40,40,40,40,40,40,40,40,40,40,40,40,40,40,40,40,40,40,40,40,40,40,40,40,40,40,40,40,40,40,40,40,40,40,40,40,40,40,40,40,40,40,40,40,40,40,40,40,40,40,40,40,40,40,40,40,40,40,40,40,40,40,40,40,40,40,40,40,40,40,40,40,40,40,40,40,40,40,40,40,40,40,40,40,40,40,40,40,40,40,40,40,40,40,40,40,40,40,40,40,40,
40,40,40,40,40,40,40,40,40,40,40,40,40,40,40,40,40,40,40,40,40,40,40,40,40,40,40,40,40,40,40,40,40,40,40,40,40,40,40,40,40,40,40,40,40,40,40,40,40,40,40,40,40,40,40,40,40,40,40,40,40,40,40,40,40,40,40,40,40,40,40,40,40,40,40,40,40,40,40,40,40,40,40,40,40,40,40,40,40,40,40,40,40,40,40,40,40,40,40,40,40,40,40,40,40,40,40,40,40,40,40,40,40,40,40,40,40,40,40,40,40,40,40,40,40,40,40,40,
40,40,40,40,40,40,40,40,40,40,40,40,40,40,40,40,40,40,40,40,40,40,40,40,40,40,40,40,40,40,40,40,40,40,40,40,40,40,40,40,40,40,40,40,40,40,40,40,40,40,40,40,40,40,40,40,40,40,40,40,40,40,40,40,40,40,40,40,40,40,40,40,40,40,40,40,40,40,40,40,40,40,40,40,40,40,40,40,40,40,40,40,40,40,40,40,40,40,40,40,40,40,40,40,40,40,40,40,40,40,40,40,40,40,40,40,40,40,40,40,40,40,40,40,40,40,40,40,
40,40,40,40,40,40,40,40,40,40,40,40,40,40,40,40,40,40,40,40,40,40,40,40,40,40,40,40,40,40,40,40,40,40,40,40,40,40,40,40,40,40,40,40,40,40,40,40,40,40,40,40,40,40,40,40,40,40,40,40,40,40,40,40,40,40,40,40,40,40,40,40,40,40,40,40,40,40,40,40,40,40,40,40,40,40,40,40,40,40,40,40,40,40,40,40,40,40,40,40,40,40,40,40,40,40,40,40,40,40,40,40,40,40,40,40,40,40,40,40,40,40,40,40,40,40,40,40,
40,40,40,40,40,40,40,40,40,40,40,40,40,40,40,40,40,40,40,40,40,40,40,40,40,40,40,40,40,40,40,40,40,40,40,40,40,40,40,40,40,40,40,40,40,40,40,40,40,40,40,40,40,40,40,40,40,40,40,40,40,40,40,40,40,40,40,40,40,40,40,40,40,40,40,40,40,40,40,40,40,40,40,40,40,40,40,40,40,40,40,40,40,40,40,40,40,40,40,40,40,40,40,40,40,40,40,40,40,40,40,40,40,40,40,40,40,40,40,40,40,40,40,40,40,40,40,40,
40,40,40,40,40,40,40,40,40,40,40,40,40,40,40,40,40,40,40,40,40,40,40,40,40,40,40,40,40,40,40,40,40,40,40,40,40,40,40,40,40,40,40,40,40,40,40,40,40,40,40,40,40,40,40,40,40,40,40,40,40,40,40,40,40,40,40,40,40,40,40,40,40,40,40,40,40,40,40,40,40,40,40,40,40,40,40,40,40,40,40,40,40,40,40,40,40,40,40,40,40,40,40,40,40,40,40,40,40,40,40,40,40,40,40,40,40,40,40,40,40,40,40,40,40,40,40,40,
40,40,40,40,40,40,40,40,40,40,40,40,40,40,40,40,40,40,40,40,40,40,40,40,40,40,40,40,40,40,40,40,40,40,40,40,40,40,40,40,40,40,40,40,40,40,40,40,40,40,40,40,40,40,40,40,40,40,40,40,40,40,40,40,40,40,40,40,40,40,40,40,40,40,40,40,40,40,40,40,40,40,40,40,40,40,40,40,40,40,40,40,40,40,40,40,40,40,40,40,40,40,40,40,40,40,40,40,40,40,40,40,40,40,40,40,40,40,40,40,40,40,40,40,40,40,40,40,
40,40,40,40,40,40,40,40,40,40,40,40,40,40,40,40,40,40,53,54,54,54,54,54,54,54,54,54,54,54,54,54,54,54,54,54,54,54,54,54,54,54,54,54,54,54,54,54,54,54,54,54,54,54,54,54,54,54,54,54,54,54,54,54,54,54,54,54,54,54,54,54,54,54,54,54,54,54,54,54,54,54,54,54,54,54,54,54,54,54,54,54,54,54,54,54,54,54,54,54,54,54,54,54,54,54,54,54,54,54,55,40,40,40,40,40,40,40,40,40,40,40,40,40,40,40,40,40,
40,40,40,40,40,40,40,40,40,40,40,40,40,40,40,40,40,40,66,42,41,42,71,41,42,74,42,91,91,74,43,42,91,42,67,71,41,41,67,43,74,43,41,67,67,74,43,91,41,42,42,43,91,43,91,43,71,43,43,71,74,74,71,71,43,91,41,41,41,41,41,42,42,91,41,71,43,74,41,74,71,71,91,74,91,43,43,42,71,43,42,91,42,71,67,67,74,67,41,43,43,91,67,41,74,41,91,74,42,43,68,40,40,40,40,40,40,40,40,40,40,40,40,40,40,40,40,40,
40,40,40,40,40,40,40,40,40,40,40,40,40,40,40,40,40,40,66,67,91,41,71,43,43,71,42,42,43,42,74,43,71,42,41,71,71,41,43,71,41,91,74,43,42,42,43,67,91,41,74,71,41,74,43,41,74,74,41,74,91,67,71,91,91,67,74,91,67,67,67,43,71,74,74,43,91,74,42,67,67,71,74,42,43,74,43,71,42,71,74,43,67,67,67,41,71,71,43,43,74,42,91,41,43,71,43,74,43,74,68,40,40,40,40,40,40,40,40,40,40,40,40,40,40,40,40,40,
40,40,40,40,40,40,40,40,40,40,40,40,40,40,40,40,40,40,66,42,43,67,67,67,67,67,67,67,67,67,67,67,67,67,91,91,67,67,67,67,67,67,67,67,67,67,67,67,67,67,67,67,67,67,67,67,67,67,67,67,67,67,67,67,67,67,67,67,67,67,67,67,67,67,67,67,67,67,67,67,67,67,67,67,67,67,67,67,67,67,67,67,67,67,67,67,67,67,67,67,67,67,67,67,67,67,67,67,71,41,68,40,40,40,40,40,40,40,40,40,40,40,40,40,40,40,40,40,
40,40,40,40,40,40,40,40,40,40,40,40,40,40,40,40,40,40,66,43,42,67,67,67,67,67,67,67,67,67,67,67,67,42,43,67,67,67,67,67,67,67,67,67,67,67,67,67,67,67,67,67,67,67,67,67,67,67,67,67,67,67,67,67,67,67,67,67,67,67,67,67,67,67,67,67,67,67,67,67,67,67,67,67,67,67,67,67,67,67,67,67,67,67,67,67,67,67,67,67,67,67,67,67,67,67,67,67,91,43,68,40,40,40,40,40,40,40,40,40,40,40,40,40,40,40,40,40,
40,40,40,40,40,40,40,40,40,40,40,40,40,40,40,40,40,40,66,42,41,67,67,67,67,67,67,67,67,67,67,67,67,71,43,67,67,67,67,67,67,67,67,67,67,67,67,67,67,67,67,67,67,67,67,67,67,67,67,67,67,67,67,67,67,67,67,67,67,67,67,67,67,67,67,67,67,67,67,67,67,67,67,67,67,67,67,67,67,67,67,67,67,67,67,67,67,67,67,67,67,67,67,67,67,67,67,67,42,41,68,40,40,40,40,40,40,40,40,40,40,40,40,40,40,40,40,40,
40,40,40,40,40,40,40,40,40,40,40,40,40,40,40,40,40,40,66,71,67,67,67,67,67,67,67,67,67,67,67,67,43,42,91,67,67,67,67,67,67,67,67,67,67,67,67,67,67,67,67,67,67,67,67,67,67,67,67,67,67,67,67,67,67,67,67,67,67,67,67,67,67,67,67,67,67,67,67,67,67,67,67,67,67,67,67,67,67,67,67,67,67,67,67,67,67,67,67,67,67,67,67,67,67,67,67,67,67,42,68,40,40,40,40,40,40,40,40,40,40,40,40,40,40,40,40,40,
40,40,40,40,40,40,40,40,40,40,40,40,40,40,40,40,40,40,66,74,41,67,67,67,67,67,67,67,67,67,67,91,71,43,41,67,67,67,67,67,67,67,67,67,67,67,67,67,67,67,67,67,67,67,67,67,67,67,67,67,67,67,67,67,67,67,67,67,67,67,67,67,67,67,67,67,67,67,67,67,67,67,67,67,67,67,67,67,67,67,67,67,67,67,67,67,67,67,67,67,67,67,67,67,67,67,67,67,71,43,68,40,40,40,40,40,40,40,40,40,40,40,40,40,40,40,40,40,
40,40,40,40,40,40,40,40,40,40,40,40,40,40,40,40,40,40,66,74,42,67,67,67,67,67,67,67,67,67,71,74,67,91,71,67,67,67,67,67,67,67,67,67,67,67,67,67,67,67,67,67,67,67,67,67,67,67,67,67,67,67,67,67,67,67,67,67,67,67,67,67,67,67,67,67,67,67,67,67,67,67,67,67,67,67,67,67,67,67,67,67,67,67,67,67,67,67,67,67,67,67,67,67,67,67,67,67,41,43,68,40,40,40,40,40,40,40,40,40,40,40,40,40,40,40,40,40,
40,40,40,40,40,40,40,40,40,40,40,40,40,40,40,40,40,40,66,43,91,67,67,67,67,67,67,67,67,42,74,71,43,71,71,67,67,67,67,67,67,67,67,67,67,67,67,67,67,67,67,67,67,67,67,67,67,67,67,67,67,67,67,67,67,67,67,67,67,67,67,67,67,67,67,67,71,74,67,67,67,67,67,67,67,67,67,67,67,67,67,67,67,67,67,67,67,67,67,67,67,67,67,67,67,67,67,67,91,71,68,40,40,40,40,40,40,40,40,40,40,40,40,40,40,40,40,40,
40,40,40,40,40,40,40,40,40,40,40,40,40,40,40,40,40,40,66,91,67,67,67,67,67,67,67,67,74,74,41,67,71,74,67,67,67,67,67,67,67,67,67,67,67,67,67,67,67,67,67,67,67,67,67,67,67,67,67,67,67,67,67,67,67,67,67,67,67,67,67,67,67,67,67,43,41,42,67,67,67,67,67,67,67,67,67,67,67,67,67,67,67,67,67,67,67,67,67,67,67,67,67,67,67,67,67,67,42,41,68,40,40,40,40,40,40,40,40,40,40,40,40,40,40,40,40,40,
40,40,40,40,40,40,40,40,40,40,40,40,40,40,40,40,40,40,66,42,91,67,67,67,67,67,67,71,41,67,67,67,41,67,67,43,42,67,67,67,67,67,67,67,67,67,67,67,67,67,67,67,67,67,67,67,67,67,67,67,67,67,67,67,67,67,67,67,67,67,67,67,67,67,67,67,41,67,67,67,67,67,67,67,67,67,67,67,67,67,67,67,67,67,67,67,67,67,67,67,67,67,67,67,67,67,67,67,74,91,68,40,40,40,40,40,40,40,40,40,40,40,40,40,40,40,40,40,
40,40,40,40,40,40,40,40,40,40,40,40,40,40,40,40,40,40,66,67,91,67,67,67,67,67,74,91,42,67,67,67,42,74,67,71,74,67,67,67,67,67,67,67,67,67,67,67,67,67,67,67,67,67,67,67,67,67,67,67,67,67,67,67,67,67,67,67,67,67,67,67,67,67,67,71,67,67,67,67,67,67,67,67,67,67,67,67,67,67,67,67,67,67,67,67,67,67,67,67,67,67,67,67,67,67,67,67,91,67,68,40,40,40,40,40,40,40,40,40,40,40,40,40,40,40,40,40,
40,40,40,40,40,40,40,40,40,40,40,40,40,40,40,40,40,40,66,91,74,67,67,67,67,67,67,41,67,67,67,42,41,74,71,74,41,67,67,67,67,67,67,67,67,67,67,67,67,67,67,67,67,67,67,67,67,67,67,67,67,67,67,67,67,67,67,67,67,67,71,67,41,91,71,41,71,42,67,67,67,67,67,67,67,67,67,67,67,67,67,67,67,67,67,67,67,67,67,67,67,67,67,67,67,67,67,67,43,67,68,40,40,40,40,40,40,40,40,40,40,40,40,40,40,40,40,40,
40,40,40,40,40,40,40,40,40,40,40,40,40,40,40,40,40,40,66,67,71,67,67,67,67,67,67,42,67,67,67,67,71,43,41,71,67,67,67,67,67,67,67,67,67,67,67,67,67,67,67,67,67,67,67,67,67,67,67,67,67,67,67,67,67,67,67,67,41,71,71,74,91,41,71,71,91,74,42,67,67,67,67,67,67,67,67,67,67,67,67,67,67,67,67,67,67,67,67,67,67,67,67,67,67,67,67,67,67,91,68,40,40,40,40,40,40,40,40,40,40,40,40,40,40,40,40,40,
40,40,40,40,40,40,40,40,40,40,40,40,40,40,40,40,40,40,66,74,91,67,67,67,67,67,67,43,67,67,67,43,74,41,91,67,67,67,67,67,67,67,67,67,67,67,67,67,67,67,67,67,67,67,67,67,67,67,67,67,67,67,67,67,67,67,43,43,67,67,67,67,67,67,67,67,67,74,42,67,67,67,67,67,67,67,67,67,67,67,67,67,67,67,67,67,67,67,67,67,67,67,67,67,67,67,67,67,91,71,68,40,40,40,40,40,40,40,40,40,40,40,40,40,40,40,40,40,
40,40,40,40,40,40,40,40,40,40,40,40,40,40,40,40,40,40,66,67,91,67,67,67,67,67,67,67,67,67,74,91,42,91,67,67,67,67,67,67,67,67,67,67,67,67,67,67,67,67,67,67,67,67,67,67,67,67,67,67,67,67,67,67,67,41,74,43,67,67,67,67,42,71,71,67,67,91,67,67,67,67,67,67,67,67,67,67,67,67,67,67,67,67,67,67,67,67,67,67,67,67,67,67,67,67,67,67,74,42,68,40,40,40,40,40,40,40,40,40,40,40,40,40,40,40,40,40,
40,40,40,40,40,40,40,40,40,40,40,40,40,40,40,40,40,40,66,74,43,67,67,67,67,67,67,67,67,67,67,43,41,71,67,67,67,67,67,67,67,91,67,41,67,67,67,67,67,67,67,67,67,67,67,67,67,67,67,67,67,67,67,67,42,91,67,67,67,67,67,67,42,42,43,67,67,91,71,67,67,67,67,67,67,67,67,67,67,67,67,67,74,41,91,67,67,67,67,67,67,67,67,67,67,67,67,67,91,74,68,40,40,40,40,40,40,40,40,40,40,40,40,40,40,40,40,40,
40,40,40,40,40,40,40,40,40,40,40,40,40,40,40,40,40,40,66,42,42,67,67,67,67,67,67,67,67,67,74,74,41,67,67,67,67,67,67,67,41,74,41,67,67,67,67,67,67,67,67,67,67,67,67,67,67,67,67,67,67,67,67,71,42,91,67,67,67,67,67,71,71,74,74,67,67,67,67,91,67,67,67,41,42,67,67,67,67,67,67,41,41,42,71,71,67,67,67,67,67,67,67,67,67,67,67,67,67,41,68,40,40,40,40,40,40,40,40,40,40,40,40,40,40,40,40,40,
40,40,40,40,40,40,40,40,40,40,40,40,40,40,40,40,40,40,66,41,67,67,67,67,67,67,67,67,67,67,67,67,71,67,67,67,67,67,67,67,91,67,42,67,67,67,67,67,67,67,67,67,67,67,67,67,67,67,67,67,67,67,71,67,91,67,67,67,67,67,67,91,91,43,74,67,67,67,71,67,67,67,67,43,67,67,67,67,67,67,67,41,41,74,43,74,67,67,67,67,67,67,67,67,67,67,67,67,41,67,68,40,40,40,40,40,40,40,40,40,40,40,40,40,40,40,40,40,
40,40,40,40,40,40,40,40,40,40,40,40,40,40,40,40,40,40,66,74,67,67,67,67,67,67,67,67,67,67,42,71,67,67,67,67,105,106,106,106,106,106,106,106,106,106,106,106,106,106,106,106,106,106,106,106,106,106,106,106,106,106,106,106,106,106,106,106,106,106,106,106,106,106,106,106,106,106,106,106,106,106,106,106,106,106,106,106,106,106,106,107,71,91,71,67,67,67,67,67,67,67,67,67,67,67,67,67,71,67,68,40,40,40,40,40,40,40,40,40,40,40,40,40,40,40,40,40,
40,40,40,40,40,40,40,40,40,40,40,40,40,40,40,40,40,40,66,67,71,67,67,67,67,67,67,67,67,67,41,41,67,67,67,67,118,123,119,123,126,143,126,119,119,119,126,143,123,119,143,119,119,126,119,126,123,119,143,143,119,143,143,126,143,123,143,143,126,123,126,143,126,119,143,119,123,119,119,119,119,123,119,126,119,119,123,119,123,119,126,120,91,67,67,67,67,67,67,67,67,67,67,67,67,67,67,67,71,43,68,40,40,40,40,40,40,40,40,40,40,40,40,40,40,40,40,40,
40,40,40,40,40,40,40,40,40,40,40,40,40,40,40,40,40,40,66,91,91,67,67,67,67,67,67,67,67,67,41,67,67,67,67,67,118,119,143,123,123,126,119,123,143,119,143,126,123,123,119,143,143,123,119,123,143,123,123,123,126,143,123,123,123,126,126,123,126,143,123,143,123,126,119,119,123,143,126,126,143,126,123,119,123,123,123,126,126,123,126,120,91,91,67,67,67,67,67,67,67,67,67,67,67,67,67,67,67,74,68,40,40,40,40,40,40,40,40,40,40,40,40,40,40,40,40,40,
40,40,40,40,40,40,40,40,40,40,40,40,40,40,40,40,40,40,66,42,91,67,67,67,67,67,67,67,67,67,41,74,67,67,67,67,118,119,143,119,126,126,126,143,119,119,126,126,126,119,126,143,126,143,126,143,126,123,126,119,119,123,119,143,123,143,126,126,143,119,119,119,119,123,143,119,123,126,126,123,126,143,119,126,123,126,123,119,119,119,119,120,91,67,67,67,67,67,67,67,67,67,67,67,67,67,67,67,41,67,68,40,40,40,40,40,40,40,40,40,40,40,40,40,40,40,40,40,
40,40,40,40,40,40,40,40,40,40,40,40,40,40,40,40,40,40,66,91,43,67,67,67,67,67,67,67,67,41,71,67,67,67,67,67,118,143,119,119,119,143,143,143,119,123,119,143,119,119,143,126,143,143,123,126,119,143,123,126,126,143,126,123,119,123,119,126,143,126,143,126,119,126,143,119,143,143,126,119,143,143,126,123,126,126,123,123,126,123,126,120,41,67,67,67,67,67,67,67,67,67,67,67,67,67,67,67,42,41,68,40,40,40,40,40,40,40,40,40,40,40,40,40,40,40,40,40,
40,40,40,40,40,40,40,40,40,40,40,40,40,40,40,40,40,40,66,67,41,67,67,67,67,67,67,71,43,74,67,67,74,67,67,67,118,143,119,126,119,126,119,143,143,119,119,143,126,126,143,126,123,143,119,126,143,126,119,143,119,119,126,123,143,126,143,126,143,123,143,126,143,119,123,123,143,123,123,143,143,143,123,126,123,143,143,143,123,143,143,120,43,67,67,67,67,67,67,67,67,67,67,67,67,67,67,67,71,67,68,40,40,40,40,40,40,40,40,40,40,40,40,40,40,40,40,40,
40,40,40,40,40,40,40,40,40,40,40,40,40,40,40,40,40,40,66,43,74,67,67,67,67,67,67,43,42,91,67,67,42,67,67,67,118,123,126,119,126,126,143,123,126,119,126,143,126,143,143,119,119,119,119,119,119,123,119,126,143,119,123,123,126,123,123,123,143,143,126,143,143,119,119,119,123,126,126,143,119,123,123,123,126,119,143,126,143,119,143,120,91,67,67,67,67,67,67,67,67,67,67,67,67,67,67,67,41,71,68,40,40,40,40,40,40,40,40,40,40,40,40,40,40,40,40,40,
40,40,40,40,40,40,40,40,40,40,40,40,40,40,40,40,40,40,66,74,43,67,67,67,67,67,67,67,71,67,67,43,67,67,67,67,131,132,132,132,132,132,132,132,132,132,132,132,132,132,132,132,132,132,132,132,132,132,132,132,132,132,132,132,132,132,132,132,132,132,132,132,132,132,132,132,132,132,132,132,132,132,132,132,132,132,132,132,132,132,132,133,67,67,67,67,67,67,67,67,67,67,67,67,67,67,67,67,71,71,68,40,40,40,40,40,40,40,40,40,40,40,40,40,40,40,40,40,
40,40,40,40,40,40,40,40,40,40,40,40,40,40,40,40,40,40,66,71,91,67,67,67,67,67,67,91,74,71,41,41,67,67,67,67,67,91,67,67,74,41,67,67,67,67,42,67,67,67,67,67,67,41,74,41,91,42,42,43,41,42,67,67,67,67,67,42,74,41,74,71,43,42,67,42,42,91,71,74,67,42,42,67,67,67,74,41,67,67,74,43,67,67,67,67,67,43,67,67,67,67,67,67,67,67,67,67,41,41,68,40,40,40,40,40,40,40,40,40,40,40,40,40,40,40,40,40,
40,40,40,40,40,40,40,40,40,40,40,40,40,40,40,40,40,40,66,41,74,67,67,67,67,67,67,91,71,41,67,67,67,67,67,67,67,67,67,67,41,71,42,91,67,67,67,67,67,67,67,67,91,43,42,41,67,71,41,67,74,74,41,91,67,67,67,41,71,67,67,43,71,71,91,67,67,67,71,71,43,67,67,42,67,67,67,42,41,74,43,67,71,42,67,67,67,91,42,67,67,67,67,67,67,67,67,67,74,41,68,40,40,40,40,40,40,40,40,40,40,40,40,40,40,40,40,40,
40,40,40,40,40,40,40,40,40,40,40,40,40,40,40,40,40,40,66,91,41,67,67,67,67,67,67,71,91,67,67,67,67,67,67,43,67,67,43,71,74,71,91,74,67,67,67,67,67,67,71,71,41,91,41,67,41,91,74,42,71,67,71,74,67,67,67,67,67,67,67,43,91,43,42,67,91,71,74,91,91,67,67,67,67,71,74,67,67,67,71,67,41,71,67,67,67,91,67,67,67,67,67,67,67,67,67,67,67,67,68,40,40,40,40,40,40,40,40,40,40,40,40,40,40,40,40,40,
40,40,40,40,40,40,40,40,40,40,40,40,40,40,40,40,40,40,66,42,71,67,67,67,67,67,67,67,67,67,67,67,67,67,67,71,67,67,43,67,67,67,67,67,67,67,67,67,67,41,43,74,43,67,67,67,67,41,91,41,41,74,42,71,67,71,43,67,67,67,41,67,67,43,41,71,91,74,91,67,42,67,67,67,67,43,71,42,67,67,67,43,91,71,67,67,42,67,71,67,67,67,67,67,67,67,67,67,42,42,68,40,40,40,40,40,40,40,40,40,40,40,40,40,40,40,40,40,
40,40,40,40,40,40,40,40,40,40,40,40,40,40,40,40,40,40,66,91,74,67,67,67,67,67,67,41,67,67,67,67,67,67,41,67,74,71,91,67,67,91,41,67,67,67,67,67,67,91,42,67,43,67,67,67,67,71,43,67,67,74,74,41,67,41,74,67,67,42,74,74,42,67,91,41,74,42,67,43,74,67,67,42,41,43,74,91,67,67,67,71,67,67,67,67,71,74,71,67,67,67,67,67,67,67,67,67,42,91,68,40,40,40,40,40,40,40,40,40,40,40,40,40,40,40,40,40,
40,40,40,40,40,40,40,40,40,40,40,40,40,40,40,40,40,40,66,74,42,67,67,67,67,67,67,42,67,67,67,67,67,67,71,91,74,67,74,67,67,74,74,67,67,67,67,67,41,91,41,71,67,67,67,67,67,74,67,67,67,43,41,74,71,42,67,67,67,67,67,41,43,74,42,74,74,67,67,71,71,67,67,67,71,43,71,67,67,67,67,42,41,67,42,67,71,43,91,67,67,67,67,67,67,67,67,67,91,71,68,40,40,40,40,40,40,40,40,40,40,40,40,40,40,40,40,40,
40,40,40,40,40,40,40,40,40,40,40,40,40,40,40,40,40,40,66,67,42,67,67,67,67,67,67,67,67,67,67,67,67,67,41,74,43,42,67,67,67,67,67,67,67,67,67,67,91,74,74,42,67,67,67,67,67,74,67,67,67,71,42,43,67,41,67,74,41,74,41,43,91,91,71,74,74,42,41,67,67,67,67,42,43,42,71,41,67,67,42,74,41,67,43,74,43,91,67,67,67,67,67,67,67,67,67,67,71,74,68,40,40,40,40,40,40,40,40,40,40,40,40,40,40,40,40,40,
40,40,40,40,40,40,40,40,40,40,40,40,40,40,40,40,40,40,66,74,71,67,67,67,67,67,67,71,67,67,67,67,74,71,42,91,91,67,67,74,42,67,67,67,67,67,67,74,91,67,74,91,67,67,67,67,67,74,67,67,67,42,43,71,71,67,67,67,67,67,42,74,74,41,74,41,43,41,67,41,67,67,67,67,41,67,42,43,67,71,67,67,67,67,71,71,43,67,67,67,67,67,67,67,67,67,67,67,74,91,68,40,40,40,40,40,40,40,40,40,40,40,40,40,40,40,40,40,
40,40,40,40,40,40,40,40,40,40,40,40,40,40,40,40,40,40,66,43,41,67,67,67,67,67,67,71,67,67,67,67,42,67,71,41,67,67,67,42,43,67,67,67,67,67,67,43,74,42,67,67,67,67,67,67,67,67,91,67,67,71,41,67,41,74,41,42,41,71,67,43,42,91,41,43,41,74,67,71,71,91,91,67,67,67,67,67,67,91,67,67,67,67,43,43,41,67,67,67,43,41,67,67,67,67,67,67,91,71,68,40,40,40,40,40,40,40,40,40,40,40,40,40,40,40,40,40,
40,40,40,40,40,40,40,40,40,40,40,40,40,40,40,40,40,40,66,71,42,67,67,67,67,67,67,43,74,67,42,41,43,67,74,67,67,67,67,67,67,67,67,67,67,67,67,43,91,91,67,67,67,67,67,67,67,43,74,43,67,42,67,74,71,91,71,43,74,74,42,71,41,42,67,71,41,42,67,41,67,74,71,41,67,67,41,91,74,67,43,67,91,71,71,42,67,67,67,67,71,91,67,67,67,67,67,67,43,43,68,40,40,40,40,40,40,40,40,40,40,40,40,40,40,40,40,40,
40,40,40,40,40,40,40,40,40,40,40,40,40,40,40,40,40,40,66,71,67,67,67,67,67,67,67,91,43,42,91,41,43,67,67,67,67,67,67,67,67,67,67,67,67,91,91,67,42,43,67,67,67,67,67,67,67,42,67,67,67,71,67,91,41,67,71,71,91,41,42,71,91,74,67,74,67,42,67,67,67,67,71,41,67,67,91,42,91,67,67,67,71,74,42,71,67,67,67,67,43,74,67,67,67,67,67,67,91,74,68,40,40,40,40,40,40,40,40,40,40,40,40,40,40,40,40,40,
40,40,40,40,40,40,40,40,40,40,40,40,40,40,40,40,40,40,66,67,74,67,67,67,67,67,67,67,67,43,71,74,67,91,67,67,67,67,67,67,67,67,67,67,41,41,91,74,42,67,67,67,67,67,41,43,67,43,67,67,67,42,41,41,42,41,91,91,41,74,67,74,91,41,74,42,67,67,67,67,71,91,67,67,42,74,43,41,67,71,74,42,43,74,67,41,67,67,67,41,67,67,67,67,67,67,67,67,91,42,68,40,40,40,40,40,40,40,40,40,40,40,40,40,40,40,40,40,
40,40,40,40,40,40,40,40,40,40,40,40,40,40,40,40,40,40,66,41,91,67,67,67,67,67,67,67,74,74,43,71,67,67,67,67,67,67,67,67,67,67,67,71,42,43,43,74,42,43,67,67,67,67,42,91,67,43,67,67,67,91,41,41,67,43,42,74,42,67,91,71,41,67,91,41,67,67,43,91,43,71,67,43,41,67,67,67,67,67,74,41,74,67,42,43,67,67,43,42,41,67,67,67,67,67,67,67,43,67,68,40,40,40,40,40,40,40,40,40,40,40,40,40,40,40,40,40,
40,40,40,40,40,40,40,40,40,40,40,40,40,40,40,40,40,40,66,91,71,67,67,67,67,67,67,67,74,42,91,91,67,67,67,67,67,67,67,67,67,67,91,71,74,67,67,91,41,71,67,67,67,71,43,67,67,74,43,42,74,67,41,41,67,91,42,91,41,67,67,67,43,71,43,74,91,67,67,74,74,67,67,71,42,91,67,41,67,71,74,71,67,67,41,43,67,42,74,67,67,67,67,67,67,67,67,67,67,71,68,40,40,40,40,40,40,40,40,40,40,40,40,40,40,40,40,40,
40,40,40,40,40,40,40,40,40,40,40,40,40,40,40,40,40,40,66,41,91,67,67,67,67,67,67,67,42,67,67,67,67,67,67,67,91,67,67,67,67,74,67,67,67,67,43,43,67,67,67,67,67,74,42,67,67,41,67,43,91,74,42,43,91,43,67,42,67,67,43,67,67,91,42,91,67,91,74,42,67,67,67,67,91,67,67,41,67,71,91,43,71,67,91,74,67,71,74,67,67,67,67,67,67,67,67,67,91,74,68,40,40,40,40,40,40,40,40,40,40,40,40,40,40,40,40,40,
40,40,40,40,40,40,40,40,40,40,40,40,40,40,40,40,40,40,66,42,71,67,67,67,67,67,43,74,74,67,67,67,67,67,67,67,91,67,67,42,41,74,71,43,43,43,67,67,43,43,67,67,71,41,67,67,67,91,67,67,67,67,41,67,43,71,67,41,67,67,42,91,41,67,42,71,67,42,41,67,67,67,67,67,67,67,71,42,71,91,67,43,41,91,41,67,74,41,67,41,67,67,67,67,67,67,67,67,91,91,68,40,40,40,40,40,40,40,40,40,40,40,40,40,40,40,40,40,
40,40,40,40,40,40,40,40,40,40,40,40,40,40,40,40,40,40,66,71,43,67,67,67,67,67,71,91,67,67,67,67,67,67,67,67,67,67,67,42,71,67,91,42,43,71,67,91,67,71,67,67,74,91,67,91,41,67,67,43,41,42,71,74,41,67,67,43,41,67,71,71,41,67,91,41,74,67,67,67,67,67,67,67,67,67,74,41,74,67,67,67,67,91,71,43,43,67,67,67,67,67,67,67,67,67,67,67,41,91,68,40,40,40,40,40,40,40,40,40,40,40,40,40,40,40,40,40,
40,40,40,40,40,40,40,40,40,40,40,40,40,40,40,40,40,40,66,74,67,67,67,67,67,67,67,67,67,67,67,67,67,67,67,67,67,67,91,41,67,67,67,67,67,91,67,67,91,43,67,43,41,67,67,43,67,91,67,91,74,67,71,42,67,42,71,42,91,42,67,42,91,67,71,41,67,43,67,67,67,67,67,67,67,67,67,41,41,67,67,41,67,67,67,42,42,67,67,67,67,67,67,67,67,67,67,67,42,74,68,40,40,40,40,40,40,40,40,40,40,40,40,40,40,40,40,40,
40,40,40,40,40,40,40,40,40,40,40,40,40,40,40,40,40,40,66,71,43,67,67,67,67,67,67,67,67,67,67,67,67,67,71,42,67,42,71,41,43,42,67,67,41,43,71,91,42,67,67,91,91,67,67,91,42,42,74,41,42,74,67,91,43,91,43,43,67,67,67,67,67,43,91,43,91,67,67,67,67,67,67,67,67,67,43,43,67,67,67,74,74,41,41,67,74,42,74,67,67,67,67,67,67,67,67,67,41,67,68,40,40,40,40,40,40,40,40,40,40,40,40,40,40,40,40,40,
40,40,40,40,40,40,40,40,40,40,40,40,40,40,40,40,40,40,66,91,41,67,67,67,67,67,67,67,67,67,67,67,67,67,67,67,42,42,67,42,71,67,67,67,91,43,41,43,71,71,74,67,74,67,74,67,42,67,67,67,41,67,41,42,67,91,67,67,42,67,41,71,67,67,91,43,67,67,67,67,67,67,67,67,67,67,91,67,67,67,67,67,67,42,43,43,67,42,43,67,67,67,67,67,67,67,67,67,42,91,68,40,40,40,40,40,40,40,40,40,40,40,40,40,40,40,40,40,
40,40,40,40,40,40,40,40,40,40,40,40,40,40,40,40,40,40,66,42,74,67,67,67,67,67,67,67,67,67,67,67,67,67,42,67,74,91,42,42,67,67,67,67,41,91,67,43,42,71,74,67,74,67,67,67,67,43,67,67,42,42,71,41,91,42,42,42,42,71,71,43,43,41,67,67,67,67,43,67,67,67,67,67,67,67,67,67,67,67,41,67,43,41,67,67,67,67,67,67,67,67,67,67,67,67,67,67,43,74,68,40,40,40,40,40,40,40,40,40,40,40,40,40,40,40,40,40,
40,40,40,40,40,40,40,40,40,40,40,40,40,40,40,40,40,40,66,71,91,67,67,67,67,67,67,67,67,67,67,67,67,67,67,43,67,67,91,71,67,67,67,67,42,41,67,67,74,43,41,74,41,67,67,67,43,41,67,41,67,67,43,91,67,41,74,71,91,42,41,41,67,71,67,67,67,67,41,43,74,67,67,67,67,67,67,67,67,67,67,67,91,74,71,67,67,67,41,67,67,67,67,67,67,67,67,67,41,74,68,40,40,40,40,40,40,40,40,40,40,40,40,40,40,40,40,40,
40,40,40,40,40,40,40,40,40,40,40,40,40,40,40,40,40,40,66,91,74,67,67,67,67,67,67,67,67,67,67,67,67,42,42,74,67,71,43,67,67,67,67,67,43,74,41,91,71,74,43,67,67,41,67,43,91,67,41,41,42,41,41,67,67,67,71,42,91,42,91,67,74,43,67,67,67,67,67,42,42,67,67,67,67,67,67,67,67,67,67,91,42,91,67,67,67,74,71,41,67,67,67,67,67,67,67,67,67,74,68,40,40,40,40,40,40,40,40,40,40,40,40,40,40,40,40,40,
40,40,40,40,40,40,40,40,40,40,40,40,40,40,40,40,40,40,66,43,71,67,67,67,67,67,67,67,67,67,67,67,42,91,71,67,71,74,91,67,67,67,67,67,71,91,71,74,91,41,67,67,43,43,71,67,74,91,71,91,67,71,74,67,67,74,74,74,67,91,43,91,67,67,67,67,67,67,67,67,42,43,42,67,67,67,67,67,67,43,41,42,67,91,67,67,42,43,71,67,67,67,67,67,67,67,67,67,41,67,68,40,40,40,40,40,40,40,40,40,40,40,40,40,40,40,40,40,
40,40,40,40,40,40,40,40,40,40,40,40,40,40,40,40,40,40,66,43,67,67,67,67,67,67,67,67,67,67,67,67,43,42,67,67,71,67,43,67,67,67,67,67,67,74,67,41,43,67,67,43,67,91,67,41,41,42,67,42,41,42,74,67,67,43,67,67,91,43,67,71,71,42,91,67,41,91,42,74,43,67,91,43,67,67,67,67,67,71,41,43,71,67,67,67,42,42,67,67,67,67,67,67,67,67,67,67,71,67,68,40,40,40,40,40,40,40,40,40,40,40,40,40,40,40,40,40,
40,40,40,40,40,40,40,40,40,40,40,40,40,40,40,40,40,40,66,74,43,67,67,67,67,67,67,67,67,67,67,67,67,67,67,91,91,67,67,67,67,67,67,67,67,42,43,74,74,41,41,71,67,43,41,41,67,71,67,71,91,74,42,43,41,71,71,67,67,41,74,43,67,67,67,67,67,67,67,67,91,67,67,42,67,67,67,67,67,42,91,74,91,67,67,67,67,67,67,67,67,67,67,67,67,67,67,67,43,41,68,40,40,40,40,40,40,40,40,40,40,40,40,40,40,40,40,40,
40,40,40,40,40,40,40,40,40,40,40,40,40,40,40,40,40,40,66,91,43,67,67,67,67,67,67,67,67,67,67,67,74,67,67,42,41,67,67,67,67,67,67,67,67,71,43,67,43,41,42,67,67,67,67,67,67,67,67,71,67,41,43,71,91,42,71,67,41,42,43,67,91,42,67,67,67,67,67,67,41,43,67,74,67,67,67,67,74,43,67,67,67,67,67,67,91,41,91,67,67,67,67,67,67,67,67,67,41,67,68,40,40,40,40,40,40,40,40,40,40,40,40,40,40,40,40,40,
40,40,40,40,40,40,40,40,40,40,40,40,40,40,40,40,40,40,66,42,91,67,67,67,67,67,67,67,67,67,71,43,67,67,67,67,67,67,67,67,67,67,67,67,67,41,71,43,41,42,67,67,71,71,42,41,67,42,41,67,67,42,71,67,67,43,67,67,71,43,67,67,41,71,67,67,67,67,67,43,74,91,67,91,42,42,67,67,71,74,67,67,67,67,67,67,67,67,67,67,67,67,67,67,67,67,67,67,71,74,68,40,40,40,40,40,40,40,40,40,40,40,40,40,40,40,40,40,
40,40,40,40,40,40,40,40,40,40,40,40,40,40,40,40,40,40,66,67,43,67,67,67,67,67,67,67,67,67,43,67,67,67,67,67,67,67,67,67,67,67,67,67,41,91,74,71,67,67,91,41,41,91,67,67,67,71,41,67,67,67,67,67,41,67,67,43,67,91,42,91,41,71,71,67,74,67,67,74,71,67,67,67,42,91,67,67,67,67,74,67,67,67,67,67,67,67,67,67,67,67,67,67,67,67,67,67,74,41,68,40,40,40,40,40,40,40,40,40,40,40,40,40,40,40,40,40,
40,40,40,40,40,40,40,40,40,40,40,40,40,40,40,40,40,40,66,91,42,67,67,67,67,67,67,67,67,71,43,42,67,67,67,67,67,67,67,67,67,67,67,67,42,42,74,67,67,67,42,74,71,74,67,67,67,67,74,67,71,43,67,67,42,67,67,43,71,71,74,67,91,67,67,91,41,67,91,67,43,41,91,74,67,67,67,67,67,71,91,67,67,67,67,67,67,67,67,67,67,67,67,67,67,67,67,67,43,91,68,40,40,40,40,40,40,40,40,40,40,40,40,40,40,40,40,40,
40,40,40,40,40,40,40,40,40,40,40,40,40,40,40,40,40,40,66,74,91,67,67,67,67,67,67,67,67,71,42,67,67,67,67,67,67,67,91,43,67,67,42,91,74,74,42,67,67,67,41,42,67,71,67,43,42,67,67,67,67,67,67,74,42,67,41,43,74,74,67,67,43,67,67,67,67,67,74,71,91,43,42,41,67,42,67,67,71,41,67,67,67,67,67,41,67,67,67,67,67,67,67,67,67,67,67,67,74,74,68,40,40,40,40,40,40,40,40,40,40,40,40,40,40,40,40,40,
40,40,40,40,40,40,40,40,40,40,40,40,40,40,40,40,40,40,66,41,43,67,67,67,67,67,67,67,67,43,67,67,67,67,67,67,67,67,41,42,67,67,67,41,43,42,74,41,41,67,67,91,74,91,67,71,43,67,67,67,74,71,42,67,67,67,91,71,67,91,67,67,67,67,67,67,67,74,71,42,67,41,41,42,74,71,67,67,43,71,67,67,67,67,91,74,67,67,67,67,67,67,67,67,67,67,67,67,74,43,68,40,40,40,40,40,40,40,40,40,40,40,40,40,40,40,40,40,
40,40,40,40,40,40,40,40,40,40,40,40,40,40,40,40,40,40,66,42,74,67,67,67,67,67,67,67,67,67,67,67,67,67,67,67,67,67,67,67,67,67,67,67,41,91,74,41,74,41,67,67,67,71,41,67,67,67,67,67,67,91,71,74,67,71,91,91,67,67,67,67,67,67,67,41,43,42,74,67,67,43,43,67,71,91,91,91,41,41,67,67,67,67,91,67,67,67,67,67,67,67,67,67,67,67,67,67,71,42,68,40,40,40,40,40,40,40,40,40,40,40,40,40,40,40,40,40,
40,40,40,40,40,40,40,40,40,40,40,40,40,40,40,40,40,40,66,43,74,67,67,67,67,67,67,74,67,67,67,67,67,67,67,67,67,41,67,67,67,67,67,67,42,91,67,67,67,67,67,43,74,43,74,67,67,67,67,67,71,42,71,74,71,42,41,41,67,91,67,67,67,67,67,41,74,91,42,74,41,67,67,67,67,42,67,43,74,67,67,67,67,67,71,42,71,42,67,67,67,67,67,67,67,67,67,67,91,67,68,40,40,40,40,40,40,40,40,40,40,40,40,40,40,40,40,40,
40,40,40,40,40,40,40,40,40,40,40,40,40,40,40,40,40,40,66,41,74,67,67,67,67,67,91,43,41,67,67,67,67,67,67,67,71,43,67,67,67,67,67,67,67,67,67,67,71,67,67,67,67,67,74,67,67,67,67,91,91,42,71,91,41,67,74,74,67,67,67,67,67,67,67,67,43,42,74,67,43,67,67,91,42,71,67,74,71,67,67,67,67,41,43,74,41,43,67,67,67,67,67,67,67,67,67,67,74,43,68,40,40,40,40,40,40,40,40,40,40,40,40,40,40,40,40,40,
40,40,40,40,40,40,40,40,40,40,40,40,40,40,40,40,40,40,66,91,71,67,67,67,67,71,67,43,67,67,67,67,67,67,67,67,43,91,67,67,67,67,67,67,41,67,67,74,67,74,67,71,71,67,67,67,67,67,67,74,71,42,42,74,67,67,91,71,71,43,67,67,67,74,67,91,67,41,43,91,67,67,74,41,91,71,67,67,74,91,67,67,67,43,91,43,91,41,74,67,67,67,67,67,67,67,67,67,91,71,68,40,40,40,40,40,40,40,40,40,40,40,40,40,40,40,40,40,
40,40,40,40,40,40,40,40,40,40,40,40,40,40,40,40,40,40,66,91,91,67,67,67,67,74,41,67,67,67,67,67,67,67,67,67,105,106,106,106,106,106,106,106,106,106,106,106,106,106,106,106,106,106,106,106,106,106,106,106,106,106,106,106,106,106,106,106,106,106,106,106,106,106,106,106,106,106,106,106,106,106,106,106,106,106,106,106,106,106,106,107,67,67,91,91,42,67,74,67,67,67,67,67,67,67,67,67,42,74,68,40,40,40,40,40,40,40,40,40,40,40,40,40,40,40,40,40,
40,40,40,40,40,40,40,40,40,40,40,40,40,40,40,40,40,40,66,42,43,67,67,67,67,42,91,67,67,67,67,67,67,67,67,91,118,119,119,119,123,119,126,126,123,123,123,123,143,126,126,126,119,126,123,143,126,119,119,143,119,143,143,143,143,123,126,119,126,126,119,126,143,123,119,143,119,126,143,126,126,126,126,119,143,123,143,143,126,143,126,120,67,41,42,91,41,43,71,43,67,67,67,67,67,67,67,67,71,43,68,40,40,40,40,40,40,40,40,40,40,40,40,40,40,40,40,40,
40,40,40,40,40,40,40,40,40,40,40,40,40,40,40,40,40,40,66,74,43,67,67,67,91,91,67,67,67,67,67,67,67,67,67,71,118,119,119,143,119,123,126,119,126,126,123,126,123,143,126,143,123,143,123,119,119,126,123,119,119,126,143,126,119,123,123,126,119,123,119,143,123,143,119,126,143,123,123,126,126,123,143,143,126,119,126,143,119,143,123,120,67,42,41,67,41,43,41,43,67,67,67,67,67,67,67,67,74,41,68,40,40,40,40,40,40,40,40,40,40,40,40,40,40,40,40,40,
40,40,40,40,40,40,40,40,40,40,40,40,40,40,40,40,40,40,66,43,74,67,67,67,67,67,67,67,67,67,67,67,67,67,67,41,118,126,119,119,143,123,123,119,126,143,143,143,123,119,126,126,123,119,119,126,119,143,143,123,126,123,119,126,126,123,123,143,126,126,119,119,119,126,123,143,143,143,119,119,126,123,119,126,126,143,126,126,143,143,119,120,43,42,67,74,71,42,41,91,67,67,67,67,67,67,67,67,67,91,68,40,40,40,40,40,40,40,40,40,40,40,40,40,40,40,40,40,
40,40,40,40,40,40,40,40,40,40,40,40,40,40,40,40,40,40,66,74,74,67,67,91,41,67,67,67,91,67,67,67,67,74,71,71,118,123,126,126,143,123,143,123,143,143,126,123,123,143,119,126,119,143,123,126,123,119,126,123,126,123,123,126,126,119,126,119,126,126,126,126,119,143,119,126,143,126,123,126,119,126,126,123,123,143,143,126,126,143,119,120,67,41,67,41,74,71,43,41,67,67,67,67,67,67,67,67,71,42,68,40,40,40,40,40,40,40,40,40,40,40,40,40,40,40,40,40,
40,40,40,40,40,40,40,40,40,40,40,40,40,40,40,40,40,40,66,71,91,67,67,41,43,67,67,74,91,67,67,67,67,71,67,91,118,126,126,143,143,119,126,119,126,119,126,119,126,126,119,126,126,143,123,123,126,143,143,119,143,123,126,126,143,143,143,119,119,123,123,119,143,123,123,123,143,126,126,126,126,119,123,119,126,143,119,126,123,119,119,120,91,71,91,74,42,67,74,71,67,67,67,67,67,67,67,67,41,42,68,40,40,40,40,40,40,40,40,40,40,40,40,40,40,40,40,40,
40,40,40,40,40,40,40,40,40,40,40,40,40,40,40,40,40,40,66,91,43,67,67,42,67,67,67,71,71,67,67,67,67,71,74,67,118,143,119,123,143,119,123,123,143,126,123,126,143,123,119,123,123,123,143,123,143,123,126,123,119,119,126,123,119,123,119,119,126,143,126,119,123,123,143,143,143,126,143,143,123,143,123,143,123,126,123,126,143,123,143,120,74,41,67,71,41,43,41,41,67,67,67,67,67,67,67,67,42,71,68,40,40,40,40,40,40,40,40,40,40,40,40,40,40,40,40,40,
40,40,40,40,40,40,40,40,40,40,40,40,40,40,40,40,40,40,66,42,41,67,67,67,71,67,67,91,71,67,67,67,67,91,74,67,131,132,132,132,132,132,132,132,132,132,132,132,132,132,132,132,132,132,132,132,132,132,132,132,132,132,132,132,132,132,132,132,132,132,132,132,132,132,132,132,132,132,132,132,132,132,132,132,132,132,132,132,132,132,132,133,41,71,91,74,41,43,42,67,67,67,67,67,67,67,67,67,42,74,68,40,40,40,40,40,40,40,40,40,40,40,40,40,40,40,40,40,
40,40,40,40,40,40,40,40,40,40,40,40,40,40,40,40,40,40,66,43,41,67,67,74,74,67,67,67,91,67,67,67,67,74,67,67,67,67,67,42,67,74,41,43,74,67,42,42,67,67,67,67,67,67,67,67,67,67,67,67,43,67,67,67,67,42,41,67,67,71,42,67,67,67,67,67,67,67,67,43,42,91,67,67,67,67,67,67,43,71,71,42,71,91,91,91,71,74,67,67,67,67,67,67,67,67,67,67,74,43,68,40,40,40,40,40,40,40,40,40,40,40,40,40,40,40,40,40,
40,40,40,40,40,40,40,40,40,40,40,40,40,40,40,40,40,40,66,91,91,67,67,43,42,67,74,71,43,67,67,67,91,41,41,74,74,71,91,42,43,41,42,43,91,67,91,43,67,67,67,67,67,67,67,67,67,67,67,67,71,67,67,67,74,42,67,67,71,42,67,67,67,67,67,67,67,67,74,67,71,67,67,67,67,67,67,67,71,67,71,71,71,42,71,43,71,42,91,67,67,67,67,67,67,67,67,67,42,91,68,40,40,40,40,40,40,40,40,40,40,40,40,40,40,40,40,40,
40,40,40,40,40,40,40,40,40,40,40,40,40,40,40,40,40,40,66,43,43,67,67,42,41,67,71,43,91,67,67,67,71,42,42,91,67,74,43,67,41,71,41,43,41,74,67,67,67,67,67,67,67,67,67,67,67,67,67,43,42,74,43,74,41,67,67,67,43,67,67,67,67,67,67,67,67,74,74,91,91,67,67,67,67,67,67,67,71,67,71,74,42,41,41,71,67,41,43,67,67,67,67,67,67,67,67,67,71,71,68,40,40,40,40,40,40,40,40,40,40,40,40,40,40,40,40,40,
40,40,40,40,40,40,40,40,40,40,40,40,40,40,40,40,40,40,66,41,71,67,67,41,67,71,41,67,67,67,67,67,42,91,67,91,67,74,71,43,74,42,43,67,74,91,71,71,67,67,67,67,67,67,91,71,42,41,42,43,42,67,67,67,67,67,67,67,67,67,67,67,67,67,67,67,42,43,41,67,67,67,67,67,67,67,67,91,42,43,41,74,43,91,91,42,67,42,42,67,67,67,67,67,67,67,67,67,43,43,68,40,40,40,40,40,40,40,40,40,40,40,40,40,40,40,40,40,
40,40,40,40,40,40,40,40,40,40,40,40,40,40,40,40,40,40,66,74,43,67,74,74,67,74,42,43,67,67,67,71,43,41,41,42,42,71,67,67,43,71,43,42,41,42,41,41,91,91,91,71,41,91,71,42,43,74,71,42,91,41,67,67,67,67,67,67,67,67,67,67,67,67,67,91,91,91,67,67,67,67,67,67,67,67,67,91,41,71,41,41,67,71,91,41,67,74,41,67,67,67,67,67,67,67,67,67,41,74,68,40,40,40,40,40,40,40,40,40,40,40,40,40,40,40,40,40,
40,40,40,40,40,40,40,40,40,40,40,40,40,40,40,40,40,40,66,91,41,67,43,67,67,67,41,41,67,67,67,71,71,67,67,42,67,74,67,71,43,67,67,67,67,67,67,41,42,91,74,43,91,67,41,91,67,71,67,74,42,43,67,43,43,74,71,71,74,67,42,67,74,41,74,91,71,71,67,67,67,67,67,67,67,67,67,41,91,43,43,67,71,41,42,74,67,41,74,67,67,67,67,67,67,67,67,67,43,67,68,40,40,40,40,40,40,40,40,40,40,40,40,40,40,40,40,40,
40,40,40,40,40,40,40,40,40,40,40,40,40,40,40,40,40,40,66,41,42,67,42,67,91,91,91,43,67,67,71,71,41,91,42,67,1,2,2,2,2,2,2,2,2,2,2,2,2,2,2,2,2,2,2,2,2,2,2,2,2,2,2,2,2,2,2,2,2,2,2,2,2,2,2,2,2,2,2,2,2,2,2,2,2,2,2,2,2,2,2,2,2,2,2,2,2,2,2,3,67,67,67,67,67,67,67,67,41,67,68,40,40,40,40,40,40,40,40,40,40,40,40,40,40,40,40,40,
40,40,40,40,40,40,40,40,40,40,40,40,40,40,40,40,40,40,66,67,71,42,91,67,42,91,71,67,67,67,71,67,42,67,43,91,14,19,15,19,52,19,39,22,19,39,39,19,22,15,39,22,22,19,15,19,22,52,52,52,39,52,19,39,52,19,19,19,15,22,22,52,39,19,19,22,19,22,52,19,52,22,19,52,15,22,22,15,19,39,39,52,22,22,19,15,39,15,15,16,67,67,67,67,67,67,67,67,67,67,68,40,40,40,40,40,40,40,40,40,40,40,40,40,40,40,40,40,
40,40,40,40,40,40,40,40,40,40,40,40,40,40,40,40,40,40,66,43,91,43,41,43,91,43,43,67,67,67,67,41,43,71,91,42,27,28,28,28,28,28,28,28,28,28,28,28,28,28,28,28,28,28,28,28,28,28,28,28,28,28,28,28,28,28,28,28,28,28,28,28,28,28,28,28,28,28,28,28,28,28,28,28,28,28,28,28,28,28,28,28,28,28,28,28,28,28,28,29,67,67,67,67,67,67,67,67,71,74,68,40,40,40,40,40,40,40,40,40,40,40,40,40,40,40,40,40,
40,40,40,40,40,40,40,40,40,40,40,40,40,40,40,40,40,40,66,91,91,41,43,43,43,71,43,67,67,41,74,67,74,42,91,67,41,67,67,41,74,74,42,41,67,67,67,67,67,67,67,67,41,43,71,67,67,67,67,67,67,67,67,67,67,67,67,67,67,67,67,67,67,67,67,43,42,42,67,67,67,67,67,67,67,67,67,43,42,67,67,67,71,91,43,71,67,67,67,67,67,67,67,67,67,67,67,67,41,42,68,40,40,40,40,40,40,40,40,40,40,40,40,40,40,40,40,40,
40,40,40,40,40,40,40,40,40,40,40,40,40,40,40,40,40,40,66,91,41,67,41,71,41,41,71,67,67,71,43,67,67,91,67,67,67,67,67,42,42,71,74,41,74,71,43,71,43,43,67,74,74,67,67,67,67,67,67,67,67,67,67,67,67,67,67,67,67,67,67,67,67,67,67,67,42,67,41,67,67,67,67,67,67,67,67,67,67,67,67,67,67,67,91,74,67,67,67,67,67,67,67,67,67,67,67,67,42,74,68,40,40,40,40,40,40,40,40,40,40,40,40,40,40,40,40,40,
40,40,40,40,40,40,40,40,40,40,40,40,40,40,40,40,40,40,66,71,91,67,67,91,67,67,43,67,67,42,74,67,74,67,67,67,67,67,67,67,67,67,67,67,67,67,67,67,67,67,67,67,67,67,67,67,67,67,67,67,67,67,67,67,67,67,67,67,67,67,67,67,67,67,67,67,67,41,91,43,41,67,67,67,67,67,67,67,67,67,67,67,67,74,74,67,67,67,67,67,67,67,67,67,67,67,67,67,43,71,68,40,40,40,40,40,40,40,40,40,40,40,40,40,40,40,40,40,
40,40,40,40,40,40,40,40,40,40,40,40,40,40,40,40,40,40,66,71,91,67,43,41,67,71,67,67,91,67,67,67,91,67,67,67,67,67,67,67,67,67,67,67,67,67,67,67,67,67,67,67,67,67,67,67,67,67,67,67,67,67,67,67,67,67,67,67,67,67,67,67,67,67,67,67,67,67,67,42,43,71,41,91,71,67,67,67,67,67,67,67,67,74,91,67,67,67,67,67,67,67,67,67,67,67,67,67,67,91,68,40,40,40,40,40,40,40,40,40,40,40,40,40,40,40,40,40,
40,40,40,40,40,40,40,40,40,40,40,40,40,40,40,40,40,40,66,42,67,42,67,67,67,74,71,71,67,43,67,67,67,67,67,67,67,67,67,67,67,67,67,67,67,67,67,67,67,67,67,67,67,67,67,67,67,67,67,67,67,67,67,67,67,67,67,67,67,67,67,67,67,67,67,67,67,67,67,67,67,67,41,71,41,91,42,43,91,91,71,67,43,74,67,67,67,67,67,67,67,67,67,67,67,67,67,67,43,74,68,40,40,40,40,40,40,40,40,40,40,40,40,40,40,40,40,40,
40,40,40,40,40,40,40,40,40,40,40,40,40,40,40,40,40,40,66,74,43,41,74,67,67,43,67,41,71,67,67,67,67,67,67,67,67,67,67,67,67,67,67,67,67,67,67,67,67,67,67,67,67,67,67,67,67,67,67,67,67,67,67,67,67,67,67,67,67,67,67,67,67,67,67,67,67,67,67,67,67,67,67,67,67,67,67,67,74,67,74,67,71,42,67,67,67,67,67,67,67,67,67,67,67,67,67,67,74,67,68,40,40,40,40,40,40,40,40,40,40,40,40,40,40,40,40,40,
40,40,40,40,40,40,40,40,40,40,40,40,40,40,40,40,40,40,66,71,43,67,43,67,67,91,74,71,67,67,67,67,67,67,67,67,67,67,67,67,67,67,67,67,67,67,67,67,67,67,67,67,67,67,67,67,67,67,67,67,67,67,67,67,67,67,67,67,67,67,67,67,67,67,67,67,67,67,67,67,67,67,67,67,67,67,67,67,67,67,67,67,67,67,67,67,67,67,67,67,67,67,67,67,67,67,67,67,67,43,68,40,40,40,40,40,40,40,40,40,40,40,40,40,40,40,40,40,
40,40,40,40,40,40,40,40,40,40,40,40,40,40,40,40,40,40,66,71,71,91,67,67,67,67,74,41,67,67,67,67,67,67,67,67,67,67,67,67,67,67,67,67,67,67,67,67,67,67,67,67,67,67,67,67,67,67,67,67,67,67,67,67,67,67,67,67,67,67,67,67,67,67,67,67,67,67,67,67,67,67,67,67,67,67,67,67,67,67,67,67,67,67,67,67,67,67,67,67,67,67,67,67,67,67,67,67,41,43,68,40,40,40,40,40,40,40,40,40,40,40,40,40,40,40,40,40,
40,40,40,40,40,40,40,40,40,40,40,40,40,40,40,40,40,40,66,67,91,67,67,67,67,91,74,67,67,67,67,67,67,67,67,67,67,67,67,67,67,67,67,67,67,67,67,67,67,67,67,67,67,67,67,67,67,67,67,67,67,67,67,67,67,67,67,67,67,67,67,67,67,67,67,67,67,67,67,67,67,67,67,67,67,67,67,67,67,67,67,67,67,67,67,67,67,67,67,67,67,67,67,67,67,67,67,67,74,42,68,40,40,40,40,40,40,40,40,40,40,40,40,40,40,40,40,40,
40,40,40,40,40,40,40,40,40,40,40,40,40,40,40,40,40,40,66,91,74,67,67,67,67,67,67,67,67,67,67,67,67,67,67,67,67,67,67,67,67,67,67,67,67,67,67,67,67,67,67,67,67,67,67,67,67,67,67,67,67,67,67,67,67,67,67,67,67,67,67,67,67,67,67,67,67,67,67,67,67,67,67,67,67,67,67,67,67,67,67,67,67,67,67,67,67,67,67,67,67,67,67,67,67,67,67,67,41,41,68,40,40,40,40,40,40,40,40,40,40,40,40,40,40,40,40,40,
40,40,40,40,40,40,40,40,40,40,40,40,40,40,40,40,40,40,66,42,41,67,67,67,67,67,67,67,67,67,67,67,67,67,67,67,67,67,67,67,67,67,67,67,67,67,67,67,67,67,67,67,67,67,67,67,67,67,67,67,67,67,67,67,67,67,67,67,67,67,67,67,67,67,67,67,67,67,67,67,67,67,67,67,67,67,67,67,67,67,67,67,67,67,67,67,67,67,67,67,67,67,67,67,67,67,67,67,41,67,68,40,40,40,40,40,40,40,40,40,40,40,40,40,40,40,40,40,
40,40,40,40,40,40,40,40,40,40,40,40,40,40,40,40,40,40,66,71,41,67,67,67,67,67,67,67,67,67,67,67,67,67,67,67,67,67,67,67,67,67,67,67,67,67,67,67,67,67,67,67,67,67,67,67,67,67,67,67,67,67,67,67,67,67,67,67,67,67,67,67,67,67,67,67,67,67,67,67,67,67,67,67,67,67,67,67,67,67,67,67,67,67,67,67,67,67,67,67,67,67,67,67,67,67,67,67,41,42,68,40,40,40,40,40,40,40,40,40,40,40,40,40,40,40,40,40,
40,40,40,40,40,40,40,40,40,40,40,40,40,40,40,40,40,40,66,74,43,74,74,41,71,43,41,41,67,91,43,91,74,71,74,41,71,71,71,43,67,71,74,41,43,41,67,43,74,41,67,43,42,71,67,67,71,43,41,43,42,91,91,67,41,67,71,41,43,42,71,91,91,71,91,74,43,67,71,41,43,41,91,91,42,91,74,42,42,67,42,91,67,67,74,71,42,43,42,43,43,67,43,41,74,41,91,43,42,91,68,40,40,40,40,40,40,40,40,40,40,40,40,40,40,40,40,40,
40,40,40,40,40,40,40,40,40,40,40,40,40,40,40,40,40,40,66,67,71,67,74,41,42,41,74,91,43,71,67,67,42,74,42,67,67,71,43,43,41,43,71,71,67,67,43,67,41,71,42,42,91,42,71,41,74,41,42,71,74,67,74,43,43,42,42,42,71,74,41,42,71,91,43,41,91,42,74,67,91,67,43,43,91,43,91,43,42,74,67,67,43,41,67,41,43,41,42,42,41,91,71,74,74,43,43,42,71,91,68,40,40,40,40,40,40,40,40,40,40,40,40,40,40,40,40,40,
40,40,40,40,40,40,40,40,40,40,40,40,40,40,40,40,40,40,79,80,80,80,80,80,80,80,80,80,80,80,80,80,80,80,80,80,80,80,80,80,80,80,80,80,80,80,80,80,80,80,80,80,80,80,80,80,80,80,80,80,80,80,80,80,80,80,80,80,80,80,80,80,80,80,80,80,80,80,80,80,80,80,80,80,80,80,80,80,80,80,80,80,80,80,80,80,80,80,80,80,80,80,80,80,80,80,80,80,80,80,81,40,40,40,40,40,40,40,40,40,40,40,40,40,40,40,40,40,
40,40,40,40,40,40,40,40,40,40,40,40,40,40,40,40,40,40,40,40,40,40,40,40,40,40,40,40,40,40,40,40,40,40,40,40,40,40,40,40,40,40,40,40,40,40,40,40,40,40,40,40,40,40,40,40,40,40,40,40,40,40,40,40,40,40,40,40,40,40,40,40,40,40,40,40,40,40,40,40,40,40,40,40,40,40,40,40,40,40,40,40,40,40,40,40,40,40,40,40,40,40,40,40,40,40,40,40,40,40,40,40,40,40,40,40,40,40,40,40,40,40,40,40,40,40,40,40,
40,40,40,40,40,40,40,40,40,40,40,40,40,40,40,40,40,40,40,40,40,40,40,40,40,40,40,40,40,40,40,40,40,40,40,40,40,40,40,40,40,40,40,40,40,40,40,40,40,40,40,40,40,40,40,40,40,40,40,40,40,40,40,40,40,40,40,40,40,40,40,40,40,40,40,40,40,40,40,40,40,40,40,40,40,40,40,40,40,40,40,40,40,40,40,40,40,40,40,40,40,40,40,40,40,40,40,40,40,40,40,40,40,40,40,40,40,40,40,40,40,40,40,40,40,40,40,40,
40,40,40,40,40,40,40,40,40,40,40,40,40,40,40,40,40,40,40,40,40,40,40,40,40,40,40,40,40,40,40,40,40,40,40,40,40,40,40,40,40,40,40,40,40,40,40,40,40,40,40,40,40,40,40,40,40,40,40,40,40,40,40,40,40,40,40,40,40,40,40,40,40,40,40,40,40,40,40,40,40,40,40,40,40,40,40,40,40,40,40,40,40,40,40,40,40,40,40,40,40,40,40,40,40,40,40,40,40,40,40,40,40,40,40,40,40,40,40,40,40,40,40,40,40,40,40,40,
40,40,40,40,40,40,40,40,40,40,40,40,40,40,40,40,40,40,40,40,40,40,40,40,40,40,40,40,40,40,40,40,40,40,40,40,40,40,40,40,40,40,40,40,40,40,40,40,40,40,40,40,40,40,40,40,40,40,40,40,40,40,40,40,40,40,40,40,40,40,40,40,40,40,40,40,40,40,40,40,40,40,40,40,40,40,40,40,40,40,40,40,40,40,40,40,40,40,40,40,40,40,40,40,40,40,40,40,40,40,40,40,40,40,40,40,40,40,40,40,40,40,40,40,40,40,40,40,
40,40,40,40,40,40,40,40,40,40,40,40,40,40,40,40,40,40,40,40,40,40,40,40,40,40,40,40,40,40,40,40,40,40,40,40,40,40,40,40,40,40,40,40,40,40,40,40,40,40,40,40,40,40,40,40,40,40,40,40,40,40,40,40,40,40,40,40,40,40,40,40,40,40,40,40,40,40,40,40,40,40,40,40,40,40,40,40,40,40,40,40,40,40,40,40,40,40,40,40,40,40,40,40,40,40,40,40,40,40,40,40,40,40,40,40,40,40,40,40,40,40,40,40,40,40,40,40,
40,40,40,40,40,40,40,40,40,40,40,40,40,40,40,40,40,40,40,40,40,40,40,40,40,40,40,40,40,40,40,40,40,40,40,40,40,40,40,40,40,40,40,40,40,40,40,40,40,40,40,40,40,40,40,40,40,40,40,40,40,40,40,40,40,40,40,40,40,40,40,40,40,40,40,40,40,40,40,40,40,40,40,40,40,40,40,40,40,40,40,40,40,40,40,40,40,40,40,40,40,40,40,40,40,40,40,40,40,40,40,40,40,40,40,40,40,40,40,40,40,40,40,40,40,40,40,40,
40,40,40,40,40,40,40,40,40,40,40,40,40,40,40,40,40,40,40,40,40,40,40,40,40,40,40,40,40,40,40,40,40,40,40,40,40,40,40,40,40,40,40,40,40,40,40,40,40,40,40,40,40,40,40,40,40,40,40,40,40,40,40,40,40,40,40,40,40,40,40,40,40,40,40,40,40,40,40,40,40,40,40,40,40,40,40,40,40,40,40,40,40,40,40,40,40,40,40,40,40,40,40,40,40,40,40,40,40,40,40,40,40,40,40,40,40,40,40,40,40,40,40,40,40,40,40,40,
40,40,40,40,40,40,40,40,40,40,40,40,40,40,40,40,40,40,40,40,40,40,40,40,40,40,40,40,40,40,40,40,40,40,40,40,40,40,40,40,40,40,40,40,40,40,40,40,40,40,40,40,40,40,40,40,40,40,40,40,40,40,40,40,40,40,40,40,40,40,40,40,40,40,40,40,40,40,40,40,40,40,40,40,40,40,40,40,40,40,40,40,40,40,40,40,40,40,40,40,40,40,40,40,40,40,40,40,40,40,40,40,40,40,40,40,40,40,40,40,40,40,40,40,40,40,40,40,
40,40,40,40,40,40,40,40,40,40,40,40,40,40,40,40,40,40,40,40,40,40,40,40,40,40,40,40,40,40,40,40,40,40,40,40,40,40,40,40,40,40,40,40,40,40,40,40,40,40,40,40,40,40,40,40,40,40,40,40,40,40,40,40,40,40,40,40,40,40,40,40,40,40,40,40,40,40,40,40,40,40,40,40,40,40,40,40,40,40,40,40,40,40,40,40,40,40,40,40,40,40,40,40,40,40,40,40,40,40,40,40,40,40,40,40,40,40,40,40,40,40,40,40,40,40,40,40,
40,40,40,40,40,40,40,40,40,40,40,40,40,40,40,40,40,40,40,40,40,40,40,40,40,40,40,40,40,40,40,40,40,40,40,40,40,40,40,40,40,40,40,40,40,40,40,40,40,40,40,40,40,40,40,40,40,40,40,40,40,40,40,40,40,40,40,40,40,40,40,40,40,40,40,40,40,40,40,40,40,40,40,40,40,40,40,40,40,40,40,40,40,40,40,40,40,40,40,40,40,40,40,40,40,40,40,40,40,40,40,40,40,40,40,40,40,40,40,40,40,40,40,40,40,40,40,40,
40,40,40,40,40,40,40,40,40,40,40,40,40,40,40,40,40,40,40,40,40,40,40,40,40,40,40,40,40,40,40,40,40,40,40,40,40,40,40,40,40,40,40,40,40,40,40,40,40,40,40,40,40,40,40,40,40,40,40,40,40,40,40,40,40,40,40,40,40,40,40,40,40,40,40,40,40,40,40,40,40,40,40,40,40,40,40,40,40,40,40,40,40,40,40,40,40,40,40,40,40,40,40,40,40,40,40,40,40,40,40,40,40,40,40,40,40,40,40,40,40,40,40,40,40,40,40,40,
40,40,40,40,40,40,40,40,40,40,40,40,40,40,40,40,40,40,40,40,40,40,40,40,40,40,40,40,40,40,40,40,40,40,40,40,40,40,40,40,40,40,40,40,40,40,40,40,40,40,40,40,40,40,40,40,40,40,40,40,40,40,40,40,40,40,40,40,40,40,40,40,40,40,40,40,40,40,40,40,40,40,40,40,40,40,40,40,40,40,40,40,40,40,40,40,40,40,40,40,40,40,40,40,40,40,40,40,40,40,40,40,40,40,40,40,40,40,40,40,40,40,40,40,40,40,40,40,
40,40,40,40,40,40,40,40,40,40,40,40,40,40,40,40,40,40,40,40,40,40,40,40,40,40,40,40,40,40,40,40,40,40,40,40,40,40,40,40,40,40,40,40,40,40,40,40,40,40,40,40,40,40,40,40,40,40,40,40,40,40,40,40,40,40,40,40,40,40,40,40,40,40,40,40,40,40,40,40,40,40,40,40,40,40,40,40,40,40,40,40,40,40,40,40,40,40,40,40,40,40,40,40,40,40,40,40,40,40,40,40,40,40,40,40,40,40,40,40,40,40,40,40,40,40,40,40,
40,40,40,40,40,40,40,40,40,40,40,40,40,40,40,40,40,40,40,40,40,40,40,40,40,40,40,40,40,40,40,40,40,40,40,40,40,40,40,40,40,40,40,40,40,40,40,40,40,40,40,40,40,40,40,40,40,40,40,40,40,40,40,40,40,40,40,40,40,40,40,40,40,40,40,40,40,40,40,40,40,40,40,40,40,40,40,40,40,40,40,40,40,40,40,40,40,40,40,40,40,40,40,40,40,40,40,40,40,40,40,40,40,40,40,40,40,40,40,40,40,40,40,40,40,40,40,40
</data>
 </layer>
 <objectgroup id="2" name="Object">
  <object id="1" template="ambiant_light.tx" x="480" y="480"/>
  <object id="17" template="ambiant_light.tx" x="480" y="1120"/>
  <object id="9" template="ambiant_light.tx" x="480" y="800"/>
  <object id="10" template="ambiant_light.tx" x="480" y="1440"/>
  <object id="3" template="ambiant_light.tx" x="800" y="480"/>
  <object id="16" template="ambiant_light.tx" x="800" y="1120"/>
  <object id="8" template="ambiant_light.tx" x="800" y="800"/>
  <object id="11" template="ambiant_light.tx" x="800" y="1440"/>
  <object id="4" template="ambiant_light.tx" x="1120" y="480"/>
  <object id="15" template="ambiant_light.tx" x="1120" y="1120"/>
  <object id="7" template="ambiant_light.tx" x="1120" y="800"/>
  <object id="12" template="ambiant_light.tx" x="1120" y="1440"/>
  <object id="5" template="ambiant_light.tx" x="1440" y="480"/>
  <object id="14" template="ambiant_light.tx" x="1440" y="1120"/>
  <object id="6" template="ambiant_light.tx" x="1440" y="800"/>
  <object id="13" template="ambiant_light.tx" x="1440" y="1440"/>
  <object id="18" template="dir_light.tx" x="960" y="480"/>
  <object id="19" template="dir_light.tx" x="1280" y="480"/>
  <object id="20" template="dir_light.tx" x="640" y="480"/>
 </objectgroup>
</map>
