<?xml version="1.0" encoding="UTF-8"?>
<map version="1.10" tiledversion="1.12.2" orientation="orthogonal" renderorder="left-up" width="48" height="48" tilewidth="16" tileheight="16" infinite="0" nextlayerid="19" nextobjectid="577">
 <tileset firstgid="1" source="tileset.tsx"/>
 <tileset firstgid="235" source="tileset_flags2.tsx"/>
 <layer id="13" name="Ground" width="48" height="48">
  <data encoding="csv">
20,6,6,6,6,6,6,6,6,6,6,6,6,6,6,6,6,6,6,6,6,6,6,6,6,6,6,6,6,6,6,6,6,6,6,6,6,6,6,6,6,6,6,6,6,6,6,20,
17,44,80,80,80,80,80,80,80,80,80,80,80,80,80,80,80,80,80,80,80,80,80,80,80,80,80,80,80,80,80,80,80,80,80,80,80,80,80,80,80,80,80,80,80,80,45,17,
17,68,40,40,40,40,40,40,40,40,40,40,40,40,40,40,40,40,40,40,40,40,40,40,40,40,40,40,40,40,40,40,40,40,40,40,40,40,40,40,40,40,40,40,40,40,66,17,
17,68,40,40,40,40,40,40,40,40,40,40,40,40,40,40,40,40,40,40,40,40,40,40,40,40,40,40,40,40,40,40,40,40,40,40,40,40,40,40,40,40,40,40,40,40,66,17,
17,68,40,40,40,40,40,40,40,40,40,40,40,40,40,40,40,40,40,40,40,40,40,40,40,40,40,40,40,40,40,40,40,40,40,40,40,40,40,40,40,40,40,40,40,40,66,17,
17,68,40,40,40,40,40,40,40,40,40,40,40,40,40,40,40,40,40,40,40,40,40,40,40,40,40,40,40,40,53,54,54,54,55,40,40,40,40,40,40,40,40,40,40,40,66,17,
17,68,40,40,40,40,40,40,40,40,40,40,40,40,40,40,40,40,40,40,40,53,54,54,54,54,54,54,54,62,86,45,74,41,46,55,40,40,40,40,40,40,40,40,40,40,66,17,
17,68,40,40,40,40,40,40,40,40,40,40,40,40,40,40,40,40,53,54,54,47,41,71,41,41,43,42,71,68,147,66,42,91,67,46,54,55,40,40,40,40,40,40,40,40,66,17,
17,68,40,40,40,40,40,40,40,40,40,40,53,222,54,54,54,54,47,91,42,91,43,43,105,106,106,107,41,68,173,79,80,80,80,45,42,46,55,40,40,40,40,40,40,40,66,17,
17,68,40,40,40,40,40,40,40,40,40,53,47,17,67,91,71,71,91,74,91,42,67,41,131,132,132,133,42,68,144,145,145,145,146,66,41,74,46,54,55,40,40,40,40,40,66,17,
17,68,40,40,40,40,40,40,40,40,53,47,67,17,42,74,74,44,80,45,74,41,41,74,43,67,67,43,43,68,157,183,184,185,159,66,74,74,67,91,46,55,40,40,40,40,66,17,
17,68,40,40,40,40,40,40,40,40,66,43,42,30,4,67,67,68,147,66,67,71,91,91,42,71,42,42,74,68,157,196,197,198,159,66,43,71,41,67,74,68,40,40,40,40,66,17,
17,68,40,40,40,40,40,40,40,53,47,71,91,91,30,4,43,68,173,66,41,74,91,43,41,67,91,91,43,68,157,209,210,211,159,66,43,74,74,41,41,46,55,40,40,40,66,17,
17,68,40,40,40,40,40,40,53,47,74,42,74,41,4,17,74,46,54,47,74,42,41,74,74,91,41,71,67,68,170,171,171,171,172,66,41,67,67,74,91,41,68,40,40,40,66,17,
17,68,40,40,40,40,40,40,66,41,91,41,42,71,32,25,91,43,67,41,43,5,7,41,105,107,42,74,67,46,54,54,54,54,54,47,4,43,71,43,42,67,68,40,40,40,66,17,
17,68,40,40,40,40,40,53,47,41,11,7,91,42,17,41,91,91,71,42,42,42,42,42,118,120,42,42,43,71,74,67,42,71,41,41,24,12,91,43,41,67,68,40,40,40,66,17,
17,68,40,40,40,40,40,66,71,42,30,91,91,5,31,12,41,91,41,43,42,42,42,105,99,120,74,42,42,43,41,4,74,41,74,71,71,17,43,91,42,43,68,40,40,40,66,17,
17,68,40,40,40,40,40,66,42,71,71,71,4,71,67,17,43,41,41,42,41,42,42,118,96,133,42,41,91,67,67,24,7,42,74,67,43,17,71,43,41,41,68,40,40,40,66,17,
17,68,40,40,40,40,40,66,71,4,71,41,17,41,42,17,71,4,71,67,74,67,42,131,133,44,80,45,71,42,4,67,91,91,42,67,67,30,71,41,43,44,81,40,40,40,66,17,
17,68,40,40,40,40,40,66,67,17,74,42,30,71,74,24,7,17,74,91,43,42,41,74,44,81,147,66,71,43,32,6,12,71,108,41,71,41,67,42,41,68,40,40,40,40,66,17,
17,68,40,40,40,40,53,47,41,30,42,4,43,71,41,74,42,17,67,91,71,67,43,42,68,148,168,66,42,5,25,42,30,43,141,107,67,91,41,71,71,68,40,40,40,40,66,17,
17,68,40,40,40,40,66,67,74,42,11,25,1,3,91,4,71,17,43,71,41,74,43,71,46,54,54,47,71,71,41,71,5,7,131,117,105,107,41,67,43,68,40,40,40,40,66,17,
17,68,40,40,40,40,66,42,41,74,30,41,27,29,42,24,12,24,12,91,41,42,105,107,71,71,43,43,91,41,71,67,74,4,41,128,138,140,111,43,44,81,40,40,40,40,66,17,
17,68,40,40,40,40,66,43,41,74,44,45,4,43,67,71,17,71,30,42,74,105,99,120,42,74,71,91,42,71,71,67,91,30,71,91,71,41,43,41,68,40,40,40,40,40,66,17,
17,68,40,40,40,40,66,67,41,74,68,223,25,42,43,4,30,42,74,42,43,118,96,133,67,42,91,67,74,43,67,91,71,67,74,91,42,67,67,67,68,40,40,40,40,40,66,17,
17,68,40,40,40,40,79,45,71,43,46,47,74,11,7,30,42,91,74,42,91,130,133,71,67,74,105,107,42,71,91,74,74,44,80,80,45,91,41,91,68,40,40,40,40,40,66,17,
17,68,40,40,40,40,40,66,71,74,4,91,5,33,74,43,43,43,42,42,105,113,107,105,106,106,99,120,43,67,4,74,41,68,144,146,66,71,42,44,81,40,40,40,40,40,66,17,
17,68,40,40,40,40,40,79,45,91,30,42,91,32,7,91,41,74,42,42,131,97,127,138,132,132,132,117,108,71,17,67,43,68,170,172,66,67,42,68,40,40,40,40,40,40,66,17,
17,68,40,40,40,40,40,40,66,67,71,42,71,17,74,41,91,71,105,106,107,131,133,44,80,80,45,141,142,74,30,74,41,46,54,54,47,5,6,225,40,40,40,40,40,40,66,17,
17,68,40,40,40,40,40,40,66,74,74,11,7,30,41,67,67,71,118,126,120,67,74,68,148,150,66,131,133,74,71,71,67,74,67,74,43,4,71,68,40,40,40,40,40,40,66,17,
17,68,40,40,40,40,40,40,66,4,74,30,42,91,4,74,74,43,131,132,133,74,91,46,54,54,47,42,71,42,91,71,74,43,41,5,7,30,44,81,40,40,40,40,40,40,66,17,
17,68,40,40,40,40,40,53,47,17,5,7,71,71,30,41,41,74,91,108,42,71,43,43,42,42,41,67,41,42,91,42,74,74,41,4,42,43,68,40,40,40,40,40,40,40,66,17,
17,68,40,40,40,40,40,66,67,17,4,71,42,91,42,41,42,71,105,142,71,67,43,42,41,43,91,43,4,71,91,74,42,42,43,30,91,44,81,40,40,40,40,40,40,40,66,17,
17,68,40,40,40,40,40,223,12,17,30,43,42,91,74,91,41,43,118,120,43,42,91,91,11,7,5,6,31,7,91,42,11,6,6,7,67,68,40,40,40,40,40,40,40,40,66,17,
17,68,40,40,40,40,40,66,30,17,67,43,74,91,74,43,42,67,118,120,42,41,5,7,30,71,42,5,12,71,5,6,25,71,41,5,12,68,40,40,40,40,40,40,40,40,66,17,
17,68,40,40,40,40,53,47,4,30,91,91,67,44,80,45,41,105,99,120,74,41,91,42,74,41,42,91,30,42,4,67,1,3,43,43,17,68,40,40,40,40,40,40,40,40,66,17,
17,68,40,40,40,53,47,67,30,74,74,71,43,68,147,66,74,118,96,133,41,44,80,80,80,80,80,45,41,91,17,42,27,29,71,91,30,68,40,40,40,40,40,40,40,40,66,17,
17,68,40,40,53,47,74,5,7,71,44,80,80,81,173,66,71,131,133,41,71,68,144,145,145,145,146,66,4,5,20,6,7,43,74,74,44,88,59,40,40,40,40,40,40,40,66,17,
17,68,40,53,47,74,42,4,67,67,68,144,145,146,53,47,41,105,106,107,43,68,157,183,184,185,159,66,17,43,30,71,5,12,74,91,68,40,40,40,40,40,40,40,40,40,66,17,
17,68,40,66,91,91,71,30,42,43,68,157,165,159,66,67,67,131,132,133,42,68,157,196,204,198,159,66,17,41,71,74,91,30,44,80,81,40,40,40,40,40,40,40,40,40,66,17,
17,68,40,66,71,67,74,91,67,41,68,170,171,172,66,74,43,43,44,80,80,65,157,209,210,211,159,66,24,12,91,71,44,80,81,40,40,40,40,40,40,40,40,40,40,40,66,17,
17,68,40,79,45,67,42,71,5,7,46,54,54,54,47,91,42,91,68,148,150,69,170,171,171,171,172,66,41,17,44,80,81,40,40,40,40,40,40,40,40,40,40,40,40,40,66,17,
17,68,40,40,79,45,67,71,67,42,67,67,41,42,43,42,67,42,46,54,54,61,54,54,62,58,58,86,80,224,81,40,40,40,40,40,40,40,40,40,40,40,40,40,40,40,66,17,
17,68,40,40,40,79,80,80,80,45,74,67,41,41,44,80,80,80,45,67,91,44,80,80,81,40,40,40,40,40,40,40,40,40,40,40,40,40,40,40,40,40,40,40,40,40,66,17,
17,68,40,40,40,40,40,40,40,79,80,80,80,80,81,40,40,40,79,80,80,81,40,40,40,40,40,40,40,40,40,40,40,40,40,40,40,40,40,40,40,40,40,40,40,40,66,17,
17,68,40,40,40,40,40,40,40,40,40,40,40,40,40,40,40,40,40,40,40,40,40,40,40,40,40,40,40,40,40,40,40,40,40,40,40,40,40,40,40,40,40,40,40,40,66,17,
17,46,54,54,54,54,54,54,54,54,54,54,54,54,54,54,54,54,54,54,54,54,54,54,54,54,54,54,54,54,54,54,54,54,54,54,54,54,54,54,54,54,54,54,54,54,47,17,
20,6,6,6,6,6,6,6,6,6,6,6,6,6,6,6,6,6,6,6,6,6,6,6,6,6,6,6,6,6,6,6,6,6,6,6,6,6,6,6,6,6,6,6,6,6,6,20
</data>
 </layer>
 <layer id="17" name="Flags" width="48" height="48" locked="1">
  <properties>
   <property name="flags" type="bool" value="true"/>
  </properties>
  <data encoding="csv">
0,0,0,0,0,0,0,0,0,0,0,0,0,0,0,0,0,0,0,0,0,0,0,0,0,0,0,0,0,0,0,0,0,0,0,0,0,0,0,0,0,0,0,0,0,0,0,0,
0,0,0,0,0,0,0,0,0,0,0,0,0,0,0,0,0,0,0,0,0,0,0,0,0,0,0,0,0,0,0,0,0,0,0,0,0,0,0,0,0,0,0,0,0,0,0,0,
0,0,0,0,0,0,0,0,0,0,0,0,0,0,0,0,0,0,0,0,0,0,0,0,0,0,0,0,0,0,0,0,0,0,0,0,0,0,0,0,0,0,0,0,0,0,0,0,
0,0,0,0,0,0,0,0,0,0,0,0,0,0,0,0,0,0,0,0,0,0,0,0,0,0,0,0,0,0,0,0,0,0,0,0,0,0,0,0,0,0,0,0,0,0,0,0,
0,0,0,0,0,0,0,0,0,0,0,0,0,0,0,0,0,0,0,0,0,0,0,0,0,0,0,0,0,0,0,0,0,0,0,0,0,0,0,0,0,0,0,0,0,0,0,0,
0,0,0,0,0,0,0,0,0,0,0,0,0,0,0,0,0,0,0,0,0,0,0,0,0,0,0,0,0,0,0,0,0,0,0,0,0,0,0,0,0,0,0,0,0,0,0,0,
0,0,0,0,0,0,0,0,0,0,0,0,0,0,0,0,0,0,0,0,0,0,0,0,0,0,0,0,0,0,0,0,0,0,0,0,0,0,0,0,0,0,0,0,0,0,0,0,
0,0,0,0,0,0,0,0,0,0,0,0,0,0,0,0,0,0,0,0,0,0,0,0,0,0,0,0,0,0,0,0,0,0,0,0,0,0,0,0,0,0,0,0,0,0,0,0,
0,0,0,0,0,0,0,0,0,0,0,0,0,0,0,0,0,0,0,0,0,0,0,0,0,0,0,0,0,0,0,0,0,0,0,0,0,0,0,0,0,0,0,0,0,0,0,0,
0,0,0,0,0,0,0,0,0,0,0,0,0,0,0,0,0,0,0,0,0,0,0,0,0,0,0,0,0,0,0,0,0,0,0,0,0,0,0,0,0,0,0,0,0,0,0,0,
0,0,0,0,0,0,0,0,0,0,0,0,0,0,0,0,0,0,0,0,0,0,0,0,0,0,0,0,0,0,0,0,0,0,0,0,0,0,0,0,0,0,0,0,0,0,0,0,
0,0,0,0,0,0,0,0,0,0,0,0,0,0,0,0,0,0,0,0,0,0,0,0,0,0,0,0,0,0,0,0,423,0,0,0,0,0,0,0,0,0,0,0,0,0,0,0,
0,0,0,0,0,0,0,0,0,0,0,0,0,0,0,0,0,0,0,0,0,0,0,0,0,0,0,0,0,0,0,0,0,0,0,0,0,0,0,0,0,0,0,0,0,0,0,0,
0,0,0,0,0,0,0,0,0,0,0,0,0,0,0,0,0,0,0,0,0,0,0,0,0,0,0,0,0,0,0,0,0,0,0,0,0,0,0,0,0,0,0,0,0,0,0,0,
0,0,0,0,0,0,0,0,0,0,0,0,0,0,0,0,0,0,0,0,0,0,0,0,0,0,0,0,0,0,0,0,0,0,0,0,0,0,0,0,0,0,0,0,0,0,0,0,
0,0,0,0,0,0,0,0,0,0,0,0,0,0,0,0,0,0,0,0,0,0,0,0,0,0,0,0,0,0,0,0,0,0,0,0,0,0,0,0,0,0,0,0,0,0,0,0,
0,0,0,0,0,0,0,0,0,0,0,0,0,0,0,0,0,0,0,0,0,0,0,0,0,0,0,0,0,0,0,0,0,0,0,0,0,0,0,0,0,0,0,0,0,0,0,0,
0,0,0,0,0,0,0,0,0,0,0,0,0,0,0,0,0,0,0,0,0,0,0,0,0,0,0,0,0,0,0,0,0,0,0,0,0,0,0,0,0,0,0,0,0,0,0,0,
0,0,0,0,0,0,0,0,0,0,0,0,0,0,0,0,0,0,0,0,0,0,0,0,0,0,0,0,0,0,0,0,0,0,0,0,0,0,0,0,0,0,0,0,0,0,0,0,
0,0,0,0,0,0,0,0,0,0,0,0,0,0,0,0,0,0,0,0,0,0,0,0,0,0,0,0,0,0,0,0,0,0,0,0,0,0,0,0,0,0,0,0,0,0,0,0,
0,0,0,0,0,0,0,0,0,0,0,0,0,0,0,0,0,0,0,0,0,0,0,0,0,0,0,0,0,0,0,0,0,0,0,0,0,0,0,0,0,0,0,0,0,0,0,0,
0,0,0,0,0,0,0,0,0,0,0,0,0,0,0,0,0,0,0,0,0,0,0,0,0,0,0,0,0,0,0,0,0,0,0,0,0,0,0,0,0,0,0,0,0,0,0,0,
0,0,0,0,0,0,0,0,0,0,0,0,0,0,0,0,0,0,0,0,0,0,0,0,0,0,0,0,0,0,0,0,0,0,0,0,0,0,0,0,0,0,0,0,0,0,0,0,
0,0,0,0,0,0,0,0,0,0,0,0,0,0,0,0,0,0,0,0,0,0,0,0,0,0,0,0,0,0,0,0,0,0,0,0,0,0,0,0,0,0,0,0,0,0,0,0,
0,0,0,0,0,0,0,0,0,0,0,0,0,0,0,0,0,0,0,0,0,0,0,0,0,0,0,0,0,0,0,0,0,0,0,0,0,0,0,0,0,0,0,0,0,0,0,0,
0,0,0,0,0,0,0,0,0,0,0,0,0,0,0,0,0,0,0,0,0,0,0,0,0,0,0,0,0,0,0,0,0,0,0,0,0,0,0,0,0,0,0,0,0,0,0,0,
0,0,0,0,0,0,0,0,0,0,0,0,0,0,0,0,0,0,0,0,0,0,0,0,0,0,0,0,0,0,0,0,0,0,0,0,0,0,0,0,0,0,0,0,0,0,0,0,
0,0,0,0,0,0,0,0,0,0,0,0,0,0,0,0,0,0,0,0,0,0,0,0,0,0,0,0,0,0,0,0,0,0,0,0,0,0,0,0,0,0,0,0,0,0,0,0,
0,0,0,0,0,0,0,0,0,0,0,0,0,0,0,0,0,0,0,0,0,0,0,0,0,0,0,0,0,0,0,0,0,0,0,0,0,0,0,0,0,0,0,0,0,0,0,0,
0,0,0,0,0,0,0,0,0,0,0,0,0,0,0,0,0,0,0,0,0,0,0,0,0,0,0,0,0,0,0,0,0,0,0,0,0,0,0,0,0,0,0,0,0,0,0,0,
0,0,0,0,0,0,0,0,0,0,0,0,0,0,0,0,0,0,0,0,0,0,0,0,0,0,0,0,0,0,0,0,0,0,0,0,0,0,0,0,0,0,0,0,0,0,0,0,
0,0,0,0,0,0,0,0,0,0,0,0,0,0,0,0,0,0,0,0,0,0,0,0,0,0,0,0,0,0,0,0,0,0,0,0,0,0,0,0,0,0,0,0,0,0,0,0,
0,0,0,0,0,0,0,0,0,0,0,0,0,0,0,0,0,0,0,0,0,0,0,0,0,0,0,0,0,0,0,0,0,0,0,0,0,0,0,0,0,0,0,0,0,0,0,0,
0,0,0,0,0,0,0,0,0,0,0,0,0,0,0,0,0,0,0,0,0,0,0,0,0,0,0,0,0,0,0,0,0,0,0,0,0,0,0,0,0,0,0,0,0,0,0,0,
0,0,0,0,0,0,0,0,0,0,0,0,0,0,0,0,0,0,0,0,0,0,0,0,0,0,0,0,0,0,0,0,0,0,0,0,0,0,0,0,0,0,0,0,0,0,0,0,
0,0,0,0,0,0,0,0,0,0,0,0,0,0,0,0,0,0,0,0,0,0,0,0,0,0,0,0,0,0,0,0,0,0,0,0,0,0,0,0,0,0,0,0,0,0,0,0,
0,0,0,0,0,0,0,0,0,0,0,0,0,0,0,0,0,0,0,0,0,0,0,0,0,0,0,0,0,0,0,0,0,0,0,0,0,0,0,0,0,0,0,0,0,0,0,0,
0,0,0,0,0,0,0,0,0,0,0,0,0,0,0,0,0,0,0,0,0,0,0,0,0,0,0,0,0,0,0,0,0,0,0,0,0,0,0,0,0,0,0,0,0,0,0,0,
0,0,0,0,0,0,0,0,0,0,0,0,0,0,0,0,0,0,0,0,0,0,0,0,0,0,0,0,0,0,0,0,0,0,0,0,0,0,0,0,0,0,0,0,0,0,0,0,
0,0,0,0,0,0,0,0,0,0,0,0,0,0,0,0,0,0,0,0,0,0,0,0,424,0,0,0,0,0,0,0,0,0,0,0,0,0,0,0,0,0,0,0,0,0,0,0,
0,0,0,0,0,0,0,0,0,0,0,0,0,0,0,0,0,0,0,0,0,0,0,0,0,0,0,0,0,0,0,0,0,0,0,0,0,0,0,0,0,0,0,0,0,0,0,0,
0,0,0,0,0,0,0,0,0,0,0,0,0,0,0,0,0,0,0,0,0,0,0,0,0,0,0,0,0,0,0,0,0,0,0,0,0,0,0,0,0,0,0,0,0,0,0,0,
0,0,0,0,0,0,0,0,0,0,0,0,0,0,0,0,0,0,0,0,0,0,0,0,0,0,0,0,0,0,0,0,0,0,0,0,0,0,0,0,0,0,0,0,0,0,0,0,
0,0,0,0,0,0,0,0,0,0,0,0,0,0,0,0,0,0,0,0,0,0,0,0,0,0,0,0,0,0,0,0,0,0,0,0,0,0,0,0,0,0,0,0,0,0,0,0,
0,0,0,0,0,0,0,0,0,0,0,0,0,0,0,0,0,0,0,0,0,0,0,0,0,0,0,0,0,0,0,0,0,0,0,0,0,0,0,0,0,0,0,0,0,0,0,0,
0,0,0,0,0,0,0,0,0,0,0,0,0,0,0,0,0,0,0,0,0,0,0,0,0,0,0,0,0,0,0,0,0,0,0,0,0,0,0,0,0,0,0,0,0,0,0,0,
0,0,0,0,0,0,0,0,0,0,0,0,0,0,0,0,0,0,0,0,0,0,0,0,0,0,0,0,0,0,0,0,0,0,0,0,0,0,0,0,0,0,0,0,0,0,0,0,
0,0,0,0,0,0,0,0,0,0,0,0,0,0,0,0,0,0,0,0,0,0,0,0,0,0,0,0,0,0,0,0,0,0,0,0,0,0,0,0,0,0,0,0,0,0,0,0
</data>
 </layer>
 <objectgroup color="#ffff00" id="14" name="Object">
  <object id="366" template="dir_light.tx" x="416" y="64">
   <properties>
    <property name="dist" type="float" value="4000"/>
   </properties>
  </object>
  <object id="369" template="dir_light.tx" x="720" y="400">
   <properties>
    <property name="dir" type="float" value="0.5"/>
    <property name="dist" type="float" value="4000"/>
   </properties>
  </object>
  <object id="379" template="dir_light.tx" x="192" y="640">
   <properties>
    <property name="dir" type="float" value="0.125"/>
    <property name="dist" type="float" value="4000"/>
   </properties>
  </object>
  <object id="380" template="ground_light.tx" type="ground" x="368" y="416">
   <properties>
    <property name="color" type="color" value="#c8ff825c"/>
   </properties>
  </object>
 </objectgroup>
</map>
