<?xml version="1.0" encoding="UTF-8"?>
<map version="1.10" tiledversion="1.12.2" orientation="orthogonal" renderorder="left-up" width="32" height="25" tilewidth="16" tileheight="16" infinite="0" nextlayerid="4" nextobjectid="1">
 <tileset firstgid="1" name="Tilemap" tilewidth="16" tileheight="16" spacing="1" tilecount="91" columns="13">
  <image source="Tilemap.png" width="221" height="118"/>
  <tile id="0">
   <properties>
    <property name="light" type="bool" value="true"/>
   </properties>
  </tile>
  <tile id="1">
   <properties>
    <property name="light" type="bool" value="true"/>
   </properties>
  </tile>
  <tile id="2">
   <properties>
    <property name="light" type="bool" value="true"/>
   </properties>
  </tile>
  <tile id="3">
   <properties>
    <property name="light" type="bool" value="true"/>
   </properties>
  </tile>
  <tile id="4">
   <properties>
    <property name="light" type="bool" value="true"/>
   </properties>
  </tile>
  <tile id="5">
   <properties>
    <property name="light" type="bool" value="true"/>
   </properties>
  </tile>
  <tile id="6">
   <properties>
    <property name="light" type="bool" value="true"/>
   </properties>
  </tile>
  <tile id="7">
   <properties>
    <property name="light" type="bool" value="true"/>
   </properties>
  </tile>
  <tile id="8">
   <properties>
    <property name="light" type="bool" value="true"/>
   </properties>
  </tile>
  <tile id="9">
   <properties>
    <property name="light" type="bool" value="true"/>
   </properties>
  </tile>
  <tile id="10">
   <properties>
    <property name="light" type="bool" value="true"/>
   </properties>
  </tile>
  <tile id="11">
   <properties>
    <property name="light" type="bool" value="true"/>
   </properties>
  </tile>
  <tile id="12">
   <properties>
    <property name="light" type="bool" value="true"/>
   </properties>
  </tile>
  <tile id="13">
   <properties>
    <property name="light" type="bool" value="true"/>
   </properties>
  </tile>
  <tile id="14">
   <properties>
    <property name="light" type="bool" value="true"/>
   </properties>
  </tile>
  <tile id="15">
   <properties>
    <property name="light" type="bool" value="true"/>
   </properties>
  </tile>
  <tile id="16">
   <properties>
    <property name="light" type="bool" value="true"/>
   </properties>
  </tile>
  <tile id="17">
   <properties>
    <property name="light" type="bool" value="false"/>
   </properties>
  </tile>
  <tile id="18">
   <properties>
    <property name="light" type="bool" value="false"/>
   </properties>
  </tile>
  <tile id="19">
   <properties>
    <property name="light" type="bool" value="false"/>
   </properties>
  </tile>
  <tile id="20">
   <properties>
    <property name="light" type="bool" value="false"/>
   </properties>
  </tile>
  <tile id="21">
   <properties>
    <property name="light" type="bool" value="false"/>
   </properties>
  </tile>
  <tile id="22">
   <properties>
    <property name="light" type="bool" value="false"/>
   </properties>
  </tile>
  <tile id="23">
   <properties>
    <property name="light" type="bool" value="false"/>
   </properties>
  </tile>
  <tile id="24">
   <properties>
    <property name="light" type="bool" value="false"/>
   </properties>
  </tile>
  <tile id="25">
   <properties>
    <property name="light" type="bool" value="false"/>
   </properties>
  </tile>
  <tile id="26">
   <properties>
    <property name="light" type="bool" value="false"/>
   </properties>
  </tile>
  <tile id="27">
   <properties>
    <property name="light" type="bool" value="true"/>
   </properties>
  </tile>
  <tile id="28">
   <properties>
    <property name="light" type="bool" value="true"/>
   </properties>
  </tile>
  <tile id="29">
   <properties>
    <property name="light" type="bool" value="true"/>
   </properties>
  </tile>
  <tile id="30">
   <properties>
    <property name="light" type="bool" value="false"/>
   </properties>
  </tile>
  <tile id="31">
   <properties>
    <property name="light" type="bool" value="false"/>
   </properties>
  </tile>
  <tile id="32">
   <properties>
    <property name="light" type="bool" value="false"/>
   </properties>
  </tile>
  <tile id="33">
   <properties>
    <property name="light" type="bool" value="false"/>
   </properties>
  </tile>
  <tile id="34">
   <properties>
    <property name="light" type="bool" value="false"/>
   </properties>
  </tile>
  <tile id="35">
   <properties>
    <property name="light" type="bool" value="false"/>
   </properties>
  </tile>
  <tile id="36">
   <properties>
    <property name="light" type="bool" value="false"/>
   </properties>
  </tile>
  <tile id="37">
   <properties>
    <property name="light" type="bool" value="false"/>
   </properties>
  </tile>
  <tile id="38">
   <properties>
    <property name="light" type="bool" value="false"/>
   </properties>
  </tile>
  <tile id="39">
   <properties>
    <property name="light" type="bool" value="false"/>
   </properties>
  </tile>
  <tile id="40">
   <properties>
    <property name="light" type="bool" value="true"/>
   </properties>
  </tile>
  <tile id="41">
   <properties>
    <property name="light" type="bool" value="true"/>
   </properties>
  </tile>
  <tile id="42">
   <properties>
    <property name="light" type="bool" value="true"/>
   </properties>
  </tile>
  <tile id="43">
   <properties>
    <property name="light" type="bool" value="false"/>
   </properties>
  </tile>
  <tile id="44">
   <properties>
    <property name="light" type="bool" value="false"/>
   </properties>
  </tile>
  <tile id="45">
   <properties>
    <property name="light" type="bool" value="false"/>
   </properties>
  </tile>
  <tile id="46">
   <properties>
    <property name="light" type="bool" value="false"/>
   </properties>
  </tile>
  <tile id="47">
   <properties>
    <property name="light" type="bool" value="false"/>
   </properties>
  </tile>
  <tile id="48">
   <properties>
    <property name="light" type="bool" value="false"/>
   </properties>
  </tile>
  <tile id="49">
   <properties>
    <property name="light" type="bool" value="false"/>
   </properties>
  </tile>
  <tile id="50">
   <properties>
    <property name="light" type="bool" value="false"/>
   </properties>
  </tile>
  <tile id="51">
   <properties>
    <property name="light" type="bool" value="false"/>
   </properties>
  </tile>
  <tile id="52">
   <properties>
    <property name="light" type="bool" value="false"/>
   </properties>
  </tile>
  <tile id="53">
   <properties>
    <property name="light" type="bool" value="false"/>
   </properties>
  </tile>
  <tile id="54">
   <properties>
    <property name="light" type="bool" value="false"/>
   </properties>
  </tile>
  <tile id="55">
   <properties>
    <property name="light" type="bool" value="false"/>
   </properties>
  </tile>
  <tile id="56">
   <properties>
    <property name="light" type="bool" value="false"/>
   </properties>
  </tile>
  <tile id="57">
   <properties>
    <property name="light" type="bool" value="false"/>
   </properties>
  </tile>
  <tile id="58">
   <properties>
    <property name="light" type="bool" value="false"/>
   </properties>
  </tile>
  <tile id="59">
   <properties>
    <property name="light" type="bool" value="false"/>
   </properties>
  </tile>
  <tile id="60">
   <properties>
    <property name="light" type="bool" value="false"/>
   </properties>
  </tile>
  <tile id="61">
   <properties>
    <property name="light" type="bool" value="true"/>
   </properties>
  </tile>
  <tile id="62">
   <properties>
    <property name="light" type="bool" value="false"/>
   </properties>
  </tile>
  <tile id="63">
   <properties>
    <property name="light" type="bool" value="false"/>
   </properties>
  </tile>
  <tile id="64">
   <properties>
    <property name="light" type="bool" value="false"/>
   </properties>
  </tile>
  <tile id="65">
   <properties>
    <property name="light" type="bool" value="false"/>
   </properties>
  </tile>
  <tile id="66">
   <properties>
    <property name="light" type="bool" value="false"/>
   </properties>
  </tile>
  <tile id="67">
   <properties>
    <property name="light" type="bool" value="false"/>
   </properties>
  </tile>
  <tile id="68">
   <properties>
    <property name="light" type="bool" value="false"/>
   </properties>
  </tile>
  <tile id="69">
   <properties>
    <property name="light" type="bool" value="false"/>
   </properties>
  </tile>
  <tile id="70">
   <properties>
    <property name="light" type="bool" value="true"/>
   </properties>
  </tile>
  <tile id="71">
   <properties>
    <property name="light" type="bool" value="false"/>
   </properties>
  </tile>
  <tile id="72">
   <properties>
    <property name="light" type="bool" value="false"/>
   </properties>
  </tile>
  <tile id="73">
   <properties>
    <property name="light" type="bool" value="false"/>
   </properties>
  </tile>
  <tile id="74">
   <properties>
    <property name="light" type="bool" value="true"/>
   </properties>
  </tile>
  <tile id="75">
   <properties>
    <property name="light" type="bool" value="false"/>
   </properties>
  </tile>
  <tile id="76">
   <properties>
    <property name="light" type="bool" value="false"/>
   </properties>
  </tile>
  <tile id="77">
   <properties>
    <property name="light" type="bool" value="true"/>
   </properties>
  </tile>
  <tile id="78">
   <properties>
    <property name="light" type="bool" value="true"/>
   </properties>
  </tile>
  <tile id="79">
   <properties>
    <property name="light" type="bool" value="true"/>
   </properties>
  </tile>
  <tile id="80">
   <properties>
    <property name="light" type="bool" value="true"/>
   </properties>
  </tile>
  <tile id="81">
   <properties>
    <property name="light" type="bool" value="true"/>
   </properties>
  </tile>
  <tile id="82">
   <properties>
    <property name="light" type="bool" value="false"/>
   </properties>
  </tile>
  <tile id="83">
   <properties>
    <property name="light" type="bool" value="false"/>
   </properties>
  </tile>
  <tile id="84">
   <properties>
    <property name="light" type="bool" value="false"/>
   </properties>
  </tile>
  <tile id="85">
   <properties>
    <property name="light" type="bool" value="true"/>
   </properties>
  </tile>
  <tile id="86">
   <properties>
    <property name="light" type="bool" value="true"/>
   </properties>
  </tile>
  <tile id="87">
   <properties>
    <property name="light" type="bool" value="true"/>
   </properties>
  </tile>
  <tile id="88">
   <properties>
    <property name="light" type="bool" value="true"/>
   </properties>
  </tile>
  <tile id="89">
   <properties>
    <property name="light" type="bool" value="true"/>
   </properties>
  </tile>
  <tile id="90">
   <properties>
    <property name="light" type="bool" value="true"/>
   </properties>
  </tile>
  <wangsets>
   <wangset name="Ground" type="mixed" tile="-1">
    <wangcolor name="ground" color="#ff0000" tile="-1" probability="1"/>
    <wangcolor name="empty" color="#0000ff" tile="-1" probability="1"/>
    <wangtile tileid="0" wangid="2,2,2,2,2,2,2,2"/>
    <wangtile tileid="1" wangid="2,2,2,2,2,2,2,2"/>
    <wangtile tileid="2" wangid="2,2,2,2,2,2,2,2"/>
    <wangtile tileid="3" wangid="2,2,2,2,2,2,2,2"/>
    <wangtile tileid="4" wangid="2,2,2,2,2,2,2,2"/>
    <wangtile tileid="5" wangid="2,2,2,2,2,2,2,2"/>
    <wangtile tileid="6" wangid="2,2,2,2,2,2,2,2"/>
    <wangtile tileid="7" wangid="2,2,2,2,2,2,2,2"/>
    <wangtile tileid="8" wangid="2,2,2,2,2,2,2,2"/>
    <wangtile tileid="9" wangid="2,2,2,2,2,2,2,2"/>
    <wangtile tileid="10" wangid="2,2,2,2,2,2,2,2"/>
    <wangtile tileid="11" wangid="2,2,2,2,2,2,2,2"/>
    <wangtile tileid="12" wangid="2,2,2,2,2,2,2,2"/>
    <wangtile tileid="13" wangid="2,2,2,2,2,2,2,2"/>
    <wangtile tileid="14" wangid="2,2,2,2,2,2,2,2"/>
    <wangtile tileid="15" wangid="2,2,2,2,2,2,2,2"/>
    <wangtile tileid="16" wangid="2,2,2,2,2,2,2,2"/>
    <wangtile tileid="17" wangid="2,2,1,1,1,2,2,2"/>
    <wangtile tileid="18" wangid="2,2,1,1,1,1,1,2"/>
    <wangtile tileid="19" wangid="2,2,2,2,1,1,1,2"/>
    <wangtile tileid="20" wangid="2,2,2,2,1,2,2,2"/>
    <wangtile tileid="21" wangid="2,2,1,2,2,2,2,2"/>
    <wangtile tileid="22" wangid="2,2,1,2,2,2,1,2"/>
    <wangtile tileid="23" wangid="2,2,2,2,2,2,1,2"/>
    <wangtile tileid="24" wangid="2,2,1,2,1,2,2,2"/>
    <wangtile tileid="25" wangid="2,2,2,2,1,2,1,2"/>
    <wangtile tileid="26" wangid="1,1,1,1,1,1,1,1"/>
    <wangtile tileid="27" wangid="2,2,2,2,2,2,2,2"/>
    <wangtile tileid="28" wangid="2,2,2,2,2,2,2,2"/>
    <wangtile tileid="29" wangid="2,2,2,2,2,2,2,2"/>
    <wangtile tileid="30" wangid="1,1,1,1,1,2,2,2"/>
    <wangtile tileid="31" wangid="1,1,1,1,1,1,1,1"/>
    <wangtile tileid="32" wangid="1,2,2,2,1,1,1,1"/>
    <wangtile tileid="33" wangid="1,2,2,2,1,2,2,2"/>
    <wangtile tileid="34" wangid="2,2,1,2,1,2,1,2"/>
    <wangtile tileid="36" wangid="1,2,1,2,1,2,1,2"/>
    <wangtile tileid="37" wangid="1,2,1,2,2,2,2,2"/>
    <wangtile tileid="38" wangid="1,2,2,2,2,2,1,2"/>
    <wangtile tileid="39" wangid="1,1,1,1,1,1,1,1"/>
    <wangtile tileid="40" wangid="2,2,2,2,2,2,2,2"/>
    <wangtile tileid="41" wangid="2,2,2,2,2,2,2,2"/>
    <wangtile tileid="42" wangid="2,2,2,2,2,2,2,2"/>
    <wangtile tileid="43" wangid="1,1,1,2,2,2,2,2"/>
    <wangtile tileid="44" wangid="1,1,1,2,2,2,1,1"/>
    <wangtile tileid="45" wangid="1,2,2,2,2,2,1,1"/>
    <wangtile tileid="46" wangid="1,2,2,2,2,2,2,2"/>
    <wangtile tileid="47" wangid="1,2,1,2,2,2,1,2"/>
    <wangtile tileid="48" wangid="1,2,1,2,1,2,2,2"/>
    <wangtile tileid="49" wangid="1,2,2,2,1,2,1,2"/>
    <wangtile tileid="50" wangid="1,1,1,1,1,1,1,1"/>
    <wangtile tileid="51" wangid="1,1,1,1,1,1,1,1"/>
    <wangtile tileid="52" wangid="1,1,1,1,1,1,1,1"/>
    <wangtile tileid="53" wangid="1,1,1,1,1,1,1,1"/>
    <wangtile tileid="54" wangid="1,2,1,1,1,2,2,2"/>
    <wangtile tileid="55" wangid="1,2,2,2,1,1,1,2"/>
    <wangtile tileid="56" wangid="2,2,1,1,1,2,1,2"/>
    <wangtile tileid="57" wangid="1,2,1,1,1,1,1,2"/>
    <wangtile tileid="58" wangid="2,2,1,2,1,1,1,2"/>
    <wangtile tileid="59" wangid="1,1,1,2,1,1,1,1"/>
    <wangtile tileid="60" wangid="1,1,1,1,1,2,1,1"/>
    <wangtile tileid="61" wangid="2,2,2,2,2,2,2,2"/>
    <wangtile tileid="62" wangid="1,1,1,1,1,1,1,1"/>
    <wangtile tileid="63" wangid="1,1,1,1,1,1,1,1"/>
    <wangtile tileid="64" wangid="1,1,1,1,1,1,1,1"/>
    <wangtile tileid="65" wangid="1,1,1,1,1,1,1,1"/>
    <wangtile tileid="66" wangid="1,1,1,1,1,1,1,1"/>
    <wangtile tileid="67" wangid="1,1,1,2,1,2,2,2"/>
    <wangtile tileid="68" wangid="1,2,2,2,1,2,1,1"/>
    <wangtile tileid="69" wangid="1,1,1,1,1,2,1,2"/>
    <wangtile tileid="70" wangid="2,2,2,2,2,2,2,2"/>
    <wangtile tileid="71" wangid="1,2,1,2,1,1,1,1"/>
    <wangtile tileid="72" wangid="1,2,1,1,1,1,1,1"/>
    <wangtile tileid="73" wangid="1,1,1,1,1,1,1,2"/>
    <wangtile tileid="74" wangid="2,2,2,2,2,2,2,2"/>
    <wangtile tileid="75" wangid="1,1,1,1,1,1,1,1"/>
    <wangtile tileid="76" wangid="1,1,1,1,1,1,1,1"/>
    <wangtile tileid="77" wangid="2,2,2,2,2,2,2,2"/>
    <wangtile tileid="78" wangid="2,2,2,2,2,2,2,2"/>
    <wangtile tileid="79" wangid="2,2,2,2,2,2,2,2"/>
    <wangtile tileid="80" wangid="2,2,2,2,2,2,2,2"/>
    <wangtile tileid="81" wangid="2,2,2,2,2,2,2,2"/>
    <wangtile tileid="82" wangid="1,1,1,2,2,2,1,2"/>
    <wangtile tileid="83" wangid="1,1,1,2,1,2,1,1"/>
    <wangtile tileid="84" wangid="1,2,1,2,2,2,1,1"/>
    <wangtile tileid="85" wangid="2,2,2,2,2,2,2,2"/>
    <wangtile tileid="86" wangid="2,2,2,2,2,2,2,2"/>
    <wangtile tileid="87" wangid="2,2,2,2,2,2,2,2"/>
    <wangtile tileid="88" wangid="2,2,2,2,2,2,2,2"/>
    <wangtile tileid="89" wangid="2,2,2,2,2,2,2,2"/>
    <wangtile tileid="90" wangid="2,2,2,2,2,2,2,2"/>
   </wangset>
  </wangsets>
 </tileset>
 <tileset firstgid="92" name="Lighting" tilewidth="16" tileheight="16" tilecount="9" columns="9">
  <image source="Lighting.png" width="144" height="16"/>
  <tile id="0">
   <properties>
    <property name="index" type="int" value="0"/>
   </properties>
  </tile>
  <tile id="1">
   <properties>
    <property name="index" type="int" value="1"/>
   </properties>
  </tile>
  <tile id="2">
   <properties>
    <property name="index" type="int" value="2"/>
   </properties>
  </tile>
  <tile id="3">
   <properties>
    <property name="index" type="int" value="3"/>
   </properties>
  </tile>
  <tile id="4">
   <properties>
    <property name="index" type="int" value="4"/>
   </properties>
  </tile>
  <tile id="5">
   <properties>
    <property name="index" type="int" value="5"/>
   </properties>
  </tile>
  <tile id="6">
   <properties>
    <property name="index" type="int" value="6"/>
   </properties>
  </tile>
  <tile id="7">
   <properties>
    <property name="index" type="int" value="7"/>
   </properties>
  </tile>
  <tile id="8">
   <properties>
    <property name="index" type="int" value="8"/>
   </properties>
  </tile>
 </tileset>
 <layer id="1" name="Map" width="32" height="25">
  <data encoding="csv">
78,78,78,78,78,78,78,78,78,78,78,78,78,78,78,78,78,78,78,78,78,78,78,78,78,78,78,78,78,78,78,78,
78,18,19,19,19,19,19,19,19,19,19,19,19,19,19,19,19,19,19,19,19,19,19,19,19,19,19,19,19,19,20,78,
78,31,32,32,32,32,32,32,32,32,32,32,32,32,77,27,40,32,32,32,32,32,32,32,32,32,32,32,32,32,33,78,
78,31,32,60,45,45,45,45,45,45,45,45,45,45,45,45,45,45,45,45,45,45,45,45,45,45,45,45,61,32,33,78,
78,31,32,33,78,78,78,78,78,78,78,78,78,1,43,75,89,5,78,78,78,78,78,78,78,78,78,78,31,32,33,78,
78,31,32,33,78,78,78,78,78,78,78,78,78,8,75,1,90,89,78,78,78,78,78,78,78,78,78,78,31,32,33,78,
78,31,32,33,78,78,21,78,78,78,78,78,78,11,8,17,90,29,78,78,78,78,78,78,78,21,78,78,31,32,33,78,
78,31,32,33,78,78,34,78,78,78,78,78,78,78,1,11,86,42,78,78,78,78,78,78,78,34,78,78,31,32,33,78,
78,31,32,33,78,78,34,78,78,78,78,78,78,78,28,4,5,78,78,78,78,78,78,78,78,34,78,78,31,32,33,78,
78,31,32,33,78,78,34,78,78,78,78,78,78,78,9,2,42,78,78,78,78,78,78,78,78,34,78,78,31,32,33,78,
78,31,32,33,78,78,34,78,78,78,21,78,78,78,87,43,5,78,78,78,78,21,78,78,78,34,78,78,31,32,33,78,
78,31,32,33,78,78,34,78,78,78,34,78,78,78,42,91,14,78,78,78,78,34,78,78,78,34,78,78,31,32,33,78,
78,31,32,33,78,78,34,78,78,78,34,78,78,16,82,41,7,78,78,78,78,34,78,78,78,34,78,78,31,32,33,78,
78,31,32,33,78,78,34,78,78,78,34,78,78,1,2,80,86,78,78,78,78,34,78,78,78,34,78,78,31,32,33,78,
78,31,32,33,78,78,34,78,78,78,47,78,78,81,81,3,75,28,78,78,78,47,78,78,78,34,78,78,31,32,33,78,
78,31,32,33,78,78,34,78,78,78,78,78,78,75,78,30,82,87,78,78,78,78,78,78,78,34,78,78,31,32,33,78,
78,31,32,33,78,78,34,78,78,78,78,78,78,3,90,8,11,88,78,78,78,78,78,78,78,34,78,78,31,32,33,78,
78,31,32,33,78,78,34,78,78,78,78,78,78,8,82,42,71,91,78,78,78,78,78,78,78,34,78,78,31,32,33,78,
78,31,32,33,78,78,47,78,78,78,78,78,78,90,89,30,6,88,78,78,78,78,78,78,78,47,78,78,31,32,33,78,
78,31,32,33,78,78,78,78,78,78,78,78,78,2,10,10,7,91,78,78,78,78,78,78,78,78,78,78,31,32,33,78,
78,31,32,33,78,78,78,78,78,78,78,78,78,7,86,80,16,17,78,78,78,78,78,78,78,78,78,78,31,32,33,78,
78,31,32,73,19,19,19,19,19,19,19,19,19,19,19,19,19,19,19,19,19,19,19,19,19,19,19,19,74,32,33,78,
78,31,32,32,32,32,32,32,32,32,32,32,32,32,32,32,32,32,32,32,32,32,32,32,32,32,32,32,32,32,33,78,
78,44,45,45,45,45,45,45,45,45,45,45,45,45,45,45,45,45,45,45,45,45,45,45,45,45,45,45,45,45,46,78,
78,78,78,78,78,78,78,78,78,78,78,78,78,78,78,78,78,78,78,78,78,78,78,78,78,78,78,78,78,78,78,78
</data>
 </layer>
</map>
