<?xml version="1.0" encoding="UTF-8"?>
<map version="1.10" tiledversion="1.12.2" orientation="orthogonal" renderorder="left-up" width="48" height="48" tilewidth="16" tileheight="16" infinite="0" nextlayerid="19" nextobjectid="582">
 <tileset firstgid="1" source="tileset.tsx"/>
 <tileset firstgid="235" source="tileset_flags2.tsx"/>
 <layer id="13" name="Ground" width="48" height="48">
  <data encoding="csv">
20,6,6,6,6,6,6,6,6,6,6,6,6,6,6,6,6,6,6,6,6,6,6,6,6,6,6,6,6,6,6,6,6,6,6,6,6,6,6,6,6,6,6,6,6,6,6,20,
17,43,91,42,91,74,42,42,91,71,41,91,43,42,41,91,42,74,42,71,42,43,71,71,71,42,71,67,41,43,74,71,43,43,74,41,67,43,74,43,74,67,74,43,91,43,41,17,
17,91,41,42,74,74,42,43,42,71,42,42,71,41,91,91,43,67,43,71,91,67,43,91,42,74,41,41,71,91,41,43,43,43,42,67,41,67,67,71,43,42,41,91,41,71,67,17,
17,74,74,71,74,91,43,91,91,42,71,71,71,67,43,71,42,43,71,91,71,43,41,42,74,67,71,71,67,42,91,74,43,41,41,43,67,71,91,74,91,41,41,43,41,74,67,17,
17,74,91,91,42,71,74,74,43,91,41,67,71,71,74,74,42,71,43,91,43,43,41,91,41,71,42,91,41,43,74,91,91,41,71,71,43,43,42,42,71,67,41,67,74,74,74,17,
17,43,91,74,43,44,80,80,80,80,80,45,42,42,42,43,71,67,42,67,71,74,71,71,42,67,67,74,41,91,71,91,67,67,91,71,44,80,80,80,80,80,45,43,41,42,43,17,
17,42,71,42,42,68,144,145,145,145,146,66,74,67,42,91,67,43,71,41,71,43,71,91,91,67,42,42,71,74,67,91,91,42,71,42,68,144,145,145,145,146,66,42,42,42,41,17,
17,67,74,41,74,68,157,183,184,185,159,66,74,71,41,67,91,71,42,43,42,91,42,43,67,41,41,91,91,41,71,41,74,91,43,41,68,157,183,184,185,159,66,41,67,42,67,17,
17,67,91,91,42,68,157,196,197,198,159,66,67,43,43,41,74,41,43,42,42,91,43,67,43,74,74,74,41,91,42,42,71,74,91,42,68,157,196,204,198,159,66,42,67,42,42,17,
17,74,42,74,42,68,157,209,210,211,159,66,71,91,91,43,42,74,71,41,91,42,67,74,43,43,74,74,42,91,91,91,43,71,67,43,68,157,209,210,211,159,66,91,67,41,71,17,
17,71,91,42,43,68,170,171,171,171,172,66,42,71,41,43,74,71,43,67,74,41,41,71,42,42,43,74,74,71,41,43,71,43,41,43,68,170,171,171,171,172,66,42,91,74,91,17,
17,41,42,74,91,46,54,54,54,54,54,47,42,41,43,42,67,41,67,42,41,91,91,43,74,74,91,74,42,91,91,41,41,74,74,74,46,54,54,54,54,54,47,43,74,42,67,17,
17,42,42,43,74,41,41,71,41,42,67,74,44,80,80,80,80,80,80,80,80,80,80,80,80,80,80,80,80,80,80,80,80,80,80,45,42,42,74,41,91,41,74,43,43,91,71,17,
17,74,91,43,91,42,91,42,42,67,74,41,68,144,145,145,145,145,145,145,145,145,145,145,145,145,145,145,145,145,145,145,145,145,146,66,71,41,67,71,71,71,67,74,91,42,67,17,
17,71,71,91,74,41,71,42,74,67,91,43,68,157,158,182,158,182,182,182,162,162,165,158,158,162,182,162,158,162,158,158,165,158,159,66,43,71,42,91,74,41,41,43,42,67,67,17,
17,41,71,74,91,41,91,42,91,71,67,41,68,157,165,182,158,158,162,162,158,165,182,162,162,162,182,162,165,165,182,182,162,165,159,66,91,41,91,41,74,74,42,41,74,74,91,17,
17,67,71,43,42,67,71,71,41,42,43,71,68,157,162,158,162,182,162,158,165,162,162,182,165,165,162,162,165,165,182,182,182,165,159,66,91,71,43,41,41,43,67,43,42,43,41,17,
17,91,91,42,71,67,42,67,42,43,74,41,68,157,162,182,162,162,165,158,162,158,182,165,162,162,162,162,162,158,158,158,182,162,159,66,43,67,42,67,74,41,74,71,67,71,43,17,
17,74,42,43,91,41,91,74,41,43,67,43,68,157,158,162,158,182,162,182,182,158,182,158,158,158,162,165,158,165,158,162,182,165,159,66,42,43,43,71,67,67,42,41,67,42,41,17,
17,43,74,71,67,43,41,41,71,74,74,71,68,157,158,165,158,165,182,158,158,162,182,162,158,182,165,158,182,162,162,162,162,158,159,66,91,41,91,91,91,67,74,67,41,67,42,17,
17,91,74,67,74,42,74,41,71,71,67,67,68,157,182,162,182,165,162,182,158,158,162,165,165,158,165,182,165,182,162,162,162,158,159,66,74,42,71,43,71,91,43,41,67,74,42,17,
17,43,71,41,71,42,67,74,91,67,43,67,68,157,162,158,182,162,162,162,182,162,182,162,158,182,162,158,162,158,182,182,182,182,159,66,41,74,67,43,41,42,41,42,74,41,67,17,
17,43,41,42,71,71,67,43,74,71,67,42,68,157,158,165,165,182,158,158,158,165,162,165,165,158,182,165,165,165,165,182,182,162,159,66,74,67,67,41,43,41,41,74,67,71,71,17,
17,41,74,91,74,67,41,91,74,67,41,71,68,157,182,182,162,162,165,165,158,158,162,182,162,162,162,158,158,165,162,165,162,162,159,66,43,42,74,71,67,67,41,43,67,74,71,17,
17,43,91,91,67,74,42,67,41,43,74,42,68,157,165,162,158,182,158,158,158,162,158,162,165,182,165,158,162,165,162,182,165,182,159,66,74,67,41,41,41,74,42,42,41,71,67,17,
17,74,71,42,67,67,41,42,71,74,74,91,68,157,162,165,165,165,158,162,182,158,165,158,158,162,182,165,162,182,182,158,162,158,159,66,42,74,41,42,71,42,91,42,41,42,41,17,
17,91,42,91,67,42,43,42,74,67,67,42,68,157,165,182,158,158,165,165,162,158,165,158,158,165,162,165,158,165,162,165,158,162,159,66,71,67,71,91,91,74,43,43,42,91,91,17,
17,42,41,43,41,74,91,42,41,67,67,67,68,157,182,162,162,182,182,162,182,182,165,162,182,165,165,158,158,158,165,158,182,162,159,66,42,71,42,91,43,42,42,91,71,41,42,17,
17,42,42,43,42,41,71,91,41,42,43,67,68,157,162,162,182,158,158,182,158,165,182,182,165,165,182,162,165,182,162,162,165,162,159,66,43,67,71,74,42,67,91,41,67,42,71,17,
17,74,71,42,91,42,42,42,71,42,67,42,68,157,165,182,165,162,162,162,158,162,158,158,165,162,158,182,162,165,165,182,165,165,159,66,74,71,74,71,91,74,74,74,91,91,91,17,
17,43,43,41,91,67,43,43,41,74,91,43,68,157,182,158,165,165,162,158,182,162,182,162,165,158,158,165,182,165,158,182,165,165,159,66,91,74,74,91,43,67,43,74,67,67,91,17,
17,42,91,74,91,74,43,71,91,42,42,41,68,157,158,165,165,165,182,182,162,182,182,162,162,165,165,182,158,158,162,162,158,162,159,66,43,42,67,74,67,43,71,74,41,67,74,17,
17,41,91,42,91,43,41,41,41,42,41,41,68,157,162,165,182,158,182,165,165,182,182,165,165,158,158,158,165,162,165,165,162,162,159,66,43,43,67,71,41,43,71,43,67,43,74,17,
17,71,71,71,91,42,71,43,41,74,42,71,68,157,162,158,158,182,182,158,162,165,162,165,165,182,158,182,165,182,165,158,182,165,159,66,74,67,91,74,74,42,43,74,91,71,91,17,
17,74,67,41,43,91,42,67,42,71,42,43,68,170,171,171,171,171,171,171,171,171,171,171,171,171,171,171,171,171,171,171,171,171,172,66,41,67,43,43,42,43,67,91,41,42,41,17,
17,91,74,91,74,41,41,41,43,41,91,71,46,54,54,54,54,54,54,54,54,54,54,54,54,54,54,54,54,54,54,54,54,54,54,47,41,67,42,43,67,41,41,91,41,41,67,17,
17,91,43,74,71,44,80,80,80,80,80,45,71,41,42,43,43,41,91,43,74,91,71,42,43,43,42,43,91,74,74,74,42,43,74,74,44,80,80,80,80,80,45,91,41,67,91,17,
17,41,42,42,74,68,144,145,145,145,146,66,43,41,71,74,41,43,67,67,42,41,42,42,42,41,43,74,42,71,41,41,71,74,71,71,68,144,145,145,145,146,66,91,91,42,42,17,
17,71,71,41,74,68,157,183,184,185,159,66,42,67,71,71,41,43,74,91,91,67,42,71,42,91,67,41,42,41,43,71,91,91,71,74,68,157,183,184,185,159,66,71,71,41,71,17,
17,42,42,42,74,68,157,196,221,198,159,66,74,43,71,43,67,42,74,67,67,43,74,42,67,71,42,74,71,43,42,91,91,71,74,71,68,157,196,201,198,159,66,43,71,71,41,17,
17,74,71,41,71,68,157,209,210,211,159,66,91,43,42,71,71,74,91,67,43,74,42,41,74,41,43,43,43,41,43,41,74,42,42,42,68,157,209,210,211,159,66,67,91,41,41,17,
17,74,91,41,67,68,170,171,171,171,172,66,43,67,71,41,43,43,42,71,71,74,41,42,91,43,71,41,74,71,67,67,74,42,74,71,68,170,171,171,171,172,66,74,67,41,91,17,
17,91,71,42,74,46,54,54,54,54,54,47,91,71,43,42,42,71,43,67,43,74,71,67,41,43,91,42,71,43,67,43,43,67,67,91,46,54,54,54,54,54,47,91,43,91,91,17,
17,74,74,74,43,43,71,67,67,67,43,41,41,71,91,71,74,71,71,41,41,42,43,74,41,41,42,43,43,43,67,71,42,71,74,91,42,91,91,42,42,91,43,42,41,67,74,17,
17,41,71,71,43,71,67,91,91,74,41,67,91,91,42,41,43,41,43,67,67,43,43,41,41,71,42,67,41,74,71,43,43,67,71,41,71,74,42,42,43,42,67,67,91,43,74,17,
17,43,91,43,91,71,74,43,43,71,74,71,91,74,91,71,91,42,91,71,42,91,42,91,41,67,91,71,91,41,91,67,71,74,71,41,43,74,67,42,43,74,43,43,67,71,41,17,
17,42,67,91,42,43,71,41,43,41,41,67,41,43,41,67,74,71,43,41,42,91,67,67,71,67,71,42,74,74,67,71,42,74,43,91,42,74,67,67,74,91,43,42,43,42,43,17,
20,6,6,6,6,6,6,6,6,6,6,6,6,6,6,6,6,6,6,6,6,6,6,6,6,6,6,6,6,6,6,6,6,6,6,6,6,6,6,6,6,6,6,6,6,6,6,20
</data>
 </layer>
 <layer id="17" name="Flags" width="48" height="48">
  <properties>
   <property name="flags" type="bool" value="true"/>
  </properties>
  <data encoding="csv">
0,0,0,0,0,0,0,0,0,0,0,0,0,0,0,0,0,0,0,0,0,0,0,0,0,0,0,0,0,0,0,0,0,0,0,0,0,0,0,0,0,0,0,0,0,0,0,0,
0,0,0,0,0,0,0,0,0,0,0,0,0,0,0,0,0,0,0,0,0,0,0,0,0,0,0,0,0,0,0,0,0,0,0,0,0,0,0,0,0,0,0,0,0,0,0,0,
0,0,0,0,0,0,0,0,0,0,0,0,0,0,0,0,0,0,0,0,0,0,0,0,0,0,0,0,0,0,0,0,0,0,0,0,0,0,0,0,0,0,0,0,0,0,0,0,
0,0,0,0,0,0,0,0,0,0,0,0,0,0,0,0,0,0,0,0,0,0,0,0,0,0,0,0,0,0,0,0,0,0,0,0,0,0,0,0,0,0,0,0,0,0,0,0,
0,0,0,0,0,0,0,0,0,0,0,0,0,0,0,0,0,0,0,0,0,0,0,0,0,0,0,0,0,0,0,0,0,0,0,0,0,0,0,0,0,0,0,0,0,0,0,0,
0,0,0,0,0,0,0,0,0,0,0,0,0,0,0,0,0,0,0,0,0,0,0,0,0,0,0,0,0,0,0,0,0,0,0,0,0,0,0,0,0,0,0,0,0,0,0,0,
0,0,0,0,0,0,0,0,0,0,0,0,0,0,0,0,0,0,0,0,0,0,0,0,0,0,0,0,0,0,0,0,0,0,0,0,0,0,0,0,0,0,0,0,0,0,0,0,
0,0,0,0,0,0,0,0,0,0,0,0,0,0,0,0,0,0,0,0,0,0,0,0,0,0,0,0,0,0,0,0,0,0,0,0,0,0,0,0,0,0,0,0,0,0,0,0,
0,0,0,0,0,0,0,0,244,0,0,0,0,0,0,0,0,0,0,0,0,0,0,0,0,0,0,0,0,0,0,0,0,0,0,0,0,0,0,254,0,0,0,0,0,0,0,0,
0,0,0,0,0,0,0,0,0,0,0,0,0,0,0,0,0,0,0,0,0,0,0,0,0,0,0,0,0,0,0,0,0,0,0,0,0,0,0,0,0,0,0,0,0,0,0,0,
0,0,0,0,0,0,0,0,0,0,0,0,0,0,0,0,0,0,0,0,0,0,0,0,0,0,0,0,0,0,0,0,0,0,0,0,0,0,0,0,0,0,0,0,0,0,0,0,
0,0,0,0,0,0,0,0,0,0,0,0,0,0,0,0,0,0,0,0,0,0,0,0,0,0,0,0,0,0,0,0,0,0,0,0,0,0,0,0,0,0,0,0,0,0,0,0,
0,0,0,0,0,0,0,0,0,0,0,0,0,0,0,0,0,0,0,0,0,0,0,0,0,0,0,0,0,0,0,0,0,0,0,0,0,0,0,0,0,0,0,0,0,0,0,0,
0,0,0,0,0,0,0,0,0,0,0,0,0,0,0,0,0,0,0,0,0,0,0,0,0,0,0,0,0,0,0,0,0,0,0,0,0,0,0,0,0,0,0,0,0,0,0,0,
0,0,0,0,0,0,0,0,0,0,0,0,0,0,0,0,0,0,0,0,0,0,0,0,0,0,0,0,0,0,0,0,0,0,0,0,0,0,0,0,0,0,0,0,0,0,0,0,
0,0,0,0,0,0,0,0,0,0,0,0,0,0,0,0,0,0,0,0,0,0,0,0,0,0,0,0,0,0,0,0,0,0,0,0,0,0,0,0,0,0,0,0,0,0,0,0,
0,0,0,0,0,0,0,0,0,0,0,0,0,0,0,0,0,0,0,0,0,0,0,0,0,0,0,0,0,0,0,0,0,0,0,0,0,0,0,0,0,0,0,0,0,0,0,0,
0,0,0,0,0,0,0,0,0,0,0,0,0,0,0,0,0,0,0,0,0,0,0,0,0,0,0,0,0,0,0,0,0,0,0,0,0,0,0,0,0,0,0,0,0,0,0,0,
0,0,0,0,0,0,0,0,0,0,0,0,0,0,0,0,0,0,0,0,0,0,0,0,0,0,0,0,0,0,0,0,0,0,0,0,0,0,0,0,0,0,0,0,0,0,0,0,
0,0,0,0,0,0,0,0,0,0,0,0,0,0,0,0,0,0,0,0,0,0,0,0,0,0,0,0,0,0,0,0,0,0,0,0,0,0,0,0,0,0,0,0,0,0,0,0,
0,0,0,0,0,0,0,0,0,0,0,0,0,0,0,0,0,0,0,0,0,0,0,0,0,0,0,0,0,0,0,0,0,0,0,0,0,0,0,0,0,0,0,0,0,0,0,0,
0,0,0,0,0,0,0,0,0,0,0,0,0,0,0,0,0,0,0,0,0,0,0,0,0,0,0,0,0,0,0,0,0,0,0,0,0,0,0,0,0,0,0,0,0,0,0,0,
0,0,0,0,0,0,0,0,0,0,0,0,0,0,0,0,0,0,0,0,0,0,0,0,0,0,0,0,0,0,0,0,0,0,0,0,0,0,0,0,0,0,0,0,0,0,0,0,
0,0,0,0,0,0,0,0,0,0,0,0,0,0,0,0,0,0,0,0,0,0,0,0,0,0,0,0,0,0,0,0,0,0,0,0,0,0,0,0,0,0,0,0,0,0,0,0,
0,0,0,0,0,0,0,0,0,0,0,0,0,0,0,0,0,0,0,0,0,0,0,0,0,0,0,0,0,0,0,0,0,0,0,0,0,0,0,0,0,0,0,0,0,0,0,0,
0,0,0,0,0,0,0,0,0,0,0,0,0,0,0,0,0,0,0,0,0,0,0,0,0,0,0,0,0,0,0,0,0,0,0,0,0,0,0,0,0,0,0,0,0,0,0,0,
0,0,0,0,0,0,0,0,0,0,0,0,0,0,0,0,0,0,0,0,0,0,0,0,0,0,0,0,0,0,0,0,0,0,0,0,0,0,0,0,0,0,0,0,0,0,0,0,
0,0,0,0,0,0,0,0,0,0,0,0,0,0,0,0,0,0,0,0,0,0,0,0,0,0,0,0,0,0,0,0,0,0,0,0,0,0,0,0,0,0,0,0,0,0,0,0,
0,0,0,0,0,0,0,0,0,0,0,0,0,0,0,0,0,0,0,0,0,0,0,0,0,0,0,0,0,0,0,0,0,0,0,0,0,0,0,0,0,0,0,0,0,0,0,0,
0,0,0,0,0,0,0,0,0,0,0,0,0,0,0,0,0,0,0,0,0,0,0,0,0,0,0,0,0,0,0,0,0,0,0,0,0,0,0,0,0,0,0,0,0,0,0,0,
0,0,0,0,0,0,0,0,0,0,0,0,0,0,0,0,0,0,0,0,0,0,0,0,0,0,0,0,0,0,0,0,0,0,0,0,0,0,0,0,0,0,0,0,0,0,0,0,
0,0,0,0,0,0,0,0,0,0,0,0,0,0,0,0,0,0,0,0,0,0,0,0,0,0,0,0,0,0,0,0,0,0,0,0,0,0,0,0,0,0,0,0,0,0,0,0,
0,0,0,0,0,0,0,0,0,0,0,0,0,0,0,0,0,0,0,0,0,0,0,0,0,0,0,0,0,0,0,0,0,0,0,0,0,0,0,0,0,0,0,0,0,0,0,0,
0,0,0,0,0,0,0,0,0,0,0,0,0,0,0,0,0,0,0,0,0,0,0,0,0,0,0,0,0,0,0,0,0,0,0,0,0,0,0,0,0,0,0,0,0,0,0,0,
0,0,0,0,0,0,0,0,0,0,0,0,0,0,0,0,0,0,0,0,0,0,0,0,0,0,0,0,0,0,0,0,0,0,0,0,0,0,0,0,0,0,0,0,0,0,0,0,
0,0,0,0,0,0,0,0,0,0,0,0,0,0,0,0,0,0,0,0,0,0,0,0,0,0,0,0,0,0,0,0,0,0,0,0,0,0,0,0,0,0,0,0,0,0,0,0,
0,0,0,0,0,0,0,0,0,0,0,0,0,0,0,0,0,0,0,0,0,0,0,0,0,0,0,0,0,0,0,0,0,0,0,0,0,0,0,0,0,0,0,0,0,0,0,0,
0,0,0,0,0,0,0,0,0,0,0,0,0,0,0,0,0,0,0,0,0,0,0,0,0,0,0,0,0,0,0,0,0,0,0,0,0,0,0,0,0,0,0,0,0,0,0,0,
0,0,0,0,0,0,0,0,0,0,0,0,0,0,0,0,0,0,0,0,0,0,0,0,0,0,0,0,0,0,0,0,0,0,0,0,0,0,0,0,0,0,0,0,0,0,0,0,
0,0,0,0,0,0,0,0,424,0,0,0,0,0,0,0,0,0,0,0,0,0,0,0,0,0,0,0,0,0,0,0,0,0,0,0,0,0,0,434,0,0,0,0,0,0,0,0,
0,0,0,0,0,0,0,0,0,0,0,0,0,0,0,0,0,0,0,0,0,0,0,0,0,0,0,0,0,0,0,0,0,0,0,0,0,0,0,0,0,0,0,0,0,0,0,0,
0,0,0,0,0,0,0,0,0,0,0,0,0,0,0,0,0,0,0,0,0,0,0,0,0,0,0,0,0,0,0,0,0,0,0,0,0,0,0,0,0,0,0,0,0,0,0,0,
0,0,0,0,0,0,0,0,0,0,0,0,0,0,0,0,0,0,0,0,0,0,0,0,0,0,0,0,0,0,0,0,0,0,0,0,0,0,0,0,0,0,0,0,0,0,0,0,
0,0,0,0,0,0,0,0,0,0,0,0,0,0,0,0,0,0,0,0,0,0,0,0,0,0,0,0,0,0,0,0,0,0,0,0,0,0,0,0,0,0,0,0,0,0,0,0,
0,0,0,0,0,0,0,0,0,0,0,0,0,0,0,0,0,0,0,0,0,0,0,0,0,0,0,0,0,0,0,0,0,0,0,0,0,0,0,0,0,0,0,0,0,0,0,0,
0,0,0,0,0,0,0,0,0,0,0,0,0,0,0,0,0,0,0,0,0,0,0,0,0,0,0,0,0,0,0,0,0,0,0,0,0,0,0,0,0,0,0,0,0,0,0,0,
0,0,0,0,0,0,0,0,0,0,0,0,0,0,0,0,0,0,0,0,0,0,0,0,0,0,0,0,0,0,0,0,0,0,0,0,0,0,0,0,0,0,0,0,0,0,0,0,
0,0,0,0,0,0,0,0,0,0,0,0,0,0,0,0,0,0,0,0,0,0,0,0,0,0,0,0,0,0,0,0,0,0,0,0,0,0,0,0,0,0,0,0,0,0,0,0
</data>
 </layer>
 <objectgroup color="#ffff00" id="14" name="Object">
  <object id="577" template="ground_light.tx" x="64" y="384"/>
  <object id="578" template="ground_light.tx" x="704" y="384"/>
  <object id="579" template="ground_light.tx" x="384" y="704"/>
  <object id="581" template="ground_light.tx" x="384" y="64"/>
 </objectgroup>
</map>
